Andreas691667/test_nn/data/pt_data/E2_pt.csv
timestamp actual_q_0 actual_q_1 actual_q_2 actual_q_3 actual_q_4 actual_q_5 actual_qd_0 actual_qd_1 actual_qd_2 actual_qd_3 actual_qd_4 actual_qd_5 safety_status output_bit_register_65 output_bit_register_66

3483.814 3.71211576461792 -0.8254425090602417 0.8429845015155237 -1.5882650814452113 -1.5707967917071741 2.1413040161132812 0.0 0.0 0.0 0.0 0.0 -0.0 1 False False

3483.864 3.71207857131958 -0.8254824441722413 0.8429721037494105 -1.5883094273009242 -1.5708206335650843 2.141287088394165 0.0 0.0 0.0 0.0 0.0 -0.0 1 False False

3483.9139999999998 3.712106943130493 -0.8254707020572205 0.8429763952838343 -1.5883056126036585 -1.5708487669574183 2.1412885189056396 0.0 0.0 0.0 0.0 0.0 -0.0 1 False False

3483.964 3.712013006210327 -0.8255112928203125 0.8429515997516077 -1.5882774792113246 -1.5708444754229944 2.14127516746521 0.0 0.0 0.0 0.0 0.0 -0.0 1 False False

3484.0139999999997 3.71207857131958 -0.8254249852946778 0.8429563681231897 -1.5883170566954554 -1.5708006064044397 2.141284227371216 0.0 0.0 0.0 0.0 0.0 -0.0 1 False False

3484.064 3.712083101272583 -0.8255156439593812 0.8429721037494105 -1.5883251629271449 -1.570841137562887 2.141258955001831 0.0 0.0 0.0 0.0 0.0 -0.0 1 False False

3484.114 3.71207857131958 -0.8254293960383912 0.8429697195636194 -1.588320871392721 -1.5708168188678187 2.141249895095825 0.0 0.0 0.0 0.0 0.0 -0.0 1 False False

3484.1639999999998 3.7120773792266846 -0.8254455488971253 0.8429754416095179 -1.5882412395873011 -1.5708125273333948 2.1412930488586426 0.0 0.0 0.0 0.0 0.0 -0.0 1 False False

3484.214 3.712062358856201 -0.8254781526378174 0.8430145422564905 -1.5883251629271449 -1.5707929770099085 2.1413004398345947 0.0 0.0 0.0 0.0 0.0 -0.0 1 False False

3484.2639999999997 3.7120862007141113 -0.8254781526378174 0.8429854551898401 -1.5882932148375453 -1.5708330313311976 2.141258955001831 0.0 0.0 0.0 0.0 0.0 -0.0 1 False False

3484.314 3.712054491043091 -0.8254662913135071 0.8430264631854456 -1.5883084736266078 -1.5708048979388636 2.1413004398345947 0.0 0.0 0.0 0.0 0.0 -0.0 1 False False

3484.364 3.712045907974243 -0.825491265659668 0.8429978529559534 -1.5883127651610316 -1.5708125273333948 2.141258955001831 0.0 0.0 0.0 0.0 0.0 -0.0 1 False False

3484.4139999999998 3.712062358856201 -0.8254781526378174 0.8429964224444788 -1.5883327923216761 -1.5707886854754847 2.141284227371216 0.0 0.0 0.0 0.0 0.0 -0.0 1 False False

3484.464 3.712033987045288 -0.8254674834064026 0.8429606596576136 -1.5882731876769007 -1.5707810560809534 2.141258955001831 0.0 0.0 0.0 0.0 0.0 -0.0 1 False False

3484.5139999999997 3.712066650390625 -0.8255449694446106 0.8429515997516077 -1.5882607899107875 -1.5707967917071741 2.141329526901245 0.0 0.0 0.0 0.0 0.0 -0.0 1 False False

3484.564 3.712062358856201 -0.825482503776886 0.8430007139789026 -1.5882774792113246 -1.5707929770099085 2.14127516746521 0.0 0.0 0.0 0.0 0.0 -0.0 1 False False

3484.614 3.712099313735962 -0.8254220646670838 0.8430145422564905 -1.5882607899107875 -1.5708006064044397 2.14131760597229 0.0 0.0 0.0 0.0 0.0 -0.0 1 False False

3484.6639999999998 3.7120981216430664 -0.8254662317088624 0.8429392019854944 -1.5883127651610316 -1.5707648436175745 2.1412994861602783 0.0 0.0 0.0 0.0 0.0 -0.0 1 False False

3484.714 3.7120370864868164 -0.8254457277110596 0.8429721037494105 -1.588273664514059 -1.5708125273333948 2.141284227371216 0.0 0.0 0.0 0.0 0.0 -0.0 1 False False

3484.7639999999997 3.7120699882507324 -0.8255155843547364 0.8430054823504847 -1.5883046589293421 -1.5708401838885706 2.14127516746521 0.0 0.0 0.0 0.0 0.0 -0.0 1 False False

3484.814 3.7120656967163086 -0.825540618305542 0.8429892698871058 -1.5882569752135218 -1.570784870778219 2.141263484954834 0.0 0.0 0.0 0.0 0.0 -0.0 1 False False

3484.864 3.712118625640869 -0.8254707616618653 0.8429563681231897 -1.5883246860899867 -1.570824925099508 2.141270637512207 0.0 0.0 0.0 0.0 0.0 -0.0 1 False False

3484.9139999999998 3.7120327949523926 -0.8254415553859253 0.8429845015155237 -1.58836092571401 -1.5707610289203089 2.141333818435669 0.0 0.0 0.0 0.0 0.0 -0.0 1 False False

3484.964 3.7121024131774902 -0.8254993718913575 0.8429721037494105 -1.5882488689818324 -1.5707648436175745 2.141284227371216 0.0 0.0 0.0 0.0 0.0 -0.0 1 False False

3485.0139999999997 3.712083101272583 -0.8254662913135071 0.8429892698871058 -1.5882851086058558 -1.570784870778219 2.141296148300171 0.0 0.0 0.0 0.0 0.0 -0.0 1 False False

3485.064 3.7120742797851562 -0.8254545491984864 0.8430007139789026 -1.5882770023741664 -1.5707967917071741 2.1412558555603027 0.0 0.0 0.0 0.0 0.0 -0.0 1 False False

3485.114 3.712068796157837 -0.8254620593837281 0.8429811636554163 -1.5882612667479457 -1.570801083241598 2.1412513256073 0.0 0.0 0.0 0.0 0.0 -0.0 1 False False

3485.1639999999998 3.712066650390625 -0.825478271847107 0.8429887930499476 -1.5882889233031214 -1.5707767645465296 2.1413004398345947 0.0 0.0 0.0 0.0 0.0 -0.0 1 False False

3485.214 3.712094783782959 -0.8254339259913941 0.8429802099810999 -1.5883013210692347 -1.5707886854754847 2.141275405883789 0.0 0.0 0.0 0.0 0.0 -0.0 1 False False

3485.2639999999997 3.7120981216430664 -0.8255208891681214 0.8429845015155237 -1.5882770023741664 -1.5707686583148401 2.141249895095825 0.0 0.0 0.0 0.0 0.0 -0.0 1 False False

3485.314 3.712123155593872 -0.8254793447307129 0.8429563681231897 -1.588292738000387 -1.5707724730121058 2.14131760597229 0.0 0.0 0.0 0.0 0.0 -0.0 1 False False

3485.364 3.712066650390625 -0.8254383963397522 0.842992130910055 -1.5882569752135218 -1.570801083241598 2.141267776489258 0.0 0.0 0.0 0.0 0.0 -0.0 1 False False

3485.4139999999998 3.7120699882507324 -0.8255242866328736 0.8429964224444788 -1.588320871392721 -1.5707925001727503 2.141267776489258 0.0 0.0 0.0 0.0 0.0 -0.0 1 False False

3485.464 3.7121036052703857 -0.8254416149905701 0.8429678122149866 -1.5883251629271449 -1.570784870778219 2.141258955001831 0.0 0.0 0.0 0.0 0.0 -0.0 1 False False

3485.5139999999997 3.7120819091796875 -0.8255726856044312 0.8429887930499476 -1.5883013210692347 -1.5707686583148401 2.1413004398345947 0.0 0.0 0.0 0.0 0.0 -0.0 1 False False

3485.564 3.7120413780212402 -0.8254793447307129 0.8429396788226526 -1.5882898769774378 -1.570824925099508 2.141216993331909 0.0 0.0 0.0 0.0 0.0 -0.0 1 False False

3485.614 3.712045669555664 -0.8255231541446229 0.8429759184466761 -1.5883013210692347 -1.570784870778219 2.141263246536255 0.0 0.0 0.0 0.0 0.0 -0.0 1 False False

3485.6639999999998 3.712111473083496 -0.8254825633815308 0.8429978529559534 -1.5883094273009242 -1.5707967917071741 2.1412723064422607 0.0 0.0 0.0 0.0 0.0 -0.0 1 False False

3485.714 3.7120323181152344 -0.8255070012858887 0.8429430166827601 -1.588320871392721 -1.570801083241598 2.141313076019287 0.0 0.0 0.0 0.0 0.0 -0.0 1 False False

3485.7639999999997 3.7120907306671143 -0.8254869741252442 0.8430126349078577 -1.588297029534811 -1.5707686583148401 2.14127516746521 0.0 0.0 0.0 0.0 0.0 -0.0 1 False False

3485.814 3.7120742797851562 -0.8254950803569336 0.8430092970477503 -1.5882650814452113 -1.5707805792437952 2.141291618347168 0.0 0.0 0.0 0.0 0.0 -0.0 1 False False

3485.864 3.712078809738159 -0.8255155843547364 0.8429635206805628 -1.588320871392721 -1.5707486311541956 2.141334056854248 0.0 0.0 0.0 0.0 0.0 -0.0 1 False False

3485.9139999999998 3.712108612060547 -0.8255362075618287 0.8429845015155237 -1.5882607899107875 -1.5708168188678187 2.141313076019287 0.0 0.0 0.0 0.0 0.0 -0.0 1 False False

3485.964 3.7120862007141113 -0.8254546088031312 0.8429845015155237 -1.5883094273009242 -1.5707972685443323 2.14127516746521 0.0 0.0 0.0 0.0 0.0 -0.0 1 False False

3486.0139999999997 3.712099552154541 -0.8255070012858887 0.8429721037494105 -1.5883013210692347 -1.5707772413836878 2.141334056854248 0.0 0.0 0.0 0.0 0.0 -0.0 1 False False

3486.064 3.712071180343628 -0.825491265659668 0.843017880116598 -1.5883494816222132 -1.570772949849264 2.141263246536255 0.0 0.0 0.0 0.0 0.0 -0.0 1 False False

3486.114 3.712062358856201 -0.8254912060550232 0.8430050055133265 -1.588280817071432 -1.5707767645465296 2.14127516746521 0.0 0.0 0.0 0.0 0.0 -0.0 1 False False

3486.1639999999998 3.7120907306671143 -0.8254211705974122 0.8429115454303187 -1.5883013210692347 -1.5708211104022425 2.141263246536255 0.0 0.0 0.0 0.0 0.0 -0.0 1 False False

3486.214 3.7120578289031982 -0.8254459661296387 0.8429477850543421 -1.5882731876769007 -1.5707724730121058 2.141254186630249 0.0 0.0 0.0 0.0 0.0 -0.0 1 False False

3486.2639999999997 3.712120532989502 -0.8255403202823182 0.8429887930499476 -1.5883289776244105 -1.5707767645465296 2.1412558555603027 0.0 0.0 0.0 0.0 0.0 -0.0 1 False False

3486.314 3.7120697498321533 -0.8255038422397156 0.8429759184466761 -1.5882846317686976 -1.5707767645465296 2.141237735748291 0.0 0.0 0.0 0.0 0.0 -0.0 1 False False

3486.364 3.712078809738159 -0.8254708212665101 0.8429635206805628 -1.5882774792113246 -1.570801083241598 2.1413087844848633 0.0 0.0 0.0 0.0 0.0 -0.0 1 False False

3486.4139999999998 3.712029457092285 -0.8255242866328736 0.8429845015155237 -1.5882889233031214 -1.5707767645465296 2.141279697418213 0.0 0.0 0.0 0.0 0.0 -0.0 1 False False

3486.464 3.7120249271392822 -0.8254750531962891 0.8429973761187952 -1.5883127651610316 -1.5708168188678187 2.141313314437866 0.0 0.0 0.0 0.0 0.0 -0.0 1 False False

3486.5139999999997 3.7120816707611084 -0.8255112928203125 0.8429606596576136 -1.5883056126036585 -1.5707486311541956 2.141296148300171 0.0 0.0 0.0 0.0 0.0 -0.0 1 False False

3486.564 3.7120532989501953 -0.8254620593837281 0.8429759184466761 -1.5882727108397425 -1.5707886854754847 2.141296148300171 0.0 0.0 0.0 0.0 0.0 -0.0 1 False False

3486.614 3.7120697498321533 -0.825457827453949 0.8429806868182581 -1.5882650814452113 -1.570784870778219 2.141254186630249 0.0 0.0 0.0 0.0 0.0 -0.0 1 False False

3486.6639999999998 3.712111473083496 -0.8254950803569336 0.8429845015155237 -1.588252683679098 -1.5708373228656214 2.1412930488586426 0.0 0.0 0.0 0.0 0.0 -0.0 1 False False

3486.714 3.7120532989501953 -0.8255394262126465 0.8429563681231897 -1.5882731876769007 -1.5707767645465296 2.141267776489258 0.0 0.0 0.0 0.0 0.0 -0.0 1 False False

3486.7639999999997 3.7120862007141113 -0.8254662317088624 0.8429845015155237 -1.5883294544615687 -1.5707767645465296 2.141263246536255 0.0 0.0 0.0 0.0 0.0 -0.0 1 False False

3486.814 3.712062358856201 -0.8254950803569336 0.8429649511920374 -1.5883251629271449 -1.570784870778219 2.141263246536255 0.0 0.0 0.0 0.0 0.0 -0.0 1 False False

3486.864 3.7120907306671143 -0.8255523604205628 0.8429678122149866 -1.5882774792113246 -1.5708335081683558 2.141226053237915 0.0 0.0 0.0 0.0 0.0 -0.0 1 False False

3486.9139999999998 3.7120578289031982 -0.825457827453949 0.8430007139789026 -1.5882932148375453 -1.5707925001727503 2.141263246536255 0.0 0.0 0.0 0.0 0.0 -0.0 1 False False

3486.964 3.7121026515960693 -0.8255113524249573 0.8429721037494105 -1.5883013210692347 -1.570784870778219 2.1413040161132812 0.0 0.0 0.0 0.0 0.0 -0.0 1 False False

3487.0139999999997 3.712127923965454 -0.8255199950984498 0.8429392019854944 -1.5883170566954554 -1.5708368460284632 2.141242504119873 0.0 0.0 0.0 0.0 0.0 -0.0 1 False False

3487.064 3.712024688720703 -0.8254869741252442 0.8430097738849085 -1.588273664514059 -1.5707967917071741 2.141279697418213 0.0 0.0 0.0 0.0 0.0 -0.0 1 False False

3487.114 3.71209979057312 -0.8255275052836915 0.8429349104510706 -1.5882817707457484 -1.5707767645465296 2.1413004398345947 0.0 0.0 0.0 0.0 0.0 -0.0 1 False False

3487.1639999999998 3.7120907306671143 -0.8254869741252442 0.8429721037494105 -1.5882607899107875 -1.570829216633932 2.1413137912750244 0.0 0.0 0.0 0.0 0.0 -0.0 1 False False

3487.214 3.712095260620117 -0.8254993718913575 0.8429515997516077 -1.5883056126036585 -1.5707767645465296 2.141279697418213 0.0 0.0 0.0 0.0 0.0 -0.0 1 False False

3487.2639999999997 3.7120532989501953 -0.8254825633815308 0.8429277578936976 -1.5882889233031214 -1.570829216633932 2.141333818435669 0.0 0.0 0.0 0.0 0.0 -0.0 1 False False

3487.314 3.7120862007141113 -0.8255155843547364 0.8429630438434046 -1.5883332691588343 -1.570801083241598 2.141279697418213 0.0 0.0 0.0 0.0 0.0 -0.0 1 False False

3487.364 3.7120652198791504 -0.8254546088031312 0.8429630438434046 -1.5883056126036585 -1.570857350026266 2.141342878341675 0.0 0.0 0.0 0.0 0.0 -0.0 1 False False

3487.4139999999998 3.712111473083496 -0.8255479496768494 0.8429721037494105 -1.5883251629271449 -1.570813004170553 2.141237735748291 0.0 0.0 0.0 0.0 0.0 -0.0 1 False False

3487.464 3.7121026515960693 -0.8254546088031312 0.8429892698871058 -1.5883289776244105 -1.5708168188678187 2.141263246536255 0.0 0.0 0.0 0.0 0.0 -0.0 1 False False

3487.5139999999997 3.7120697498321533 -0.8255155247500916 0.8428977171527308 -1.588297029534811 -1.5707967917071741 2.141279697418213 0.0 0.0 0.0 0.0 0.0 -0.0 1 False False

3487.564 3.7120158672332764 -0.8254994314960022 0.8429845015155237 -1.5883051357665003 -1.570784870778219 2.141230583190918 0.0 0.0 0.0 0.0 0.0 -0.0 1 False False

3487.614 3.7120771408081055 -0.8254740399173279 0.8429935614215296 -1.5882774792113246 -1.5708168188678187 2.141313076019287 0.0 0.0 0.0 0.0 0.0 -0.0 1 False False

3487.6639999999998 3.7120907306671143 -0.8254993718913575 0.8429630438434046 -1.5882607899107875 -1.5707772413836878 2.141230583190918 0.0 0.0 0.0 0.0 0.0 -0.0 1 False False

3487.714 3.7120609283447266 -0.8255037826350708 0.8429802099810999 -1.5882774792113246 -1.5708168188678187 2.141267776489258 0.0 0.0 0.0 0.0 0.0 -0.0 1 False False

3487.7639999999997 3.712087631225586 -0.8255037826350708 0.8429892698871058 -1.5883094273009242 -1.5707767645465296 2.1413004398345947 0.0 0.0 0.0 0.0 0.0 -0.0 1 False False

3487.814 3.712111473083496 -0.8254993718913575 0.8429845015155237 -1.5882774792113246 -1.5708048979388636 2.1413204669952393 0.0 0.0 0.0 0.0 0.0 -0.0 1 False False

3487.864 3.7120535373687744 -0.8254459661296387 0.8430307547198694 -1.5882607899107875 -1.5707529226886194 2.141326427459717 0.0 0.0 0.0 0.0 0.0 -0.0 1 False False

3487.9139999999998 3.7120535373687744 -0.8254502576640625 0.8430188337909144 -1.5882774792113246 -1.570756737385885 2.1413094997406006 0.0 0.0 0.0 0.0 0.0 -0.0 1 False False

3487.964 3.7120697498321533 -0.8255146902850647 0.8429802099810999 -1.588292738000387 -1.570756737385885 2.141254186630249 0.0 0.0 0.0 0.0 0.0 -0.0 1 False False

3488.0139999999997 3.7120697498321533 -0.8255155247500916 0.8429935614215296 -1.5882607899107875 -1.5708091894732874 2.141313076019287 0.0 0.0 0.0 0.0 0.0 -0.0 1 False False

3488.064 3.71207857131958 -0.8255037826350708 0.8429845015155237 -1.5882655582823695 -1.5707967917071741 2.141308546066284 0.0 0.0 0.0 0.0 0.0 -0.0 1 False False

3488.114 3.712029457092285 -0.8254826229861756 0.8429763952838343 -1.588292738000387 -1.5707767645465296 2.141254186630249 0.0 0.0 0.0 0.0 0.0 -0.0 1 True False

3488.1639999999998 3.7120862007141113 -0.825463132267334 0.8429587523089808 -1.588273664514059 -1.5707648436175745 2.1413004398345947 0.0 0.0 0.0 0.0 0.0 -0.0 1 True False

3488.214 3.7120580673217773 -0.8254954975894471 0.8429515997516077 -1.5882417164244593 -1.5707805792437952 2.141279697418213 0.0 0.0 0.0 0.0 0.0 -0.0 1 True False

3488.2639999999997 3.712054491043091 -0.825465516453125 0.8430216948138636 -1.588297506371969 -1.5707529226886194 2.141249656677246 0.0 0.0 0.0 0.0 0.0 -0.0 1 True False

3488.314 3.7120699882507324 -0.8254997295192261 0.8430174032794397 -1.5883451900877894 -1.570801083241598 2.141267776489258 0.0 0.0 0.0 0.0 0.0 -0.0 1 True False

3488.364 3.7120370864868164 -0.8254546684077759 0.8429673353778284 -1.5882812939085902 -1.5707724730121058 2.14131760597229 0.0 0.0 0.0 0.0 0.0 -0.0 1 True False

3488.4139999999998 3.712050199508667 -0.8255155247500916 0.8429563681231897 -1.5883094273009242 -1.5707967917071741 2.14127516746521 0.0 0.0 0.0 0.0 0.0 -0.0 1 True False

3488.464 3.712062358856201 -0.8254459661296387 0.8429892698871058 -1.5883094273009242 -1.570824925099508 2.141284227371216 0.0 0.0 0.0 0.0 0.0 -0.0 1 True False

3488.5139999999997 3.7120327949523926 -0.8255112928203125 0.8429392019854944 -1.588308950463766 -1.570784870778219 2.1412394046783447 0.0 0.0 0.0 0.0 0.0 -0.0 1 True False

3488.564 3.7120730876922607 -0.8254950803569336 0.8429473082171839 -1.588297029534811 -1.5708006064044397 2.141267776489258 0.0 0.0 0.0 0.0 0.0 -0.0 1 True False

3488.614 3.712008476257324 -0.8254912060550232 0.8429515997516077 -1.5883332691588343 -1.5708335081683558 2.141313076019287 0.0 0.0 0.0 0.0 0.0 0.0001201410559588112 1 True False

3488.6639999999998 3.7120742797851562 -0.825458900337555 0.8429845015155237 -1.5882402859129847 -1.5708044211017054 2.141258955001831 0.0 0.0 0.0 0.0 0.0 5.661478230667427e-12 1 True False

3488.714 3.712029457092285 -0.8255123060992737 0.8430126349078577 -1.588252683679098 -1.5707686583148401 2.1413004398345947 0.0 0.0 0.0 0.0 0.0 8.599803823158176e-31 1 True False

3488.7639999999997 3.7121024131774902 -0.8254706424525757 0.8429845015155237 -1.5883218250670375 -1.570801083241598 2.1413159370422363 0.02345951646566391 -0.007347072474658489 3.1102672437555157e-06 0.0 0.0 5.4817635827930644e-05 1 True False

3488.814 3.7142317295074463 -0.8265025180629273 0.8443768660174769 -1.5887800655760707 -1.570784870778219 2.143449544906616 0.07708761841058731 -0.036045610904693604 0.05710718780755997 -0.01583166792988777 0.0 0.07450392097234726 1 True False

3488.864 3.719853162765503 -0.8292024892619629 0.8488276640521448 -1.5903235874571742 -1.5707767645465296 2.149029493331909 0.14756695926189423 -0.07491882145404816 0.12180288881063461 -0.03713392838835716 0.0 0.1436760276556015 1 True False

3488.9139999999998 3.729079484939575 -0.8339699667743226 0.8560660521136683 -1.5928555927672328 -1.570824925099508 2.1582205295562744 0.21656988561153412 -0.11545063555240631 0.17112939059734344 -0.051896631717681885 0.0 0.21148231625556946 1 True False

3488.964 3.741720199584961 -0.8406499189189454 0.8659914175616663 -1.596065183679098 -1.5708211104022425 2.170773506164551 0.2841583788394928 -0.1434667408466339 0.22252626717090607 -0.07138817012310028 0.0 0.2874886393547058 1 True False

3489.0139999999997 3.7576797008514404 -0.848930374985077 0.8784773985492151 -1.6004072628416957 -1.5707605520831507 2.186880588531494 0.35458382964134216 -0.1818559169769287 0.27577871084213257 -0.0963263288140297 2.199646873908296e-22 0.35049691796302795 1 True False

3489.064 3.7773935794830322 -0.8588802379420777 0.8937471548663538 -1.60551180462026 -1.5707967917071741 2.206376791000366 0.42560335993766785 -0.21787069737911224 0.3296934962272644 -0.12406902760267258 3.341256058336094e-41 0.4313522279262543 1 True False

3489.114 3.8002445697784424 -0.8707568806460877 0.9116085211383265 -1.6114241085448207 -1.5707925001727503 2.2295620441436768 0.49386951327323914 -0.2535651624202728 0.3846025764942169 -0.13290925323963165 0.00018858103430829942 0.4912341237068176 1 True False

3489.1639999999998 3.8268520832061768 -0.8844194573215027 0.9321473280536097 -1.6185461483397425 -1.570784870778219 2.256176233291626 0.5614933967590332 -0.2930052876472473 0.4384836256504059 -0.15023177862167358 6.932448013685644e-05 0.5607059597969055 1 True False

3489.214 3.857020854949951 -0.8997488778880616 0.9555581251727503 -1.6265565357603968 -1.570756737385885 2.2862470149993896 0.6367602944374084 -0.3205389678478241 0.496012806892395 -0.1831834614276886 -5.733156285714358e-06 0.63042151927948 1 True False

3489.2639999999997 3.89046573638916 -0.917040542965271 0.9816301504718226 -1.6354042492308558 -1.5707891623126429 2.3198039531707764 0.7078842520713806 -0.3600480556488037 0.5485960245132446 -0.18404728174209595 -0.00010985953122144565 0.6996812224388123 1 True False

3489.314 3.9274675846099854 -0.9358577293208619 1.010510269795553 -1.6451674900450648 -1.5707967917071741 2.356745958328247 0.772643506526947 -0.39590317010879517 0.6001880168914795 -0.19477500021457672 3.4356631317677966e-08 0.770071268081665 1 True False

3489.364 3.968010187149048 -0.9569449585727234 1.041872803364889 -1.6558863125243128 -1.5707686583148401 2.3971195220947266 0.8447920083999634 -0.4319555461406708 0.6549762487411499 -0.2257992923259735 5.2187790371535904e-27 0.8495007753372192 1 True False

3489.4139999999998 4.012109279632568 -0.9793036741069336 1.0760534445392054 -1.667431493798727 -1.570784870778219 2.4413328170776367 0.9167760014533997 -0.47294408082962036 0.7023688554763794 -0.24236834049224854 -0.00014763024228159338 0.9102890491485596 1 True False

3489.464 4.059606552124023 -1.0035565060428162 1.1129487196551722 -1.679917951623434 -1.5708087126361292 2.4887146949768066 0.9783319234848022 -0.495259165763855 0.7658784985542297 -0.2500837743282318 -4.1646413592388853e-05 0.9821802377700806 1 True False

3489.5139999999997 4.110538005828857 -1.0297726553729554 1.152550999318258 -1.6934691868224085 -1.5707443396197718 2.5398740768432617 1.0353330373764038 -0.5252609848976135 0.810211181640625 -0.27582383155822754 4.5500237320084125e-06 1.0464190244674683 1 True False

3489.564 4.162782669067383 -1.0564754170230408 1.1931727568255823 -1.7073031864561976 -1.5707686583148401 2.59199857711792 1.0478827953338623 -0.5377413034439087 0.8096503615379333 -0.2619672417640686 -0.0006778043461963534 1.0539865493774414 1 True False

3489.614 4.215295791625977 -1.0834259253791352 1.2336614767657679 -1.7212006054320277 -1.5707805792437952 2.6442596912384033 1.0418514013290405 -0.5382825136184692 0.8129559755325317 -0.2648758888244629 1.0851716281634166e-16 1.0460392236709595 1 True False

3489.6639999999998 4.2675862312316895 -1.1102167826941987 1.2744267622577112 -1.7349230251707972 -1.5708168188678187 2.696866512298584 1.049379587173462 -0.5382915139198303 0.8107584118843079 -0.2741888165473938 1.6483777054419728e-35 1.0438625812530518 1 True False

3489.714 4.320031642913818 -1.1371355217746277 1.3149636427508753 -1.7487884960570277 -1.5707324186908167 2.749164581298828 1.0511177778244019 -0.5367693305015564 0.8115991950035095 -0.2661224901676178 0.0 1.0503140687942505 1 True False

3489.7639999999997 4.372294902801514 -1.1640288692763825 1.355704132710592 -1.762601991693014 -1.5707486311541956 2.8013579845428467 1.0418001413345337 -0.5360007286071777 0.8120816946029663 -0.27765461802482605 -8.880149835022166e-05 1.047568440437317 1 True False

3489.814 4.42448616027832 -1.1906999808600922 1.3964360396014612 -1.7761365375914515 -1.5707653204547327 2.8538730144500732 1.024188756942749 -0.5220233201980591 0.7997666001319885 -0.2534172236919403 -5.962185969110578e-05 1.0280382633209229 1 True False

3489.864 4.47407341003418 -1.2161210638335724 1.434746567402975 -1.7893811664977015 -1.5708091894732874 2.903217077255249 0.9611683487892151 -0.48478731513023376 0.7423145771026611 -0.25488942861557007 -0.0003393022052478045 0.971946656703949 1 True False

3489.9139999999998 4.52020263671875 -1.2396922570518036 1.470424000416891 -1.801720758477682 -1.5707967917071741 2.9495396614074707 0.8891819715499878 -0.45643049478530884 0.691695511341095 -0.23351646959781647 -9.519257127346692e-13 0.8842507004737854 1 True False

3489.964 4.562977313995361 -1.26170767963443 1.5035279432879847 -1.8128954372801722 -1.5707810560809534 2.992016553878784 0.8131083846092224 -0.42250993847846985 0.6295235753059387 -0.2241668701171875 -1.445977129089152e-31 0.8186014294624329 1 True False

3490.0139999999997 4.602123260498047 -1.2816404861262818 1.5339787642108362 -1.8231965504088343 -1.570784870778219 3.031132698059082 0.7530224323272705 -0.3819078505039215 0.5869427919387817 -0.19543416798114777 -3.1461969088974086e-23 0.756801426410675 1 True False

3490.064 4.637643814086914 -1.2998526257327576 1.5616071859942835 -1.8325306377806605 -1.5708168188678187 3.0669195652008057 0.6839829087257385 -0.34687140583992004 0.5352153778076172 -0.16868966817855835 -8.842951544629774e-12 0.6766611933708191 1 True False

3490.114 4.669798851013184 -1.3164884012988587 1.5866096655475062 -1.8410941563048304 -1.5708125273333948 3.0990421772003174 0.6101927161216736 -0.3111395537853241 0.4706820845603943 -0.1852492094039917 -1.3432465165207903e-30 0.6085834503173828 1 True False

3490.1639999999998 4.698538303375244 -1.331119717364647 1.6090439001666468 -1.8486272297301234 -1.570784870778219 3.1277759075164795 0.5403041839599609 -0.27188757061958313 0.42112377285957336 -0.1414611041545868 -0.0 0.5353375673294067 1 True False

3490.214 4.723721981048584 -1.344078318481781 1.6282923857318323 -1.855497499505514 -1.5707967917071741 3.152820110321045 0.4729152023792267 -0.23905888199806213 0.36122724413871765 -0.1346132755279541 8.82668165446375e-14 0.47977375984191895 1 True False

3490.2639999999997 4.745477676391602 -1.3550665390542527 1.6454413572894495 -1.86094393352651 -1.5707691351519983 3.1744837760925293 0.4013671576976776 -0.20737092196941376 0.31172457337379456 -0.1212448999285698 1.3407745870828614e-32 0.4020228981971741 1 True False

3490.314 4.763515472412109 -1.3645345282605668 1.6593168417560022 -1.8658534489073695 -1.5707929770099085 3.192815065383911 0.3332829177379608 -0.16884389519691467 0.26180294156074524 -0.08324189484119415 0.0 0.33094561100006104 1 True False

3490.364 4.778253555297852 -1.3719617587378998 1.6708887259112757 -1.8697964153685511 -1.5708525816546839 3.2073025703430176 0.257683128118515 -0.13190026581287384 0.1960269808769226 -0.0649515837430954 0.0 0.27042335271835327 1 True False

3490.4139999999998 4.789361953735352 -1.3777550470880051 1.6794799009906214 -1.8726955852904261 -1.5708406607257288 3.2186667919158936 0.1925804167985916 -0.09646090865135193 0.1517624855041504 -0.04993452504277229 0.0 0.18840660154819489 1 True False

3490.464 4.7972493171691895 -1.3817398113063355 1.6855071226703089 -1.874869009057516 -1.5707767645465296 3.2264938354492188 0.11962020397186279 -0.06346703320741653 0.0949980691075325 -0.03621171414852142 0.0 0.12089986354112625 1 True False

3490.5139999999997 4.801435470581055 -1.3838495177081604 1.6889198462115687 -1.8758064709105433 -1.570784870778219 3.230682134628296 0.04968909174203873 -0.024922523647546768 0.04102747514843941 -0.013777083717286587 0.0 0.05293743312358856 1 True False

3490.564 4.802288055419922 -1.3842967462590714 1.6896527449237269 -1.8762766323485316 -1.570824925099508 3.2314460277557373 -0.003227091394364834 0.0078152846544981 0.020874537527561188 -0.03335384652018547 0.0 0.0004887305549345911 1 True False

3490.614 4.802255153656006 -1.3833669585040589 1.6915672461139124 -1.8789273701109828 -1.5707925001727503 3.2315609455108643 0.00050575309433043 0.030368000268936157 0.0538337379693985 -0.09298734366893768 3.2177253160625696e-05 0.0003091859689448029 1 True False

3490.6639999999998 4.80224609375 -1.3811821949533005 1.695550266896383 -1.8852182827391566 -1.5708449522601526 3.2315478324890137 0.0005894755013287067 0.061835505068302155 0.09755025058984756 -0.15483948588371277 2.6704418389345823e-23 0.0007435017032548785 1 True False

3490.714 4.80226993560791 -1.3775164645961304 1.7017539183246058 -1.8949223957457484 -1.5707925001727503 3.2315316200256348 0.0005890220636501908 0.08602213859558105 0.14072024822235107 -0.2169283926486969 4.0567590542203454e-42 0.00026638753479346633 1 True False

3490.7639999999997 4.802364349365234 -1.3725929123214264 1.7098973433123987 -1.908231874505514 -1.570813004170553 3.23154354095459 0.00028721618582494557 0.11094262450933456 0.1886390596628189 -0.2900908887386322 0.0 0.00014688546070829034 1 True False

3490.814 4.802335739135742 -1.3664919447949906 1.7205246130572718 -1.924828668633932 -1.570829216633932 3.2315521240234375 0.00023006695846561342 0.1359066665172577 0.23775868117809296 -0.3803979158401489 0.0 0.00010604949056869373 1 True False

3490.864 4.802334308624268 -1.3590063911727448 1.7335251013385218 -1.9450742206969203 -1.5708044211017054 3.2315597534179688 0.0001614548673387617 0.16136221587657928 0.27331697940826416 -0.43730756640434265 0.0 9.222853591950297e-09 1 True False

3490.9139999999998 4.802326679229736 -1.3504048746875306 1.7482789198504847 -1.9688002071776332 -1.5707767645465296 3.231593132019043 0.00012538503506220877 0.1850523203611374 0.32519587874412537 -0.49889540672302246 0.0 1.4009534119843522e-27 1 True False

3490.964 4.8023552894592285 -1.3402819347432633 1.7656481901751917 -1.9959188900389613 -1.5707648436175745 3.2315597534179688 0.00011605104373302311 0.19961661100387573 0.34133800864219666 -0.5748492479324341 0.0 0.0 1 True False

3491.0139999999997 4.8023600578308105 -1.330738679771759 1.7819536367999476 -2.022334714929098 -1.5708044211017054 3.2315478324890137 0.0001173112541437149 0.1835620105266571 0.31247106194496155 -0.4974503219127655 0.0 0.0 1 True False

3491.064 4.802341938018799 -1.3222635102323075 1.796687428151266 -2.0451566181578578 -1.5707925001727503 3.2315478324890137 8.972730574896559e-05 0.15645170211791992 0.26797735691070557 -0.4248506426811218 2.259356035594351e-09 0.0 1 True False

3491.114 4.802334308624268 -1.3150899571231385 1.8087881247149866 -2.0646783314146937 -1.5707648436175745 3.2315943241119385 2.811436752381269e-05 0.12995533645153046 0.2261950969696045 -0.3564140498638153 3.431966475627979e-28 0.0 1 True False

3491.1639999999998 4.802392959594727 -1.3092493575862427 1.8189523855792444 -2.0805589161314906 -1.5708254019366663 3.2315478324890137 0.0 0.09953293204307556 0.17887213826179504 -0.2786892056465149 0.0 0.0 1 True False

3491.214 4.8023881912231445 -1.3047619324973603 1.8269036451922815 -2.092948099175924 -1.5707686583148401 3.231527090072632 0.0 0.07732035964727402 0.128703311085701 -0.2129652202129364 0.0 0.0 1 True False

3491.2639999999997 4.802287578582764 -1.30142434061084 1.8324139753924769 -2.101778646508688 -1.5707925001727503 3.2315151691436768 0.0 0.05325741320848465 0.09457153081893921 -0.1403500735759735 1.4181278720198938e-17 0.0 1 True False

3491.314 4.802370071411133 -1.2994644504836579 1.8358343283282679 -2.107288499871725 -1.5707767645465296 3.2315640449523926 0.0 0.027466842904686928 0.0462249293923378 -0.07219288498163223 2.154139853728531e-36 0.0 1 True False

3491.364 4.8023176193237305 -1.2986911100200196 1.837184254323141 -2.1092807255186976 -1.5707805792437952 3.231510877609253 0.0 -0.0005777205224148929 0.0011055772192776203 -0.008674956858158112 0.0 4.178705785307102e-05 1 True False

3491.4139999999998 4.802350997924805 -1.2987320584109803 1.837121311818258 -2.1092926464476527 -1.5708368460284632 3.2315728664398193 0.0 -2.7897477829326926e-19 1.354130403473124e-25 -4.4477252231445163e-05 0.0 1.5414268376855587e-21 1 True False

3491.464 4.802350997924805 -1.2987319988063355 1.8371437231646937 -2.1092525921263636 -1.5707805792437952 3.2315282821655273 -4.018724212073721e-05 0.00034004231565631926 0.0001131251992774196 0.00019005734066013247 0.0 2.341429604040337e-40 1 True False

3491.5139999999997 4.802325248718262 -1.2987664204886933 1.837184254323141 -2.109232564965719 -1.5708211104022425 3.23148250579834 -2.700833101698663e-05 0.0002654920390341431 0.00019595076446421444 4.384765002942662e-19 0.0 0.0 1 True False

3491.564 4.802383899688721 -1.2987382274917145 1.8371709028827112 -2.109272619287008 -1.5707805792437952 3.2315478324890137 0.0 0.0008058928651735187 0.00021976306743454188 -0.00013075981405563653 0.0 0.0 1 True False

3491.614 4.802392959594727 -1.2986853879741211 1.837121311818258 -2.1092564068236292 -1.5707767645465296 3.2315566539764404 0.0 0.00025328202173113823 0.0002075216907542199 -9.088193473871797e-05 0.0 0.0 1 True False

3491.6639999999998 4.8023552894592285 -1.2987212103656312 1.8371828238116663 -2.1092645130553187 -1.570784870778219 3.2315478324890137 0.0 0.0001106495619751513 0.00014111115888226777 -8.528909529559314e-05 0.0 0.0 1 True False

3491.714 4.8023552894592285 -1.2987345916083832 1.8372200171100062 -2.109288831750387 -1.570801083241598 3.2315077781677246 0.0 0.00010033570288214833 6.66579362587072e-05 -7.328334322664887e-05 0.0 0.0 1 True False

3491.7639999999997 4.802338600158691 -1.2986987990191956 1.8371780554400843 -2.1092683277525843 -1.570784870778219 3.231498956680298 -1.4157840698414415e-11 0.00010179747914662585 2.543510504438018e-07 -9.511542884865776e-05 0.0 0.0 1 True False

3491.814 4.802343368530273 -1.2987107199481507 1.837191406880514 -2.1093207798399867 -1.570801083241598 3.2315640449523926 0.0 2.2632309709062076e-13 5.985148424941174e-37 -8.712164708413184e-05 0.0 0.0 1 True False

3491.864 4.802346706390381 -1.2987062495997925 1.83722430864443 -2.1092525921263636 -1.570801083241598 3.231522560119629 0.0 0.0 0.0 -7.806842040736228e-05 0.0 0.0 1 True False

3491.9139999999998 4.802366733551025 -1.298709200029709 1.8372152487384241 -2.1093045673766078 -1.570813004170553 3.23150634765625 0.0 0.0 0.0 -7.622425619047135e-05 0.0 0.0 1 True False

3491.964 4.802325248718262 -1.298679308300354 1.8370989004718226 -2.1093250713744105 -1.5708525816546839 3.231534481048584 0.0 7.857357786633656e-08 5.37227776931104e-07 -0.0019055947195738554 -1.1528381946845911e-05 0.0 1 True False

3492.0139999999997 4.802338600158691 -1.298794613485672 1.8370912710772913 -2.109539648095602 -1.5708335081683558 3.231502056121826 -7.377648640675942e-39 -6.656167705542881e-43 0.00012095987767679617 -0.00037923676427453756 2.8770792714384597e-13 3.4374436649261826e-17 1 True False

3492.064 4.802383899688721 -1.2987856429866333 1.8371194044696253 -2.1094514332213343 -1.5708211104022425 3.231572151184082 0.0 0.00020552772912196815 0.000113006288302131 0.000549066870007664 4.3702899255591514e-32 5.221484347871583e-36 1 True False

3492.114 4.802346706390381 -1.298997239475586 1.8366439978228968 -2.107727190057272 -1.5708087126361292 3.231534481048584 0.0 -0.015605318360030651 -0.030825139954686165 0.05664709210395813 0.0 0.0 1 True True

3492.1639999999998 4.802338600158691 -1.3007360857776185 1.8336485067950647 -2.1033669910826625 -1.5707767645465296 3.2315852642059326 0.0 -0.052630338817834854 -0.0869973823428154 0.12500661611557007 0.0 -4.099035504623316e-05 1 True True

3492.214 4.802364349365234 -1.3037973803332825 1.8284080664264124 -2.0950399837889613 -1.570784870778219 3.2315478324890137 0.0 -0.07536908239126205 -0.13312652707099915 0.20142419636249542 0.0 -3.7261626501415927e-22 1 True True

3492.2639999999997 4.802371501922607 -1.3082198959640046 1.820704762135641 -2.0831920109190882 -1.570813004170553 3.2315728664398193 0.0 -0.09592556953430176 -0.16988858580589294 0.2591131627559662 0.0 -5.659984627254369e-41 1 True True

3492.314 4.802301406860352 -1.3138067883304139 1.8109329382525843 -2.0682159862914027 -1.5707648436175745 3.231555223464966 0.0 -0.12293879687786102 -0.21030515432357788 0.3308974802494049 0.0 -5.9913556469837204e-05 1 True True

3492.364 4.8023600578308105 -1.3206411463073273 1.7992046515094202 -2.049187322656149 -1.5707686583148401 3.231503486633301 0.0 -0.15015392005443573 -0.263760507106781 0.4037044644355774 0.0 -2.7350350716853766e-12 1 True True

3492.4139999999998 4.802314758300781 -1.3288268160871048 1.7851083914386194 -2.0271626911559046 -1.5708168188678187 3.2315316200256348 0.0 -0.17852407693862915 -0.3075563907623291 0.4727156162261963 0.0 -1.767594221746549e-05 1 True True

3492.464 4.802297115325928 -1.3383914691260834 1.76894456544985 -2.001531263391012 -1.5707648436175745 3.231534719467163 0.0 -0.19949884712696075 -0.3423381745815277 0.5534344911575317 0.0 9.818042912002056e-08 1 True True

3492.5139999999997 4.8023552894592285 -1.348475695853569 1.7514269987689417 -1.9740644894041957 -1.5707648436175745 3.231503486633301 0.0 -0.18863719701766968 -0.33511215448379517 0.529049277305603 0.0 1.4913629576613044e-26 1 True True

3492.564 4.802326679229736 -1.3573488009027024 1.7362692991839808 -1.9495912990965785 -1.5707925001727503 3.2315402030944824 0.0 -0.16674558818340302 -0.2881825268268585 0.4524986445903778 0.0 2.802596928649634e-45 1 True True

3492.614 4.802366733551025 -1.365001769070961 1.7228487173663538 -1.9286719761290492 -1.570829216633932 3.2315478324890137 0.0 -0.14160779118537903 -0.24135668575763702 0.38152918219566345 0.0 0.0 1 True True

3492.6639999999998 4.802326679229736 -1.3714633894017716 1.7120512167560022 -1.911234041253561 -1.57074481645693 3.2315402030944824 0.0 -0.11612047255039215 -0.19983996450901031 0.3138620853424072 0.0 0.0 1 True True

3492.714 4.802387714385986 -1.3765970033458252 1.7033217589007776 -1.897228857079977 -1.5707805792437952 3.2315316200256348 0.0 -0.09002368152141571 -0.1585933268070221 0.2411477118730545 0.0 0.0 1 True True

3492.7639999999997 4.802342414855957 -1.380355955367424 1.6966732184039515 -1.886883398095602 -1.5708335081683558 3.2315239906311035 0.0 -0.0620165579020977 -0.11541340500116348 0.17949774861335754 0.0 0.0 1 True True

3492.814 4.80232572555542 -1.383004606967308 1.6921590010272425 -1.8799311123290003 -1.5707805792437952 3.2315609455108643 0.0 -0.03646276891231537 -0.06528449058532715 0.1200452595949173 0.0 0.0 1 True True

3492.864 4.8023223876953125 -1.3842290949872513 1.6899192968951624 -1.8765918217101039 -1.5707686583148401 3.2315316200256348 0.0 -0.015190706588327885 -0.02317328006029129 0.03505074977874756 0.0 0.0 1 True True

3492.9139999999998 4.801915645599365 -1.3842804592898865 1.689707104359762 -1.8762084446349085 -1.570772949849264 3.231102705001831 -0.0353412926197052 7.615871438282626e-23 0.00017237430438399315 0.00044716792763210833 0.0 -0.029604746028780937 1 True True

3492.964 4.798527240753174 -1.3842957478812714 1.6897113958941858 -1.876136919061178 -1.5707648436175745 3.227541208267212 -0.10490762442350388 0.0 -0.00010118650243384764 0.002968990011140704 0.0 -0.10395261645317078 1 True True

3493.0139999999997 4.791356086730957 -1.384312019949295 1.6896994749652308 -1.876077791253561 -1.5707805792437952 3.22044038772583 -0.17166350781917572 0.0 -5.708175012841821e-05 0.0011722088092938066 3.3663547084280944e-19 -0.17278924584388733 1 True True

3493.064 4.780841827392578 -1.3842923057130356 1.6896918455706995 -1.8760858974852503 -1.5707805792437952 3.210139513015747 -0.2470867782831192 0.0 -0.000187604600796476 0.0002866884460672736 5.113499525904348e-38 -0.24170663952827454 1 True True

3493.114 4.766744136810303 -1.384313316350319 1.6896560827838343 -1.8761059246458949 -1.5708211104022425 3.196075439453125 -0.3142557740211487 0.0 -0.0006018526037223637 0.00012033919483656064 -2.595187288534362e-05 -0.31682783365249634 1 True True

3493.1639999999998 4.749384880065918 -1.38432830691848 1.6896613279925745 -1.8760529957213343 -1.570813004170553 3.1784305572509766 -0.38296157121658325 5.705723893356662e-09 -0.0011488504242151976 9.398361726198345e-05 -5.7055217439483386e-06 -0.37848058342933655 1 True True

3493.214 4.728163719177246 -1.384322078233101 1.6895273367511194 -1.8759972057738246 -1.5707891623126429 3.157559394836426 -0.4511795938014984 0.00072434515459463 -0.0016513299196958542 8.529300976078957e-05 -8.666699047846468e-25 -0.4494478702545166 1 True True

3493.2639999999997 4.7037529945373535 -1.3843228679946442 1.6894925276385706 -1.8760415516295375 -1.5708335081683558 3.133129358291626 -0.5261064171791077 0.0015924798790365458 -0.0015144062926992774 0.00012415420496836305 -1.317220556465328e-43 -0.5301644802093506 1 True True

3493.314 4.675919055938721 -1.3841637384942551 1.6894405523883265 -1.8760014973082484 -1.5707805792437952 3.1051712036132812 -0.5927143096923828 0.0010102128144353628 -0.0009643269004300237 0.0004186478618066758 -2.356993289778786e-12 -0.5961793661117554 1 True True

3493.364 4.644452095031738 -1.384172485475876 1.689364258443014 -1.8760138950743617 -1.570772949849264 3.0737245082855225 -0.6583652496337891 0.00044495213660411537 -0.0009965768549591303 0.0007725870236754417 0.00018058916612062603 -0.6672773957252502 1 True True

3493.614 4.434759140014648 -1.3837575924447556 1.6889093557940882 -1.8759461841978968 -1.5708406607257288 2.8639280796051025 -1.0156174898147583 0.0026484031695872545 -0.0028429122176021338 0.000536317122168839 3.3749978152510844e-17 -1.003093957901001 1 True True

3493.6639999999998 4.382772922515869 -1.3835909527591248 1.6887815634356897 -1.8758985004820765 -1.5707805792437952 2.812004804611206 -1.0433272123336792 0.0022052901331335306 -0.0024422165006399155 0.0007780491723679006 5.1266297597773975e-36 -1.0510382652282715 1 True True

3493.714 4.330471515655518 -1.38353285313163 1.688629452382223 -1.8758427105345667 -1.570824925099508 2.7598204612731934 -1.048154592514038 0.0016032974235713482 -0.0017601517029106617 0.00041830362170003355 9.178122854791582e-05 -1.0487855672836304 1 True True

3493.7639999999997 4.278087139129639 -1.3834196788123627 1.688561741505758 -1.8758541546263636 -1.5708087126361292 2.7073192596435547 -1.0509945154190063 0.0021969268564134836 -0.0027777901850640774 0.00044733466347679496 -3.5194851079722866e-05 -1.0382254123687744 1 True True

3493.814 4.225753307342529 -1.3833890718272706 1.688390080128805 -1.8758508167662562 -1.570784870778219 2.6548733711242676 -1.0428396463394165 0.0029627284966409206 -0.0025290485937148333 0.00037492107367143035 -1.6244234261627445e-20 -1.0494816303253174 1 True True

3493.864 4.173401355743408 -1.3832799208215256 1.6883223692523401 -1.875803133050436 -1.5708048979388636 2.6027309894561768 -1.0463087558746338 0.0014613078674301505 -0.001697259838692844 0.00045438369852490723 -2.4675030255771763e-39 -1.0485249757766724 1 True True

3493.9139999999998 4.121078014373779 -1.383173407321312 1.6881864706622522 -1.8757873974242152 -1.5708406607257288 2.550180196762085 -1.0487878322601318 0.001616807421669364 -0.002637337427586317 0.0005318779731169343 -0.0 -1.0420935153961182 1 True True

3493.964 4.06868314743042 -1.3831382405808945 1.6880667845355433 -1.875819822350973 -1.570772949849264 2.4979050159454346 -1.042523980140686 0.0027016557287424803 -0.002766003366559744 0.0003752600750885904 -0.0 -1.0528138875961304 1 True True

3494.0139999999997 4.0163044929504395 -1.3830043387464066 1.6880338827716272 -1.87577547649526 -1.5707648436175745 2.44565749168396 -1.0458920001983643 0.0018146364018321037 -0.0016320667928084731 0.0003522435436025262 -0.0 -1.0506784915924072 1 True True

3494.064 3.9639337062835693 -1.3828559976867218 1.6878555456744593 -1.8757392368712367 -1.5708254019366663 2.3932135105133057 -1.0483005046844482 0.0026272947434335947 -0.0024937742855399847 0.0005557727999985218 -0.0 -1.0417847633361816 1 True True

3494.114 3.911602020263672 -1.3828211736730118 1.6877477804767054 -1.8757430515685023 -1.5707767645465296 2.3407375812530518 -1.0462907552719116 0.0024857050739228725 -0.0037001126911491156 0.00031996198231354356 -0.0 -1.0516551733016968 1 True True

3494.1639999999998 3.8593077659606934 -1.3827753078988572 1.6876819769488733 -1.8756710491576136 -1.570813004170553 2.288565158843994 -1.0441398620605469 0.0013925455277785659 -0.0014979414409026504 0.00039815547643229365 -0.0 -1.052966833114624 1 True True

3494.214 3.8069376945495605 -1.382580192094185 1.6875413099872034 -1.8756925068297328 -1.570813004170553 2.2361152172088623 -1.051891565322876 0.002410273998975754 -0.002799166599288583 0.00041373318526893854 -0.0 -1.043137788772583 1 True True

3494.2639999999997 3.754535436630249 -1.3825006943992157 1.6873839537249964 -1.875639101068014 -1.5708335081683558 2.183742046356201 -1.0443459749221802 0.0027697847690433264 -0.0031205369159579277 0.0007154240738600492 -0.0 -1.056167483329773 1 True True

3494.314 3.7021772861480713 -1.3824364703944703 1.687312428151266 -1.8756195507445277 -1.5707925001727503 2.1314914226531982 -1.0447155237197876 0.0013565017143264413 -0.0012889006175100803 0.0008187090279534459 -0.0 -1.0511586666107178 1 True True

3494.364 3.6498260498046875 -1.382239283328392 1.6871774832354944 -1.875608583489889 -1.5708044211017054 2.079040765762329 -1.0503360033035278 0.002455319743603468 -0.002315918914973736 0.0005004406557418406 -4.646725210477598e-05 -1.0432100296020508 1 True True

3494.4139999999998 3.5974440574645996 -1.3822377932122727 1.6870325247394007 -1.8756653271117152 -1.5708254019366663 2.0265276432037354 -1.0466996431350708 0.0029240716248750687 -0.0037163926754146814 0.0004943215171806514 -1.689284059514866e-21 -1.0485128164291382 1 True True

3494.464 3.5450267791748047 -1.382186309700348 1.6869576613055628 -1.8755809269347132 -1.570813004170553 1.974253535270691 -1.0433605909347534 0.0012523707700893283 -0.0017818587366491556 0.0008902469417080283 -2.5660297219023185e-40 -1.0471291542053223 1 True True

3494.5139999999997 3.4926977157592773 -1.3820415300181885 1.6868522802936 -1.8755041561522425 -1.570829216633932 1.921980857849121 -1.0498706102371216 0.0026905920822173357 -0.002626186003908515 0.00043777981773018837 -0.0 -1.0428354740142822 1 True True

3494.564 3.440355062484741 -1.3819403660348435 1.6866777578936976 -1.8755489788451136 -1.5708087126361292 1.8695883750915527 -1.0453741550445557 0.0029643233865499496 -0.0034820029977709055 0.0005631490494124591 -0.0 -1.0468828678131104 1 True True

3494.614 3.3879663944244385 -1.381885589366295 1.6865981260882776 -1.875545164147848 -1.5707967917071741 1.8172707557678223 -1.046279788017273 0.0018231318099424243 -0.0022796986158937216 0.0004619692044798285 -0.0 -1.0518501996994019 1 True True

3494.6639999999998 3.335681200027466 -1.3818144363215943 1.6864827314959925 -1.8754807911314906 -1.570801083241598 1.7649427652359009 -1.0505504608154297 0.002006692346185446 -0.0027704816311597824 0.0005100598791614175 -0.0 -1.0464222431182861 1 True True

3494.714 3.2832984924316406 -1.381632761364319 1.6863215605365198 -1.8754774532713832 -1.570801083241598 1.712389349937439 -1.047929286956787 0.0029671471565961838 -0.0025809244252741337 0.0004031450080219656 -0.0 -1.0441993474960327 1 True True

3494.7639999999997 3.2309141159057617 -1.3815854352763672 1.686246697102682 -1.8754779301085414 -1.5707529226886194 1.660132646560669 -1.043494701385498 0.0016033666906878352 -0.001608690363354981 0.00043801861465908587 -0.0 -1.0474636554718018 1 True True

3494.814 3.178586721420288 -1.3815016758492966 1.6861522833453577 -1.8754693470396937 -1.5707843939410608 1.607753872871399 -1.0465012788772583 0.002049286849796772 -0.0018770236056298018 0.00036474416265264153 -0.0 -1.0473363399505615 1 True True

3494.864 3.127124786376953 -1.3813447815230866 1.6859920660602015 -1.8753892383971156 -1.5708492437945765 1.5562223196029663 -0.9976328015327454 0.003056760411709547 -0.004304287955164909 0.00036051016650162637 -0.0 -1.0041372776031494 1 True True

3494.9139999999998 3.078897476196289 -1.3813133549741288 1.6859200636493128 -1.8753367863097132 -1.570829216633932 1.5081825256347656 -0.9307757019996643 0.001788484281860292 -0.0016009184764698148 0.0003110846155323088 -0.0 -0.9303227663040161 1 True True

3494.964 3.0342631340026855 -1.3812378209880372 1.6858347097979944 -1.8753820858397425 -1.5707967917071741 1.463452935218811 -0.8632504940032959 0.0018400632543489337 -0.0019895138684660196 0.00040214290493167937 0.00014558956900145859 -0.860897421836853 1 True True

3495.0139999999997 2.993103504180908 -1.3811788123897095 1.6857484022723597 -1.875345369378561 -1.5707724730121058 1.4223116636276245 -0.7897325158119202 0.0016418657032772899 -0.0024228303227573633 0.0005477056838572025 7.056449868869663e-11 -0.7898813486099243 1 True True

3495.064 2.955416202545166 -1.3810774993947526 1.6856406370746058 -1.8752933941283167 -1.570829216633932 1.3847054243087769 -0.7179375290870667 0.0015455033862963319 -0.002105352934449911 0.0003067883662879467 1.53851147858923e-13 -0.7217491269111633 1 True True

3495.114 2.9212827682495117 -1.3809968394092103 1.6856086889850062 -1.8753181896605433 -1.570784870778219 1.3504279851913452 -0.6474828720092773 0.0009836244862526655 -0.0009057720308192074 0.00019639742095023394 0.00013331216177903116 -0.6520586013793945 1 True True

3495.1639999999998 2.8905930519104004 -1.3809490513852616 1.6855042616473597 -1.8752743206419886 -1.5707686583148401 1.3197588920593262 -0.5771908760070801 0.0010351118398830295 -0.0008961959392763674 0.00021149929671082646 1.591811646982143e-17 -0.5837261080741882 1 True True

3495.214 2.8634049892425537 -1.3809184444001694 1.685530964528219 -1.8752662144102992 -1.5707486311541956 1.2924989461898804 -0.5093387365341187 0.0008589737699367106 -0.0007076704641804099 0.00021743788965977728 7.197192630705487e-17 -0.5131689310073853 1 True True

3495.2639999999997 2.8396449089050293 -1.3808409732631226 1.6853845755206507 -1.8753463230528773 -1.5707967917071741 1.2688021659851074 -0.437197208404541 0.0012274406617507339 -0.0007221673731692135 0.0001350309612462297 -9.329847671324387e-05 -0.44023725390434265 1 True True

3495.314 2.819324493408203 -1.380834476356842 1.6853159109698694 -1.8752943478026332 -1.5708368460284632 1.2485467195510864 -0.37105363607406616 0.001086343894712627 -0.0008270490216091275 0.00013280413986649364 -5.36083933441636e-23 -0.37275248765945435 1 True True

3495.364 2.8026440143585205 -1.3808214974454422 1.6853049437152308 -1.875322004357809 -1.5707686583148401 1.2318403720855713 -0.30527463555336 0.0004157904186286032 -0.0012428935151547194 0.00011552964133443311 0.00012079782027285546 -0.3018913269042969 1 True True

3495.4139999999998 2.789327383041382 -1.3807736200145264 1.6852648893939417 -1.8752662144102992 -1.5707967917071741 1.2186062335968018 -0.22903147339820862 0.00039766894769854844 -0.0009989007376134396 0.00011003483086824417 3.731075537416473e-07 -0.23203681409358978 1 True True

3495.464 2.779573440551758 -1.3807941240123291 1.6852362791644495 -1.875270505944723 -1.5708006064044397 1.208827257156372 -0.1608557403087616 0.00026670293300412595 -0.0009205065434798598 0.00011172269296366721 5.667510776397303e-26 -0.16264978051185608 1 True True

3495.5139999999997 2.773367166519165 -1.3807613265565415 1.6852825323687952 -1.8753024540343226 -1.5707648436175745 1.202656865119934 -0.09280698001384735 0.00017031650349963456 -0.00029034019098617136 8.948420872911811e-05 8.407790785948902e-45 -0.09161529690027237 1 True True

3495.564 2.7706243991851807 -1.38074945033107 1.6852362791644495 -1.8753181896605433 -1.5707967917071741 1.1997350454330444 -0.02126617729663849 0.0002601642918307334 -0.00021879308042116463 7.172265031840652e-05 0.0 -0.022048303857445717 1 True True

3495.614 2.7705163955688477 -1.3802532267621537 1.685556713734762 -1.8759623966612757 -1.5708492437945765 1.1995991468429565 -0.00033184848143719137 0.021688470616936684 0.02763243019580841 -0.04639855772256851 -0.00012649827112909406 1.953365854484579e-13 1 True True

3495.6639999999998 2.7704007625579834 -1.3788574498942872 1.6880362669574183 -1.880261083642477 -1.5707891623126429 1.1996643543243408 -0.00023068713198881596 0.03836938366293907 0.07285760343074799 -0.12029160559177399 -6.87979263602756e-05 -0.0004440811462700367 1 True True

3495.714 2.770406723022461 -1.3759648662856598 1.6931522528277796 -1.8879529438414515 -1.5707886854754847 1.1996643543243408 -0.0008346475078724325 0.07036512345075607 0.12543675303459167 -0.18234705924987793 -4.202463969704695e-05 -0.0004278375708963722 1 True True

3495.7639999999997 2.7703542709350586 -1.3719848108342667 1.7004292646991175 -1.899306436578268 -1.5707648436175745 1.199562430381775 -0.0004946576664224267 0.09561377018690109 0.16245001554489136 -0.2481907159090042 -4.0336668462259695e-05 -0.00023019981745164841 1 True True

3495.814 2.7704412937164307 -1.366593213086464 1.7097132841693323 -1.9139234028258265 -1.5708087126361292 1.1996034383773804 -0.0001707216870272532 0.11948195844888687 0.20697200298309326 -0.32480552792549133 -3.508244503791502e-07 -0.00012166411761427298 1 True True

3495.864 2.7704532146453857 -1.3598880183747788 1.7211459318744105 -1.9320055447020472 -1.5708444754229944 1.1995958089828491 -0.00012713996693491936 0.1461339294910431 0.25394678115844727 -0.4003739356994629 -5.329033364977509e-26 -8.710978727322072e-05 1 True True

3495.9139999999998 2.7703990936279297 -1.3519394856742402 1.73511249223818 -1.9537259540953578 -1.5707967917071741 1.1996285915374756 -8.820262883091345e-05 0.17386847734451294 0.29711392521858215 -0.4661062955856323 -5.235946082393639e-05 -6.20753999100998e-05 1 True True

3495.964 2.7704036235809326 -1.3426764023355027 1.7507827917682093 -1.9788400135436 -1.5707891623126429 1.1996492147445679 -4.396122312755324e-05 0.19569022953510284 0.3388890326023102 -0.531907856464386 -3.526278305798769e-05 -2.540614367571125e-21 1 True True

3496.0139999999997 2.7703990936279297 -1.3325475317290802 1.7683985869037073 -2.006312509576315 -1.5708211104022425 1.199587345123291 -8.41527988546164e-38 0.19272099435329437 0.3373938202857971 -0.5318962335586548 -1.0169234296872678e-13 -3.859203996719833e-40 1 True True

3496.064 2.7704036235809326 -1.3235482287457963 1.7840302626239222 -2.0313717327513636 -1.570772949849264 1.1996772289276123 0.0 0.17499198019504547 0.30020400881767273 -0.465397447347641 -1.5447088979551123e-32 -0.0 1 True True

3496.114 2.7704741954803467 -1.315591887836792 1.7976353804217737 -2.0527664623656214 -1.5707767645465296 1.199587345123291 2.0452669559745118e-05 0.14450953900814056 0.25208577513694763 -0.39645299315452576 -2.3282352404271558e-23 -0.0 1 True True

3496.1639999999998 2.770415782928467 -1.3090434235385437 1.808896843587057 -2.070613523522848 -1.570829216633932 1.1996610164642334 0.0 0.11905910074710846 0.20614756643772125 -0.3333040773868561 -3.536877323955838e-42 -4.362883490801221e-19 1 True True

3496.214 2.7704367637634277 -1.3038196426681061 1.8179853598224085 -2.0852142773070277 -1.57082444826235 1.1996524333953857 0.0 0.09215051680803299 0.16443471610546112 -0.2574394941329956 -0.0 -6.627229771215802e-38 1 True True

3496.2639999999997 2.7704248428344727 -1.2998292607120057 1.82509690919985 -2.096011301080221 -1.570824925099508 1.1996328830718994 0.0 0.06701677292585373 0.11657372117042542 -0.1833551824092865 -0.0 -0.0 1 True True

3496.314 2.7704203128814697 -1.2970179182342072 1.8296359221087855 -2.1034609280028285 -1.570732895527975 1.199633002281189 0.0 0.04400256276130676 0.07385486364364624 -0.12912006676197052 -0.0 -0.0 1 True True

3496.364 2.7704203128814697 -1.295855389242508 1.8316682020770472 -2.1076461277403773 -1.570853058491842 1.1996372938156128 0.0 0.015066727995872498 0.021008161827921867 -0.0347229428589344 -0.0017296936130151153 -0.0 1 True True

3496.4139999999998 2.7703990936279297 -1.2957606774619599 1.8319271246539515 -2.108142992059225 -1.570829216633932 1.1996088027954102 0.0 0.0014526440063491464 0.0014692394761368632 0.0009310050518251956 -0.0001674687664490193 -0.0 1 True True

3496.464 2.7703917026519775 -1.2956723135760804 1.831942383443014 -2.1082345447936 -1.570813004170553 1.1996285915374756 0.0 0.0050003486685454845 0.0047410400584340096 0.0002262914931634441 -9.676413901615888e-05 -0.0 1 True True

3496.5139999999997 2.7703750133514404 -1.2949954134276886 1.8328388373004358 -2.107903619805807 -1.5707772413836878 1.199599266052246 2.0942710797752747e-30 0.014733794145286083 0.02766069956123829 0.027855968102812767 0.0018557596486061811 5.076777597423643e-05 1 True True

3496.564 2.7704455852508545 -1.2949517530253907 1.8331416288958948 -2.107816358605856 -1.5707128683673304 1.199625015258789 -0.0004740843432955444 -0.009623696096241474 -0.011005721054971218 -0.018245453014969826 -0.00029677851125597954 5.159390972382639e-16 1 True False

3496.614 2.7704532146453857 -1.2950808566859742 1.833170239125387 -2.107976099053854 -1.570700470601217 1.1996002197265625 0.0002745898091234267 -0.007145456969738007 -0.004761563614010811 -0.005837562493979931 -0.0019157493952661753 -2.7982682837546236e-08 1 True False

3496.6639999999998 2.770415782928467 -1.2952651244452973 1.8330028692828577 -2.1080032787718714 -1.5707853476153772 1.1996492147445679 5.706588973489689e-26 -0.0026740673929452896 -0.002090433379635215 -0.0008884387789294124 -0.0008292096317745745 1.1032184591980575e-16 1 True False

3496.714 2.770390510559082 -1.2953522962382813 1.8328078428851526 -2.10807528118276 -1.570756737385885 1.1996285915374756 3.275164885737202e-34 -6.84892074787058e-05 -0.001897343317978084 -0.0006367471069097519 -0.0006495720008388162 -1.577216913613288e-18 1 True False

3496.7639999999997 2.77044415473938 -1.2954363983920594 1.8324726263629358 -2.1077920399107875 -1.5707686583148401 1.1996612548828125 0.0 -0.01206041406840086 -0.022147532552480698 0.023069672286510468 -0.00032685601036064327 -2.3957968455475797e-37 1 True False

3496.814 2.77044415473938 -1.296545223598816 1.8305953184710901 -2.1051541767516078 -1.5708044211017054 1.1996701955795288 0.0 -0.029223209246993065 -0.055654458701610565 0.09744434803724289 -0.00013021691120229661 -0.0 1 True False

3496.864 2.770394802093506 -1.2987211507609864 1.8265989462481897 -2.098668714562887 -1.5707967917071741 1.1996376514434814 0.0 -0.061187196522951126 -0.10547798126935959 0.1567113846540451 -8.123747102217749e-05 -0.0 1 True False

3496.9139999999998 2.7704036235809326 -1.302326039677002 1.8203118483172815 -2.0887586079039515 -1.5707805792437952 1.199649453163147 0.0 -0.08356955647468567 -0.14869798719882965 0.22316613793373108 -6.857336302346084e-06 -0.0 1 True False

3496.964 2.7704784870147705 -1.3073600095561524 1.8116710821734827 -2.075437685052389 -1.5707405249225062 1.1995911598205566 0.0 -0.10847848653793335 -0.18567974865436554 0.2927628457546234 -1.0416311677383888e-24 -0.0 1 True False

3497.0139999999997 2.770432233810425 -1.3135637205890198 1.8010876814471644 -2.0584494076170863 -1.570813004170553 1.1996746063232422 0.0 -0.13616183400154114 -0.24017462134361267 0.3734877109527588 -1.5834672646870433e-43 -0.0 1 True False

3497.064 2.7704379558563232 -1.321005107169487 1.7883408705340784 -2.03817143062734 -1.570756737385885 1.1996241807937622 0.0 -0.1614680141210556 -0.27593737840652466 0.4406791031360626 -0.0 -0.0 1 True False

3497.114 2.7704410552978516 -1.3296870601228257 1.7731035391436976 -2.014223714868063 -1.5707686583148401 1.199607491493225 0.0 -0.18802176415920258 -0.321742981672287 0.5053461790084839 -0.0 -0.0 1 True False

3497.1639999999998 2.770439863204956 -1.339792714720108 1.7558773199664515 -1.9869080982603968 -1.5707686583148401 1.1995866298675537 0.0 -0.19429685175418854 -0.3389028012752533 0.5659145712852478 -4.892353459922964e-23 -0.0 1 True False

3497.214 2.7704529762268066 -1.3493444186500092 1.7395723501788538 -1.9607778988280238 -1.5707967917071741 1.1995925903320312 0.0 -0.17349036037921906 -0.3073842525482178 0.4953683614730835 -7.431085756314505e-42 -0.0 1 True False

3497.464 2.770427942276001 -1.3781535935452958 1.689676586781637 -1.882333894769186 -1.5707686583148401 1.1996866464614868 0.0 -0.05220560356974602 -0.09186682105064392 0.1388837993144989 -0.0 -0.0 1 True False

3497.5139999999997 2.770416021347046 -1.3800293368152161 1.6864059607135218 -1.8770657978453578 -1.570813004170553 1.1996331214904785 0.0 -0.02455275133252144 -0.04503752291202545 0.07344663888216019 -0.0 -0.0 1 True False

3497.564 2.770416021347046 -1.3806816798499604 1.6852853933917444 -1.8753897152342738 -1.570801083241598 1.1996538639068604 0.0 -0.0007844275096431375 -0.0009917665738612413 0.0008527698228135705 -0.0 -0.0 1 False False

3497.614 2.770416021347046 -1.3807308238795777 1.685272518788473 -1.8753816090025843 -1.5707648436175745 1.1995881795883179 0.0 -0.0 -8.017743117204469e-26 -4.0165293860196097e-16 -0.0 -0.0 1 False False

3497.6639999999998 2.770449638366699 -1.380736620431282 1.6853092352496546 -1.8753820858397425 -1.5707967917071741 1.1995837688446045 0.0 0.0 -0.00017154942906927317 0.0002641621686052531 -0.0 -0.0 1 False False

3497.714 2.7704334259033203 -1.3806846153787156 1.68532640138735 -1.8753138981261195 -1.5707967917071741 1.1996524333953857 2.0414718164829537e-05 -0.0009018477867357433 -0.00032210585777647793 0.0006667361012659967 -0.0 -0.0 1 False False

3497.7639999999997 2.7704334259033203 -1.3807430279305954 1.6852319876300257 -1.875225683251852 -1.5708254019366663 1.19959557056427 0.0 -0.0005053779459558427 -0.0004829062381759286 0.0014884050469845533 -0.0 -0.0 1 False False

3497.814 2.770399570465088 -1.3808046144298096 1.6852706114398401 -1.8752380810179652 -1.5707967917071741 1.19959557056427 0.0 -0.0002905055007431656 -0.0005536956014111638 0.00028330431086942554 -0.0 -0.0 1 False False

3497.864 2.7704410552978516 -1.3807370227626343 1.6852629820453089 -1.8752910099425257 -1.570801083241598 1.1996241807937622 0.0 -0.00010349952208343893 -0.0003524427011143416 0.00014444500266108662 -0.0 -0.0 1 False False

3497.9139999999998 2.770432233810425 -1.3807834398797532 1.68524676958193 -1.8752790890135707 -1.5707967917071741 1.1996164321899414 0.0 -6.571439007529989e-05 -0.0001906012330437079 0.000105669503682293 -0.0 -0.0 1 False False

3497.964 2.7704484462738037 -1.38081048548732 1.6852377096759241 -1.8752790890135707 -1.5708134810077112 1.1996241807937622 0.0 -1.465642607278994e-10 -8.674611308379099e-05 1.615364112694806e-06 -0.0 -0.0 1 False False

3498.0139999999997 2.7704365253448486 -1.38077004373584 1.6852629820453089 -1.8753067455687464 -1.5707610289203089 1.199637532234192 0.0 0.0 -7.024308433756232e-05 2.4537424779667077e-25 -0.0 -0.0 1 False False

3498.064 2.770383358001709 -1.3807804745486756 1.6852095762835901 -1.875282426873678 -1.5707529226886194 1.199637532234192 0.0 0.0 -2.769287780673923e-18 3.783505853677006e-44 -0.0 -0.0 1 False False

3498.114 2.77044415473938 -1.3806920510581513 1.6852543989764612 -1.875270505944723 -1.5707686583148401 1.1996208429336548 0.0 0.0 -0.0 0.0 -0.0 -0.0 1 False False

3498.1639999999998 2.7704246044158936 -1.3807459634593506 1.6852300802813929 -1.875253816644186 -1.570829216633932 1.199607491493225 0.0 0.0 -0.0 0.0 -0.0 -0.0 1 False False

3498.214 2.7704074382781982 -1.3807129275849839 1.6852052847491663 -1.8753110371031703 -1.5708006064044397 1.199637532234192 0.0 0.0 -0.0 0.0 -0.0 -0.0 1 False False

3498.2639999999997 2.7704451084136963 -1.380782203083374 1.6852334181415003 -1.8752347431578578 -1.5707405249225062 1.1996285915374756 0.0 0.0 -0.0 0.0 -0.0 -0.0 1 False False

3498.314 2.7704038619995117 -1.380725086932518 1.685218636189596 -1.875298639337057 -1.5707605520831507 1.199616551399231 0.0 0.0 -0.0 0.0 -0.0 -0.0 1 False False

3498.364 2.7704246044158936 -1.380729542379715 1.6852167288409632 -1.875270505944723 -1.5708406607257288 1.1996241807937622 0.0 0.0 -0.0 0.0 -0.0 -0.0 1 False False

3498.4139999999998 2.770432233810425 -1.3807670784047623 1.685218636189596 -1.8752380810179652 -1.5707643667804163 1.1996285915374756 0.0 0.0 -1.337900503395101e-32 0.0 -0.0 -0.0 1 False False

3498.464 2.770427942276001 -1.380725086932518 1.6852377096759241 -1.8752790890135707 -1.5708335081683558 1.1996361017227173 0.0 0.0 -0.0 0.0 -0.0 -0.0 1 False False

3498.5139999999997 2.7704527378082275 -1.3807581228068848 1.6851838270770472 -1.875282426873678 -1.5707686583148401 1.1996687650680542 0.0 0.0 -0.0 0.0 -0.0 -0.0 1 True False

3498.564 2.770416021347046 -1.3807340276292344 1.685221020375387 -1.8752786121764125 -1.5708449522601526 1.1996463537216187 0.0 0.0 -0.0 0.0 -0.0 -0.0 1 True False

3498.614 2.77044415473938 -1.3807039719871064 1.6852167288409632 -1.8752385578551234 -1.5707886854754847 1.1996315717697144 0.0 0.0 -0.0 0.0 -0.0 -0.0 1 True False

3498.6639999999998 2.7704648971557617 -1.3807834398797532 1.6852052847491663 -1.875253816644186 -1.570845905934469 1.199627161026001 0.0 0.0 -0.0 0.0 -0.0 -0.0 1 True False

3498.714 2.7704365253448486 -1.3807626527598877 1.6851971785174769 -1.8752786121764125 -1.5708168188678187 1.1995985507965088 0.0 0.0 -0.0 0.0 -0.0 -0.0 1 True False

3498.7639999999997 2.7703919410705566 -1.3807626527598877 1.6851838270770472 -1.8752581081786097 -1.5708254019366663 1.1996405124664307 0.0 -3.3699826768547526e-41 -0.0 0.0 -0.0 -0.0 1 True False

3498.814 2.7704246044158936 -1.3807670784047623 1.6852253119098108 -1.875253816644186 -1.570784870778219 1.1995792388916016 0.0 0.0 -0.0 0.0 -0.0 -0.0 1 True False

3498.864 2.770427942276001 -1.3807580483010788 1.6852424780475062 -1.875282426873678 -1.5708335081683558 1.1996108293533325 0.0 0.0 -0.0 0.0 -0.0 -0.0 1 True False

3498.9139999999998 2.7704246044158936 -1.3807715487531205 1.685258690510885 -1.8752786121764125 -1.5708087126361292 1.1996331214904785 0.0 0.0 -0.0 0.0 -0.0 -0.0 1 True False

3498.964 2.770416021347046 -1.3808357876590271 1.6852052847491663 -1.8752747974791468 -1.5708487669574183 1.1995458602905273 0.0 0.0 -0.0 0.0 -0.0 -0.0001604061690159142 1 True False

3499.0139999999997 2.7704408168792725 -1.3807670337012787 1.6852014700519007 -1.8752662144102992 -1.5707967917071741 1.1995762586593628 0.0 0.0 -0.0 0.0 -0.0 0.00022465386427938938 1 True False

3499.064 2.7704365253448486 -1.3807956886342545 1.6851766745196741 -1.875270505944723 -1.5708087126361292 1.199583649635315 0.0 0.0 -0.0 0.0 -0.0 -0.0005298149771988392 1 True False

3499.114 2.770411729812622 -1.3807744842818757 1.6852377096759241 -1.8753138981261195 -1.5707686583148401 1.1995881795883179 0.0 0.0 -0.0 0.0 -0.0 -3.578772139203011e-14 1 True False

3499.1639999999998 2.7705414295196533 -1.3807370078614731 1.6852005163775843 -1.8752747974791468 -1.5708087126361292 1.1996806859970093 0.03147107735276222 0.0 -0.0 0.0 -0.0 0.016776148229837418 1 True False

3499.214 2.772813558578491 -1.3806620401195069 1.6850045363055628 -1.875286718408102 -1.5708373228656214 1.2020587921142578 0.07928050309419632 0.005631403531879187 -0.011288711801171303 7.164696569361695e-08 9.474089984818951e-16 0.08352158218622208 1 True False

3499.2639999999997 2.778812885284424 -1.3802694392255326 1.6844161192523401 -1.8751231632628382 -1.5708254019366663 1.2080267667770386 0.15362678468227386 0.012829728424549103 -0.014187212102115154 0.005441739223897457 1.439116752121566e-34 0.1511160135269165 1 True False

3499.314 2.788206100463867 -1.3794940125993271 1.683523956929342 -1.874845644036764 -1.5707810560809534 1.217377781867981 0.2200014591217041 0.0159949641674757 -0.021325917914509773 0.003804513020440936 1.4553942492057104e-05 0.22273467481136322 1 True False

3499.364 2.8011271953582764 -1.3785527807525177 1.6822097937213343 -1.8745790920653285 -1.5707767645465296 1.2302663326263428 0.2899820804595947 0.022025957703590393 -0.02839226834475994 0.008313579484820366 3.395947983793756e-24 0.2898751497268677 1 True False

3499.4139999999998 2.8173892498016357 -1.3773275029710312 1.6806581656085413 -1.8741809330382289 -1.570869270955221 1.2466795444488525 0.3636239171028137 0.02815251797437668 -0.03326403349637985 0.008669666014611721 5.156778348715327e-43 0.3564922511577606 1 True False

3499.464 2.837376117706299 -1.3758791548064728 1.6788542906390589 -1.8736678562560023 -1.5708048979388636 1.266412615776062 0.43081194162368774 0.030903682112693787 -0.04434811323881149 0.008632360026240349 0.0 0.43936270475387573 1 True False

3499.5139999999997 2.860670566558838 -1.374114753012993 1.6764314810382288 -1.873211523095602 -1.570768181477682 1.2898104190826416 0.5007823705673218 0.03502943366765976 -0.04833357408642769 0.01026037335395813 3.544639912433922e-05 0.49782317876815796 1 True False

3499.564 2.887387990951538 -1.3721401554397126 1.6738551298724573 -1.872650762597555 -1.5707805792437952 1.3167665004730225 0.5716995596885681 0.04250236600637436 -0.05288781225681305 0.012943695299327374 2.5667699446785264e-05 0.5658590197563171 1 True False

3499.614 2.917726993560791 -1.3698836875012894 1.671074692402975 -1.8719388447203578 -1.5707925001727503 1.347123622894287 0.6397558450698853 0.046481188386678696 -0.06709320098161697 0.012275546789169312 0.00012934996630065143 0.6381835341453552 1 True False

3499.6639999999998 2.9516170024871826 -1.367474542265274 1.6677535215960901 -1.87107576946401 -1.5708168188678187 1.3808568716049194 0.7113889455795288 0.05280342698097229 -0.06909026205539703 0.01457100361585617 0.00024447296163998544 0.70766681432724 1 True False

3499.714 2.9889955520629883 -1.3647052210620423 1.6641958395587366 -1.870237489739889 -1.5708254019366663 1.4181758165359497 0.7743169665336609 0.058055803179740906 -0.07798700034618378 0.014102747663855553 1.8239921701024286e-05 0.778482973575592 1 True False

3499.7639999999997 3.029855728149414 -1.3616915506175538 1.6601370016681116 -1.8693539104857386 -1.5707605520831507 1.4589613676071167 0.8499231338500977 0.06332904100418091 -0.07891235500574112 0.01905643753707409 -1.1357215043972246e-05 0.8507165908813477 1 True False

3499.814 3.0740044116973877 -1.358385981326439 1.6559165159808558 -1.8682848415770472 -1.5708048979388636 1.5033360719680786 0.9264716506004333 0.06635795533657074 -0.09010040760040283 0.02122003771364689 0.0004355108249001205 0.9132253527641296 1 True False

3499.864 3.1218535900115967 -1.35490736485038 1.6513622442828577 -1.867159982720846 -1.5708449522601526 1.551073670387268 0.9857276082038879 0.0756259560585022 -0.09109283983707428 0.026143819093704224 -0.00045294399023987353 0.9900736212730408 1 True False

3499.9139999999998 3.17307448387146 -1.3511485320380707 1.6464093367206019 -1.866098543206686 -1.5708048979388636 1.6022733449935913 1.0383654832839966 0.07587386667728424 -0.1036948561668396 0.019787590950727463 -7.199145329650491e-05 1.038717269897461 1 True False

3499.964 3.2254860401153564 -1.3471215677312394 1.6414158979998987 -1.8648702106871546 -1.570772949849264 1.6546480655670166 1.0498483180999756 0.07578857243061066 -0.10204199701547623 0.02251148410141468 0.00033588503720238805 1.0479449033737183 1 True False

3500.0139999999997 3.2778584957122803 -1.3433793497136612 1.636322323475973 -1.8636614284911097 -1.570829216633932 1.7069008350372314 1.0440336465835571 0.07714579254388809 -0.09965598583221436 0.026353104040026665 8.065011799572632e-18 1.0483139753341675 1 True False

3500.064 3.3301565647125244 -1.339569554930069 1.6310961882220667 -1.862579961816305 -1.5707805792437952 1.7593821287155151 1.04849112033844 0.0756317526102066 -0.09579294174909592 0.020197618752717972 1.225076909169838e-36 1.0420188903808594 1 True False

3500.114 3.3824617862701416 -1.3357614439776917 1.6261208693133753 -1.8612643680968226 -1.570723835621969 1.8117347955703735 1.0491210222244263 0.07483253628015518 -0.1021493673324585 0.024909967556595802 -3.407832991797477e-05 1.0442969799041748 1 True False

3500.1639999999998 3.4349117279052734 -1.3318134111217041 1.6211841742144983 -1.860011716882223 -1.5707686583148401 1.864033579826355 1.0413273572921753 0.08039241284132004 -0.1001141220331192 0.025386210530996323 -2.312497417733539e-05 1.0488929748535156 1 True False

3500.214 3.487194299697876 -1.3280816239169617 1.616171662007467 -1.858882566491598 -1.5707648436175745 1.9164330959320068 1.0504499673843384 0.07844331860542297 -0.09997530281543732 0.0245292279869318 -7.714714250187018e-15 1.0458132028579712 1 True False

3500.2639999999997 3.5395166873931885 -1.3242086333087464 1.6110065619098108 -1.8577853641905726 -1.570784870778219 1.9687645435333252 1.0517679452896118 0.0736175924539566 -0.10164235532283783 0.023979848250746727 -1.171866940559543e-33 1.0510938167572021 1 True False

3500.314 3.5920097827911377 -1.3202996116927643 1.6060698668109339 -1.8565532169737757 -1.5708416144000452 2.0210275650024414 1.0404222011566162 0.0766630694270134 -0.10150618851184845 0.019955523312091827 -0.0 1.0504060983657837 1 True False

3500.364 3.644339084625244 -1.3164372009089966 1.6009419600116175 -1.8553725681700648 -1.5708048979388636 2.0735015869140625 1.0501248836517334 0.07756749540567398 -0.09986956417560577 0.026750219985842705 -3.9777119857468957e-13 1.0421409606933594 1 True False

3500.4139999999998 3.6966612339019775 -1.312603161936142 1.5959504286395472 -1.854112287560934 -1.5707891623126429 2.1258552074432373 1.051133155822754 0.07575047016143799 -0.0967947319149971 0.02822035551071167 -6.042153222937061e-32 1.0491892099380493 1 True False

3500.464 3.7491114139556885 -1.3086598974517365 1.5908268133746546 -1.8529521427550257 -1.5708368460284632 2.178241014480591 1.0430965423583984 0.07426086068153381 -0.09994968771934509 0.020972633734345436 -0.0 1.0502421855926514 1 True False

3500.5139999999997 3.8013603687286377 -1.3048841816237946 1.5859296957599085 -1.8517309627928675 -1.5707891623126429 2.230677366256714 1.0456225872039795 0.07858643680810928 -0.10659284889698029 0.019461218267679214 -0.0 1.0413151979446411 1 True False

3500.564 3.853713274002075 -1.3010693949512024 1.5808265844928187 -1.850546499291891 -1.570784870778219 2.2829642295837402 1.0529621839523315 0.07688920944929123 -0.10453341156244278 0.028369806706905365 -0.0 1.047468900680542 1 True False

3500.614 3.9060230255126953 -1.2972661417773743 1.5757249037372034 -1.8493567905821742 -1.570813004170553 2.3352386951446533 1.0461758375167847 0.07849149405956268 -0.10001461952924728 0.022549143061041832 4.252407507010503e-06 1.050409197807312 1 True False

3500.6639999999998 3.958432674407959 -1.293398694401123 1.5706270376788538 -1.8481770954527796 -1.5708416144000452 2.387680768966675 1.046161413192749 0.07823485881090164 -0.10567111521959305 0.02208666317164898 6.459417424269567e-25 1.0362979173660278 1 True False

3500.714 4.010866165161133 -1.289437250500061 1.5656097571002405 -1.8468533955016078 -1.5708048979388636 2.4400975704193115 1.0493594408035278 0.0780789703130722 -0.10233642905950546 0.027977580204606056 9.994234278565273e-05 1.0463827848434448 1 True False

3500.7639999999997 4.063257694244385 -1.2857186657241364 1.560495678578512 -1.8456479511656703 -1.5708449522601526 2.492361307144165 1.0475114583969116 0.07903397083282471 -0.09773822873830795 0.02381671778857708 5.581555038795489e-18 1.0492265224456787 1 True False

3500.814 4.115596294403076 -1.2817536753467103 1.5555089155780237 -1.8446113071837367 -1.5708416144000452 2.5447607040405273 1.0497041940689087 0.0742286741733551 -0.09597519785165787 0.02077309601008892 8.478395601437478e-37 1.0447331666946411 1 True False

3500.864 4.167933940887451 -1.2779174608043213 1.550500218068258 -1.8433581791319789 -1.5707724730121058 2.5971715450286865 1.0499804019927979 0.07452284544706345 -0.10164537280797958 0.025817163288593292 0.0 1.0486310720443726 1 True False

3500.9139999999998 4.220259189605713 -1.2740918558887024 1.5455248991595667 -1.8421336613097132 -1.5707767645465296 2.6493730545043945 1.0435478687286377 0.0778409093618393 -0.10373340547084808 0.02122354507446289 0.0 1.0530847311019897 1 True False

3500.964 4.272645473480225 -1.2703070801547547 1.5404065291034144 -1.840956827203268 -1.5707648436175745 2.70182204246521 1.0448791980743408 0.07968153059482574 -0.09944549202919006 0.02635050378739834 0.0 1.0405057668685913 1 True False

3501.0139999999997 4.325022220611572 -1.2663960617831727 1.5352538267718714 -1.839752813378805 -1.5708254019366663 2.754176616668701 1.0474574565887451 0.0730135440826416 -0.09916092455387115 0.02606440708041191 0.0 1.0473966598510742 1 True False

3501.064 4.377242088317871 -1.2625814837268372 1.5302560965167444 -1.8384996853270472 -1.5707805792437952 2.8064351081848145 1.0453755855560303 0.079222172498703 -0.10259830206632614 0.019216060638427734 0.0 1.0492862462997437 1 True False

3501.114 4.429133415222168 -1.258707122211792 1.5254300276385706 -1.8373791180052699 -1.570813004170553 2.858302354812622 1.0077509880065918 0.07915127277374268 -0.09819361567497253 0.022905083373188972 0.00024609637330286205 1.0048425197601318 1 True False

3501.1639999999998 4.477715969085693 -1.255194680099823 1.5206101576434534 -1.836337228814596 -1.5708211104022425 2.9068565368652344 0.9456537961959839 0.06974253058433533 -0.08838449418544769 0.02145167626440525 -0.0001238768600160256 0.9483035206794739 1 True False

3501.214 4.522846221923828 -1.251763866548874 1.5163114706622522 -1.8352400265135707 -1.570801083241598 2.9520392417907715 0.8685291409492493 0.06225752457976341 -0.08609524369239807 0.01695675030350685 -7.629207539139315e-05 0.86342853307724 1 True False

3501.2639999999997 4.564556121826172 -1.2487041813186188 1.5124085585223597 -1.8342257938780726 -1.5707767645465296 2.9937543869018555 0.7975566387176514 0.05957403406500816 -0.07559814304113388 0.019485803321003914 -9.630313279859671e-20 0.8043867349624634 1 True False

3501.314 4.602781772613525 -1.2459922593883057 1.508512322102682 -1.8333989582457484 -1.5707209745990198 3.0319082736968994 0.7330433130264282 0.0512789748609066 -0.07208576053380966 0.018801333382725716 -1.4628465757345846e-38 0.7346339225769043 1 True False

3501.364 4.637304306030273 -1.2434379023364563 1.505249325429098 -1.832501073876852 -1.5707724730121058 3.066638231277466 0.6648000478744507 0.04885328933596611 -0.06399160623550415 0.01534382812678814 -0.0 0.6552878022193909 1 True False

3501.4139999999998 4.668568134307861 -1.2411655348590394 1.5021327177630823 -1.8318530521788539 -1.5708091894732874 3.0978784561157227 0.5903629064559937 0.04395453631877899 -0.05518355220556259 0.012583430856466293 -2.2820169760962017e-05 0.5890275835990906 1 True False

3501.464 4.696313858032227 -1.2390835148147126 1.4995854536639612 -1.8312040768065394 -1.570723835621969 3.1254982948303223 0.5228214859962463 0.03836248442530632 -0.05218147486448288 0.010908260010182858 2.8515027224784717e-05 0.5186006426811218 1 True False

3501.5139999999997 4.720489025115967 -1.237311528330185 1.4972155729876917 -1.830763956109518 -1.5707443396197718 3.149580478668213 0.4545324742794037 0.033563438802957535 -0.04307983070611954 0.009924601763486862 2.3712480563231e-18 0.46544012427330017 1 True False

3501.564 4.741134166717529 -1.2357904774001618 1.4952524344073694 -1.830355783502096 -1.5707967917071741 3.170423746109009 0.3828485310077667 0.027167676016688347 -0.0369323305785656 0.009326308034360409 3.6019305312403907e-37 0.3801756799221039 1 True False

3501.614 4.758331298828125 -1.234530584221222 1.4936836401568812 -1.8298803768553675 -1.5707925001727503 3.187638759613037 0.30953657627105713 0.0239166971296072 -0.02865942008793354 0.006718167569488287 0.0 0.3093508780002594 1 True False

3501.6639999999998 4.772222518920898 -1.2334782046130677 1.4923542181598108 -1.8296028576292933 -1.5707805792437952 3.2013046741485596 0.23897363245487213 0.017470890656113625 -0.025090718641877174 0.0045120385475456715 0.0 0.24238941073417664 1 True False

3501.714 4.782381057739258 -1.2328080397895356 1.4912918249713343 -1.8292557201781214 -1.5708487669574183 3.2115697860717773 0.1711452156305313 0.012961801141500473 -0.018771573901176453 0.004525141324847937 0.0 0.17360126972198486 1 True False

3501.7639999999997 4.789073944091797 -1.2323241394809266 1.4906142393695276 -1.8292538128294886 -1.5707967917071741 3.2183566093444824 0.10315154492855072 0.0065523721277713776 -0.009189791046082973 0.0030930438078939915 0.0 0.10504942387342453 1 True False

3501.814 4.792382717132568 -1.2321188908866425 1.4903524557696741 -1.8290583095946253 -1.5707529226886194 3.2216134071350098 0.030963608995079994 0.0012530724052339792 -0.0015098018338903785 0.0007076338515616953 0.0 0.031958457082509995 1 True False

3501.864 4.792580604553223 -1.2318613094142457 1.4905903975116175 -1.8295465908446253 -1.570796314870016 3.221848964691162 -0.0002194271655753255 0.019962891936302185 0.021346895024180412 -0.03060280904173851 1.7343621656028263e-13 -0.00022607704158872366 1 True False

3501.9139999999998 4.792558193206787 -1.2304130059531708 1.4928987661944788 -1.8333178959288539 -1.5708001295672815 3.221874475479126 0.0001681013236520812 0.03505839407444 0.06807644665241241 -0.1205822005867958 2.5746474420884624e-05 0.0005698822787962854 1 True False

3501.964 4.792640686035156 -1.228115276699402 1.4976075331317347 -1.840494295159811 -1.5707967917071741 3.221886396408081 0.0003165391681250185 0.06157062202692032 0.1227758452296257 -0.19075718522071838 1.5010086826805491e-05 0.00038871061406098306 1 True False

3502.0139999999997 4.792644023895264 -1.2244898837855835 1.5048792997943323 -1.8512774906554164 -1.5707967917071741 3.2219316959381104 0.0006529007223434746 0.08674051612615585 0.1648239642381668 -0.2474893480539322 3.1440675229532644e-05 0.00023112497001420707 1 True False

3502.064 4.792653560638428 -1.2195641559413453 1.5145476500140589 -1.865467210809225 -1.5707724730121058 3.221881866455078 0.00046176050091162324 0.10724014788866043 0.2137409746646881 -0.3175518810749054 4.069445562895038e-20 0.00013780519657302648 1 True False

3502.114 4.792688369750977 -1.2137482923320313 1.5261018911944788 -1.883087774316305 -1.5708044211017054 3.2219152450561523 0.00019262233399786055 0.12920579314231873 0.2588641941547394 -0.3887094557285309 6.181496067632886e-39 7.468435069313273e-05 1 True False

3502.1639999999998 4.792707920074463 -1.2066288453391572 1.5402901808368128 -1.9043709240355433 -1.5707891623126429 3.221890926361084 0.00011955674563068897 0.15452823042869568 0.30076754093170166 -0.46018293499946594 1.8936019117316904e-23 5.278313619783148e-05 1 True False

3502.214 4.792686939239502 -1.1983522933772583 1.5565713087665003 -1.9290148220457972 -1.5708168188678187 3.2218475341796875 0.00010221064439974725 0.17621897161006927 0.34789344668388367 -0.5309069156646729 2.8768657472588494e-42 4.395311426505743e-20 1 True False

3502.2639999999997 4.792721271514893 -1.1891547602466126 1.5744002501117151 -1.9556061230101527 -1.570801083241598 3.221935987472534 7.527772686444223e-05 0.1724686175584793 0.33804941177368164 -0.49490442872047424 3.542612830642611e-05 5.548107817349851e-14 1 True False

3502.314 4.792724132537842 -1.1813579958728333 1.5896042029010218 -1.979239126245016 -1.5707967917071741 3.2219436168670654 9.636059985496104e-05 0.14141766726970673 0.29087796807289124 -0.4321719706058502 -3.625675454310695e-11 8.42758772941737e-33 1 True False

3502.364 4.792691230773926 -1.1745289129069825 1.603067700062887 -1.9993678532042445 -1.5707605520831507 3.2219316959381104 2.1743223247034756e-23 0.12771004438400269 0.2460535615682602 -0.3652764856815338 -5.5074092053539296e-30 0.0 1 True False

3502.4139999999998 4.792712211608887 -1.1690120858005066 1.6140220800982874 -2.0160628757872523 -1.5707691351519983 3.2219271659851074 0.0 0.09867396950721741 0.19440659880638123 -0.2975361943244934 -0.0 0.0 1 True False

3502.464 4.792741775512695 -1.1644363862327118 1.6227133909808558 -2.02904810527944 -1.5707967917071741 3.221952438354492 0.0 0.0829802006483078 0.15454916656017303 -0.241651251912117 -0.0 0.0 1 True False

3502.5139999999997 4.792684078216553 -1.1612474781325837 1.6289647261248987 -2.0387760601439417 -1.5707891623126429 3.221924304962158 0.0 0.0535835400223732 0.10975178331136703 -0.15449102222919464 -0.0 0.0 1 True False

3502.564 4.792728424072266 -1.1590535205653687 1.633230988179342 -2.0448252163329066 -1.5708087126361292 3.22186541557312 0.0 0.027521708980202675 0.05840492621064186 -0.08642061799764633 -0.0 0.0 1 True False

3502.614 4.792712211608887 -1.1582654279521485 1.6349576155291956 -2.0476891003050746 -1.5707686583148401 3.2218987941741943 0.0 0.00492039043456316 0.013362155295908451 -0.023426197469234467 -0.0 0.0 1 True False

3502.6639999999998 4.792707920074463 -1.1582937401584168 1.6349652449237269 -2.0476604900755824 -1.5707810560809534 3.221881866455078 0.0 0.00027463617152534425 2.0402558442636746e-19 -0.00012369686737656593 -0.0 0.0 1 True False

3502.714 4.792703628540039 -1.1582518380931397 1.6349981466876429 -2.0476604900755824 -1.5708006064044397 3.221940755844116 0.0 0.0001346358039882034 5.279736069496721e-05 -5.0412841510503215e-21 -0.0 -9.848515770632917e-21 1 True False

3502.7639999999997 4.7927446365356445 -1.1582846206477662 1.6349924246417444 -2.0477005443968714 -1.5707686583148401 3.2219197750091553 0.0 0.00012090098607586697 0.00013804019545204937 -7.657717756949758e-40 -0.0 -1.495992609350031e-39 1 True False

3502.814 4.792682647705078 -1.1582490366748353 1.6350372473346155 -2.0476442776122035 -1.5707886854754847 3.2219033241271973 -4.9722089897841215e-05 0.0002763515221886337 0.0003189148264937103 -0.0 -0.0 -0.0 1 True False

3502.864 4.792684078216553 -1.1582296651652833 1.6350701490985315 -2.047660013238424 -1.5708006064044397 3.2219107151031494 -3.517541699693538e-05 0.00036286492832005024 0.00037299664109013975 -0.0 -0.0 -1.9440442144968983e-08 1 True False

3502.9139999999998 4.792679786682129 -1.1582177144340058 1.6350892225848597 -2.047652383843893 -1.5708048979388636 3.2218728065490723 -6.719336563599374e-33 0.00019553890160750598 0.0002969532215502113 -0.0 -0.0 -2.953007005906566e-27 1 True False

3502.964 4.792695999145508 -1.1581753951362153 1.6350191275226038 -2.0476800403990687 -1.5707491079913538 3.2219080924987793 -9.806082061913912e-07 0.0001291244843741879 0.00012972917465958744 -0.0 -0.0 -0.0 1 True False

3503.0139999999997 4.792707920074463 -1.158285067682602 1.6350801626788538 -2.047664304772848 -1.5707886854754847 3.221928834915161 0.0 7.3385082941968e-05 0.00010554760228842497 -0.0 -0.0 -0.0 1 True False

3503.064 4.792703628540039 -1.1581514340690156 1.635087792073385 -2.0476838550963343 -1.5708048979388636 3.221886396408081 0.0 6.25579705229029e-05 7.438991451635957e-05 -0.0 -0.0 -0.0 1 True False

3503.114 4.792679786682129 -1.1582006973079224 1.6351268927203577 -2.047624250451559 -1.5708168188678187 3.2218854427337646 0.0 0.0 1.0693944609258815e-27 -3.899253492247075e-15 -0.0 -0.0 1 True False

3503.1639999999998 4.7927327156066895 -1.1582268935493012 1.6350892225848597 -2.047704359094137 -1.5708206335650843 3.2219316959381104 0.0 0.0 0.0 -5.922976242457722e-34 -0.0 -0.0 1 True False

3503.214 4.792679786682129 -1.1582682591727753 1.6349847952472132 -2.0477081737914027 -1.5707648436175745 3.2219882011413574 0.0 -0.0016895461594685912 1.4167939044185118e-09 -9.3664302767138e-06 -0.0 1.3108158782415558e-05 1 True False

3503.2639999999997 4.7926926612854 -1.158253477220871 1.635021988545553 -2.0477758846678675 -1.5708168188678187 3.2219226360321045 0.0 0.00014342590293381363 7.634574103576597e-06 -1.0793168437877663e-18 -0.0 2.725650777357362e-17 1 True False

3503.314 4.7926716804504395 -1.1582788986018677 1.6349638144122522 -2.0478207073607386 -1.5707810560809534 3.2219433784484863 0.0 0.00011977752728853375 -2.0497710293112486e-33 0.0003781125124078244 -0.0 4.1402713307573067e-36 1 True True

3503.364 4.792708873748779 -1.1583344501307984 1.634791676198141 -2.047173639337057 -1.570784870778219 3.221952438354492 0.0 -0.009951851330697536 -0.017686622217297554 0.0347176156938076 -0.0 0.0 1 True True

3503.4139999999998 4.7927327156066895 -1.159229115848877 1.632766071950094 -2.043790479699606 -1.570784870778219 3.221994400024414 0.0 -0.037258636206388474 -0.07077603042125702 0.09199513494968414 -0.0 -6.540051253978163e-05 1 True True

3503.464 4.792715549468994 -1.1617363852313538 1.6279709974872034 -2.036710401574606 -1.5707967917071741 3.221952438354492 0.0 -0.05879729986190796 -0.11613500118255615 0.16662584245204926 -0.0 -5.430971577879973e-05 1 True True

3503.5139999999997 4.79268741607666 -1.1653759342483063 1.6209176222430628 -2.0263554058470667 -1.5707410017596644 3.2219479084014893 -1.941664364013551e-11 -0.08197875320911407 -0.15941068530082703 0.2416166365146637 -0.0 -7.045940492389491e-06 1 True True

3503.564 4.792712211608887 -1.1700431269458313 1.6117199102984827 -2.0123187504210414 -1.5707886854754847 3.2219197750091553 0.0 -0.10652723163366318 -0.20960405468940735 0.2994736433029175 -0.0 -2.187430436606519e-05 1 True True

3503.614 4.792703628540039 -1.175919072037079 1.600062672291891 -1.9947649441161097 -1.5708168188678187 3.221895456314087 0.0 -0.13098347187042236 -0.25534525513648987 0.38911131024360657 -0.0 -4.777105349475419e-18 1 True True

3503.6639999999998 4.7927327156066895 -1.1831106108478089 1.5861838499652308 -1.9740005932249964 -1.5708048979388636 3.221924304962158 0.0 -0.15032728016376495 -0.3029513359069824 0.456835001707077 -0.0 -7.256430157798603e-37 1 True True

3503.714 4.792719841003418 -1.1913262468627472 1.5700557867633265 -1.9495517216124476 -1.5708206335650843 3.2218987941741943 0.0 -0.17206816375255585 -0.34700480103492737 0.518662691116333 -0.0 -0.0 1 True True

3503.7639999999997 4.792737007141113 -1.2003988486579438 1.552164379750387 -1.9228278599181117 -1.5707572142230433 3.2219078540802 0.0 -0.17431092262268066 -0.3436276912689209 0.5077858567237854 -0.0 -0.0 1 True True

3503.814 4.792719841003418 -1.2081971925548096 1.5366552511798304 -1.8989197216429652 -1.5707691351519983 3.221886396408081 0.0 -0.15211503207683563 -0.29373645782470703 0.4486229717731476 -0.0 -0.0 1 True True

3503.864 4.792724132537842 -1.2152433854392548 1.5231788794146937 -1.878655572930807 -1.5708006064044397 3.221860885620117 0.0 -0.12349408119916916 -0.24624459445476532 0.39034396409988403 -0.0 -0.0 1 True True

3503.9139999999998 4.7927165031433105 -1.2209772032550354 1.5121033827411097 -1.8617941341795863 -1.5707767645465296 3.221952438354492 0.0 -0.10240541398525238 -0.20066584646701813 0.29489049315452576 -0.0 -0.0 1 True True

3503.964 4.792703628540039 -1.2254735094359894 1.5031550566302698 -1.8484608135619105 -1.5707648436175745 3.221940755844116 0.0 -0.07906725257635117 -0.15410691499710083 0.2323475480079651 -0.0 -0.0 1 True True

3504.0139999999997 4.7927446365356445 -1.2287020844272156 1.4966581503497522 -1.8385583362975062 -1.5707529226886194 3.2219078540802 0.0 -0.05244205892086029 -0.10852883756160736 0.17473147809505463 -0.0 -0.0 1 True True

3504.064 4.792753219604492 -1.230988935833313 1.4924748579608362 -1.8320776424803675 -1.5708206335650843 3.2219152450561523 0.0 -0.03267548233270645 -0.06165945529937744 0.10862737894058228 -0.0 -0.0 1 True True

3504.114 4.7927165031433105 -1.2318598192981263 1.490485970173971 -1.8293324909605921 -1.5707967917071741 3.2219436168670654 0.0 -0.009733052924275398 -0.02087801694869995 0.022093921899795532 -0.0 -0.0 1 True True

3504.1639999999998 4.791898250579834 -1.2319632929614563 1.4904301802264612 -1.8291975460448207 -1.5707886854754847 3.221186399459839 -0.04653076082468033 -0.0005185313639231026 0.0015418800758197904 0.00032229808857664466 -0.0 -0.04078067094087601 1 True True

3504.214 4.787932395935059 -1.2322943073562165 1.4907506147967737 -1.8291813335814417 -1.5707967917071741 3.2169981002807617 -0.11709129810333252 -0.010574061423540115 0.012235204689204693 9.247273555956781e-05 -0.0 -0.11445958912372589 1 True True

3504.2639999999997 4.780298233032227 -1.232949213390686 1.491385285054342 -1.8292848072447718 -1.5708211104022425 3.2095425128936768 -0.1880965232849121 -0.014361393637955189 0.01882336474955082 -0.005234130658209324 -0.0 -0.18793663382530212 1 True True

3504.314 4.769090175628662 -1.233719365005829 1.4924605528460901 -1.8296109638609828 -1.570801083241598 3.1983938217163086 -0.25587669014930725 -0.01763765886425972 0.024016771465539932 -0.008396273478865623 -0.0 -0.2582634687423706 1 True True

3504.364 4.754612922668457 -1.2347307366183777 1.4937518278705042 -1.8299209080138148 -1.5707805792437952 3.1837871074676514 -0.32414886355400085 -0.023633277043700218 0.03069429099559784 -0.00673397583886981 -3.598215692415807e-12 -0.3214305341243744 1 True True

3504.4139999999998 4.73649787902832 -1.2360810500434418 1.495429817830221 -1.8304101429381312 -1.5707805792437952 3.1657683849334717 -0.39639410376548767 -0.029225165024399757 0.03913678973913193 -0.011561592109501362 -5.465697493611611e-31 -0.4012996256351471 1 True True

3504.464 4.71498966217041 -1.2376464766315003 1.4976213614093226 -1.8308912716307582 -1.5707610289203089 3.1443636417388916 -0.46296170353889465 -0.03553461655974388 0.046518221497535706 -0.009984460659325123 -6.363024294842035e-05 -0.46776604652404785 1 True True

3504.5139999999997 4.689981937408447 -1.2394967538169404 1.500049893056051 -1.8314882717528285 -1.570813004170553 3.119108200073242 -0.5345956087112427 -0.03841925412416458 0.05292172357439995 -0.010561248287558556 -0.0001054523527272977 -0.5316323637962341 1 True True

3504.564 4.661323547363281 -1.2415214639953156 1.5028403441058558 -1.8321434460081996 -1.5707886854754847 3.0905725955963135 -0.6079153418540955 -0.04415324330329895 0.05622641742229462 -0.018151436001062393 -5.3906678658677265e-05 -0.5992346405982971 1 True True

3504.614 4.629339218139648 -1.2438923579505463 1.5059617201434534 -1.832851072350973 -1.570813004170553 3.0586018562316895 -0.6777647137641907 -0.04621034488081932 0.06625617295503616 -0.018606845289468765 -1.4725778961090339e-15 -0.6701939105987549 1 True True

3504.6639999999998 4.593906402587891 -1.2465206545642395 1.509362522755758 -1.8337260685362757 -1.5708211104022425 3.023031711578369 -0.7489411234855652 -0.05377845838665962 0.06861817836761475 -0.01921136863529682 -1.2590963495884462e-14 -0.7369810938835144 1 True True

3504.714 4.554955959320068 -1.2493544083884736 1.5131357351886194 -1.8345729313292445 -1.5707767645465296 2.9842634201049805 -0.8147422671318054 -0.05927717685699463 0.08017595112323761 -0.01853218860924244 -1.9125699000771636e-33 -0.8077526092529297 1 True True

3504.7639999999997 4.512458324432373 -1.252431796198227 1.5171168486224573 -1.835487504998678 -1.5707648436175745 2.9416069984436035 -0.8792487382888794 -0.06679920107126236 0.08293134719133377 -0.01698237843811512 -5.246797627478372e-07 -0.8896306157112122 1 True True

3504.814 4.466445446014404 -1.2557351750186463 1.5215032736407679 -1.836576601068014 -1.5708492437945765 2.895751476287842 -0.9545605182647705 -0.06767217814922333 0.09026842564344406 -0.02186281606554985 -8.446424180874601e-05 -0.9420388340950012 1 True True

3504.864 4.416924476623535 -1.2593324047378083 1.5262263456927698 -1.8377415142455042 -1.5707805792437952 2.8460988998413086 -1.0191569328308105 -0.07301889359951019 0.10323220491409302 -0.026665979996323586 -7.0683989549697555e-19 -1.0281505584716797 1 True True

3504.9139999999998 4.3648786544799805 -1.2631217700294037 1.5311678091632288 -1.838937898675436 -1.570813004170553 2.794131278991699 -1.0491297245025635 -0.07816911488771439 0.10175435245037079 -0.027334699407219887 4.240705919755783e-08 -1.0420352220535278 1 True True

3504.964 4.31251859664917 -1.2668997806361695 1.5363982359515589 -1.8402101002135218 -1.5708611647235315 2.741614818572998 -1.0492360591888428 -0.0755784809589386 0.098230741918087 -0.02476249821484089 6.4416428627384215e-27 -1.0453627109527588 1 True True

3505.0139999999997 4.260148048400879 -1.270777480011322 1.5414426962481897 -1.8413788280882777 -1.5708168188678187 2.6892969608306885 -1.0454787015914917 -0.07565756142139435 0.10196531563997269 -0.020042089745402336 1.401298464324817e-45 -1.0551315546035767 1 True True

3505.064 4.207749366760254 -1.2745541495135804 1.5463641325580042 -1.8424798450865687 -1.5707772413836878 2.637014865875244 -1.0510605573654175 -0.07734601944684982 0.09835385531187057 -0.02266593649983406 7.891875597465514e-09 -1.0447704792022705 1 True True

3505.114 4.155399799346924 -1.2783507865718384 1.5512617270099085 -1.84373201946401 -1.570801083241598 2.5845069885253906 -1.0518649816513062 -0.07519618421792984 0.09883922338485718 -0.026417914777994156 3.954216299462132e-05 -1.0369715690612793 1 True True

3505.1639999999998 4.103009223937988 -1.2822585862926026 1.5563724676715296 -1.844877382318014 -1.5707805792437952 2.5322682857513428 -1.0445982217788696 -0.07383982837200165 0.0974116399884224 -0.022746147587895393 -1.4329257780332227e-08 -1.0534864664077759 1 True True

3505.214 4.050652503967285 -1.286054478292801 1.5612662474261683 -1.8462454281248988 -1.5708091894732874 2.4799559116363525 -1.0466721057891846 -0.07696878165006638 0.10359454154968262 -0.02548634633421898 -2.176616689668456e-27 -1.04657781124115 1 True True

3505.2639999999997 3.998323440551758 -1.289750800733902 1.5664199034320276 -1.847417493859762 -1.570853058491842 2.4274587631225586 -1.05117666721344 -0.07684435695409775 0.10115500539541245 -0.028588009998202324 6.814877997385338e-05 -1.0424484014511108 1 True True

3505.314 3.9459660053253174 -1.2936393779567261 1.5716193358050745 -1.848551412621969 -1.570784870778219 2.375048875808716 -1.0436066389083862 -0.07625643163919449 0.0998963862657547 -0.02376156486570835 1.566051717754546e-23 -1.0533270835876465 1 True True

3505.364 3.893646001815796 -1.2974250477603455 1.5765278975116175 -1.8496715031065882 -1.570784870778219 2.3228447437286377 -1.0463626384735107 -0.07628600299358368 0.1024784967303276 -0.019918866455554962 2.3794047924235394e-42 -1.0498076677322388 1 True True

3505.4139999999998 3.8411953449249268 -1.3012245160392304 1.5813735167132776 -1.8510080776610316 -1.5708254019366663 2.2703819274902344 -1.0493131875991821 -0.0822206363081932 0.10198136419057846 -0.0246493611484766 0.0 -1.0403892993927002 1 True True

3505.464 3.788825750350952 -1.3050949734500428 1.586442772542135 -1.8521977863707484 -1.5707767645465296 2.2179784774780273 -1.0444157123565674 -0.07482282817363739 0.0998154804110527 -0.02380630560219288 0.0 -1.0517135858535767 1 True True

3505.5139999999997 3.7364730834960938 -1.3089415592006226 1.5915182272540491 -1.8534308872618617 -1.57074481645693 2.1657700538635254 -1.0462777614593506 -0.07481039315462112 0.09752707928419113 -0.023148715496063232 0.0 -1.045708417892456 1 True True

3505.564 3.684157133102417 -1.3127775949290772 1.5964296499835413 -1.8546048603453578 -1.5707886854754847 2.1132986545562744 -1.0508053302764893 -0.07438352704048157 0.10038489103317261 -0.022139903157949448 0.0 -1.0398650169372559 1 True True

3505.614 3.6317713260650635 -1.316567913894989 1.6015828291522425 -1.85577454189443 -1.570813004170553 2.060939311981201 -1.044014811515808 -0.07608725875616074 0.09802049398422241 -0.024577591568231583 0.0 -1.0516276359558105 1 True True

3505.6639999999998 3.5794718265533447 -1.3203534346869965 1.6066349188434046 -1.8568750820555628 -1.5708048979388636 2.0088133811950684 -1.0457758903503418 -0.07438924163579941 0.0965164378285408 -0.025882210582494736 0.0 -1.0508174896240234 1 True True

3505.714 3.527088165283203 -1.3241683107665558 1.6116135756122034 -1.85813631633901 -1.570801083241598 1.9562351703643799 -1.0512876510620117 -0.07376363128423691 0.09892439097166061 -0.023490987718105316 0.0 -1.0430983304977417 1 True True

3505.7639999999997 3.4747073650360107 -1.3279777777246018 1.616525952016012 -1.8594008884825648 -1.5707929770099085 1.9038437604904175 -1.0443334579467773 -0.077436663210392 0.1043156161904335 -0.02330748364329338 0.0 -1.04878830909729 1 True True

3505.814 3.4223580360412598 -1.3317397844842453 1.6214726606952112 -1.8606888256468714 -1.5708006064044397 1.851571798324585 -1.0456801652908325 -0.07677158713340759 0.09931604564189911 -0.02864876389503479 0.0 -1.0514698028564453 1 True True

3505.864 3.3699724674224854 -1.335597814326622 1.6265700499164026 -1.8618370495238246 -1.5707805792437952 1.799117088317871 -1.051903247833252 -0.07432760298252106 0.10238523036241531 -0.023492544889450073 0.0 -1.0427987575531006 1 True True

3505.9139999999998 3.317622184753418 -1.3394179356149216 1.6317055861102503 -1.8630267582335414 -1.5707925001727503 1.7467231750488281 -1.0460561513900757 -0.07498758286237717 0.1000632494688034 -0.022165192291140556 0.0 -1.0560086965560913 1 True True

