Andreas691667/test_nn/data/dt_data/E2_dt.csv
actual_q_0 actual_q_1 actual_q_2 actual_q_3 actual_q_4 actual_q_5 timestamp
3.71207804710797 -0.8254843255005873 0.8429764792549035 -1.5882884806323445 -1.570796326807946 2.141281720311417 3488.114
3.71207804710797 -0.8254843255005873 0.8429764792549035 -1.5882884806323445 -1.570796326807946 2.141281720311417 3488.164
3.71207804710797 -0.8254843255005873 0.8429764792549035 -1.5882884806323445 -1.570796326807946 2.141281720311417 3488.2140000000004
3.71207804710797 -0.8254843255005873 0.8429764792549035 -1.5882884806323445 -1.570796326807946 2.141281720311417 3488.2640000000006
3.71207804710797 -0.8254843255005873 0.8429764792549035 -1.5882884806323445 -1.570796326807946 2.141281720311417 3488.3140000000008
3.71207804710797 -0.8254843255005873 0.8429764792549035 -1.5882884806323445 -1.570796326807946 2.141281720311417 3488.364000000001
3.71207804710797 -0.8254843255005873 0.8429764792549035 -1.5882884806323445 -1.570796326807946 2.141281720311417 3488.414000000001
3.71207804710797 -0.8254843255005873 0.8429764792549035 -1.5882884806323445 -1.570796326807946 2.141281720311417 3488.4640000000013
3.71207804710797 -0.8254843255005873 0.8429764792549035 -1.5882884806323445 -1.570796326807946 2.141281720311417 3488.5140000000015
3.71207804710797 -0.8254843255005873 0.8429764792549035 -1.5882884806323445 -1.570796326807946 2.141281720311417 3488.5640000000017
3.71207804710797 -0.8254843255005873 0.8429764792549035 -1.5882884806323445 -1.570796326807946 2.141281720311417 3488.614000000002
3.71207804710797 -0.8254843255005873 0.8429764792549035 -1.5882884806323445 -1.570796326807946 2.141281720311417 3488.664000000002
3.71207804710797 -0.8254843255005873 0.8429764792549035 -1.5882884806323445 -1.570796326807946 2.141281720311417 3488.714000000002
3.712302100445105 -0.8255991797814494 0.8431504756584648 -1.5883476227577187 -1.5707963268629916 2.1415057736482686 3488.7640000000024
3.7137951763049775 -0.8263645607231098 0.8443099755935445 -1.588741741768964 -1.5707963272298118 2.142998849506254 3488.8140000000026
3.717625071132552 -0.8283278424212271 0.8472842134894762 -1.5897526980125036 -1.5707963281707442 2.146828744328989 3488.8640000000028
3.724651864131218 -0.8319299189042199 0.8527411137346294 -1.5916075218585575 -1.5707963298970935 2.153855537318775 3488.914000000003
3.7355408995903905 -0.837511859137468 0.8611973725539686 -1.5944818405746537 -1.5707963325723222 2.164744572764187 3488.964000000003
3.7507757692131087 -0.845321562027516 0.8730285398866147 -1.5985033051991422 -1.5707963363152397 2.179979442367652 3489.0140000000033
3.7706712944436314 -0.8555204114262757 0.8884791012634048 -1.6037550174147068 -1.5707963412031918 2.1998749675730322 3489.0640000000035
3.795386508795039 -0.8681899311352279 0.9076725596844525 -1.6102789564218791 -1.5707963472752495 2.2245901818932063 3489.1140000000037
3.824937640176829 -0.8833384399096261 0.9306215174967081 -1.6180794058125498 -1.5707963545354002 2.2541413132376515 3489.164000000004
3.859211093222516 -0.9009077064626979 0.9572377582715189 -1.6271263804434823 -1.5707963629557353 2.288414766240026 3489.214000000004
3.8979764316172294 -0.9207796044698482 0.9873423286821899 -1.6373590533098255 -1.5707963724796412 2.3271801045857505 3489.264000000004
3.9408993604253117 -0.9427827675728616 1.0206756203815437 -1.648689182418626 -1.570796383024988 2.37010303333959 3489.3140000000044
3.987554708417918 -0.9666992443841051 1.0569074518794808 -1.6610045376623415 -1.5707963944873191 2.416758381273236 3489.3640000000046
4.037439410400611 -0.9922711534907303 1.0956471504205398 -1.6741723276923528 -1.570796406743041 2.4666430831928885 3489.4140000000048
4.089985489540965 -1.0192073384588758 1.1364536338614584 -1.6880426267924775 -1.5707964196526127 2.519189162266838 3489.464000000005
4.144573039696158 -1.0471900228378708 1.1788454925487324 -1.7024518017524817 -1.570796433063735 2.5737767123530473 3489.514000000005
4.200543207740575 -1.0758814651644362 1.222311071196177 -1.7172259387415933 -1.5707964468145401 2.6297468803267323 3489.5640000000053
4.257211175893402 -1.104930613966888 1.2663185507624877 -1.7321842701820154 -1.5707964607367817 2.6864148484079466 3489.6140000000055
4.313879144046229 -1.1339797627693398 1.310326030328798 -1.7471426016224372 -1.570796474659023 2.743082816489161 3489.6640000000057
4.369849312090646 -1.1626712050959052 1.353791608976243 -1.761916738611549 -1.5707964884098282 2.799052984462847 3489.714000000006
4.424436862245839 -1.1906538894749001 1.3961834676635165 -1.776325913571553 -1.5707965018209504 2.853640534549055 3489.764000000006
4.476982941386193 -1.2175900744430457 1.4369899511044353 -1.7901962126716777 -1.570796514730522 2.906186613623005 3489.814000000006
4.526867643368886 -1.2431619835496708 1.4757296496454944 -1.803364002701689 -1.570796526986244 2.956071315542658 3489.8640000000064
4.573522991361491 -1.267078460360914 1.5119614811434312 -1.8156793579454045 -1.5707965384485751 3.0027266634763032 3489.9140000000066
4.616445920169575 -1.289081623463928 1.5452947728427855 -1.8270094870542053 -1.570796548993922 3.0456495922301436 3489.9640000000068
4.655211258564289 -1.3089535214710786 1.575399343253457 -1.8372421599205484 -1.5707965585178278 3.0844149305758686 3490.014000000007
4.689484711609975 -1.3265227880241497 1.602015584028267 -1.8462891345514807 -1.570796566938163 3.118688383578242 3490.064000000007
4.719035842991765 -1.3416712967985478 1.6249645418405225 -1.8540895839421516 -1.5707965741983136 3.1482395149226874 3490.1140000000073
4.743751057343172 -1.3543408165075 1.6441580002615697 -1.8606135229493235 -1.5707965802703714 3.1729547292428615 3490.1640000000075
4.7636465825736956 -1.3645396659062594 1.65960856163836 -1.8658652351648883 -1.5707965851583234 3.192850254448242 3490.2140000000077
4.778881452196413 -1.3723493687963073 1.6714397289710057 -1.8698866997893768 -1.570796588901241 3.2080851240517068 3490.264000000008
4.789770487655584 -1.3779313090295555 1.6798959877903443 -1.8727610185054726 -1.5707965915764697 3.218974159497118 3490.314000000008
4.7967972806542525 -1.3815333855125485 1.6853528880354989 -1.8746158423515267 -1.570796593302819 3.2260009524869053 3490.364000000008
4.800627175481825 -1.383496667210665 1.688327125931429 -1.875626798595066 -1.5707965942437514 3.229830847309638 3490.4140000000084
4.802120251341698 -1.3842620481523258 1.6894866258665089 -1.8760209176063116 -1.5707965946105715 3.2313239231676256 3490.4640000000086
4.802344304678834 -1.3843769024331887 1.689660622270071 -1.8760800597316858 -1.5707965946656173 3.231547976504478 3490.5140000000088
4.802344304678834 -1.384376902433189 1.6896606222700719 -1.8760800597316862 -1.5707965946656173 3.2315479765044763 3490.564000000009
4.802344307386492 -1.384147745783343 1.6900552203559738 -1.8767038144324433 -1.5707965939491735 3.2315479792158253 3490.614000000009
4.802344324132375 -1.3827304948337065 1.6924956667159023 -1.8805615115256038 -1.5707965895182276 3.2315479959845366 3490.6640000000093
4.802344363315421 -1.3794143239348313 1.6982059731377366 -1.8895879883399567 -1.5707965791504284 3.2315480352209986 3490.7140000000095
4.802344428055237 -1.3739352121312087 1.7076407725712601 -1.9045018987404798 -1.5707965620203306 3.231548100049069 3490.7640000000097
4.802344517151974 -1.366394705944188 1.720625206189633 -1.9250268373944897 -1.5707965384454132 3.2315481892672646 3490.81400000001
4.802344626046208 -1.3571786821548983 1.736494810450864 -1.9501124640377867 -1.5707965096320957 3.2315482983099457 3490.86400000001
4.80234474777882 -1.3468761105871672 1.7542354041592816 -1.978155627740803 -1.5707964774217549 3.231548420208505 3490.91400000001
4.8023448739508705 -1.3361978168904423 1.7726229755270069 -2.0072214911747506 -1.5707964440367426 3.2315485465525557 3490.9640000000104
4.802344995683482 -1.325895245322711 1.7903635692354243 -2.035264654877767 -1.5707964118264017 3.231548668451115 3491.0140000000106
4.802345104577716 -1.3166792215334213 1.8062331734966552 -2.060350281521064 -1.5707963830130842 3.231548777493796 3491.0640000000108
4.802345193674453 -1.3091387153464007 1.8192176071150283 -2.0808752201750735 -1.5707963594381669 3.2315488667119916 3491.114000000011
4.802345258414269 -1.3036596035427779 1.8286524065485519 -2.0957891305755973 -1.570796342308069 3.231548931540062 3491.164000000011
4.8023452975973155 -1.3003434326439027 1.8343627129703863 -2.1048156073899498 -1.5707963319402698 3.231548970776524 3491.2140000000113
4.8023453143431984 -1.2989261816942663 1.8368031593303147 -2.1086733044831103 -1.570796327509324 3.2315489875452355 3491.2640000000115
4.8023453170508565 -1.2986970250444205 1.8371977574162166 -2.1092970591838673 -1.5707963267928802 3.2315489902565844 3491.3140000000117
4.8023453170508565 -1.2986970250444205 1.8371977574162166 -2.1092970591838673 -1.5707963267928802 3.2315489902565844 3491.364000000012
4.8023453170508565 -1.2986970250444205 1.8371977574162166 -2.1092970591838673 -1.5707963267928802 3.2315489902565844 3491.414000000012
4.8023453170508565 -1.2986970250444205 1.8371977574162166 -2.1092970591838673 -1.5707963267928802 3.2315489902565844 3491.464000000012
4.8023453170508565 -1.2986970250444205 1.8371977574162166 -2.1092970591838673 -1.5707963267928802 3.2315489902565844 3491.5140000000124
4.8023453170508565 -1.2986970250444205 1.8371977574162166 -2.1092970591838673 -1.5707963267928802 3.2315489902565844 3491.5640000000126
4.8023453170508565 -1.2986970250444205 1.8371977574162166 -2.1092970591838673 -1.5707963267928802 3.2315489902565844 3491.6140000000128
4.8023453170508565 -1.2986970250444205 1.8371977574162166 -2.1092970591838673 -1.5707963267928802 3.2315489902565844 3491.664000000013
4.8023453170508565 -1.2986970250444205 1.8371977574162166 -2.1092970591838673 -1.5707963267928802 3.2315489902565844 3491.714000000013
4.8023453170508565 -1.2986970250444205 1.8371977574162166 -2.1092970591838673 -1.5707963267928802 3.2315489902565844 3491.7640000000133
4.8023453170508565 -1.2986970250444205 1.8371977574162166 -2.1092970591838673 -1.5707963267928802 3.2315489902565844 3491.8140000000135
4.8023453170508565 -1.2986970250444205 1.8371977574162166 -2.1092970591838673 -1.5707963267928802 3.2315489902565844 3491.8640000000137
4.8023453170508565 -1.2986970250444205 1.8371977574162166 -2.1092970591838673 -1.5707963267928802 3.2315489902565844 3491.914000000014
4.8023453170508565 -1.2986970250444205 1.8371977574162166 -2.1092970591838673 -1.5707963267928802 3.2315489902565844 3491.964000000014
4.8023453170508565 -1.2986970250444205 1.8371977574162166 -2.1092970591838673 -1.5707963267928802 3.2315489902565844 3492.014000000014
4.8023453143431984 -1.2989261816942663 1.8368031593303147 -2.1086733044831103 -1.570796327509324 3.2315489875452355 3492.0640000000144
4.8023452975973155 -1.300343432643903 1.8343627129703861 -2.1048156073899498 -1.5707963319402698 3.231548970776524 3492.1140000000146
4.802345258414269 -1.303659603542778 1.8286524065485519 -2.095789130575597 -1.570796342308069 3.231548931540062 3492.1640000000148
4.802345193674453 -1.3091387153464007 1.8192176071150283 -2.0808752201750735 -1.5707963594381669 3.2315488667119916 3492.214000000015
4.802345104577716 -1.3166792215334213 1.8062331734966555 -2.060350281521064 -1.5707963830130842 3.231548777493796 3492.264000000015
4.802344995683482 -1.325895245322711 1.7903635692354245 -2.035264654877767 -1.5707964118264017 3.231548668451115 3492.3140000000153
4.8023448739508705 -1.3361978168904423 1.7726229755270069 -2.0072214911747506 -1.5707964440367426 3.2315485465525557 3492.3640000000155
4.80234474777882 -1.3468761105871672 1.7542354041592816 -1.978155627740803 -1.5707964774217549 3.231548420208505 3492.4140000000157
4.802344626046208 -1.3571786821548981 1.7364948104508642 -1.9501124640377867 -1.5707965096320957 3.2315482983099457 3492.464000000016
4.802344517151974 -1.366394705944188 1.7206252061896332 -1.9250268373944899 -1.5707965384454132 3.2315481892672646 3492.514000000016
4.802344428055237 -1.3739352121312087 1.7076407725712601 -1.90450189874048 -1.5707965620203306 3.231548100049069 3492.564000000016
4.802344363315421 -1.3794143239348315 1.6982059731377366 -1.8895879883399564 -1.5707965791504284 3.2315480352209986 3492.6140000000164
4.802344324132375 -1.3827304948337067 1.6924956667159021 -1.8805615115256038 -1.5707965895182276 3.2315479959845366 3492.6640000000166
4.802344307386492 -1.384147745783343 1.6900552203559738 -1.876703814432443 -1.5707965939491735 3.2315479792158253 3492.7140000000168
4.802344304678834 -1.384376902433189 1.6896606222700719 -1.8760800597316862 -1.5707965946656173 3.2315479765044763 3492.764000000017
4.802344304678834 -1.384376902433189 1.6896606222700719 -1.8760800597316862 -1.5707965946656173 3.2315479765044763 3492.814000000017
4.802218822343209 -1.3843766781623514 1.6896603477686656 -1.8760800095003098 -1.5707965946490787 3.231422494168937 3492.8640000000173
4.801368484365914 -1.3843751583786361 1.6896584875947263 -1.8760796691046129 -1.5707965945370035 3.230572156192218 3492.9140000000175
4.799144106848085 -1.384371182815015 1.6896536216129634 -1.876078778672155 -1.5707965942438291 3.228347778675899 3492.9640000000177
4.794976160356982 -1.3843637335685124 1.6896445039378152 -1.8760771102166842 -1.5707965936944908 3.2241798321876245 3493.014000000018
4.7883715837473355 -1.3843519294056432 1.6896300559634596 -1.8760744663626903 -1.570796592824003 3.2175752555824597 3493.064000000018
4.778910597982704 -1.3843350200678508 1.6896093593938257 -1.8760706790699573 -1.5707965915770388 3.2081142698242484 3493.114000000018
4.766243519956832 -1.3843123805769446 1.6895816492726032 -1.8760656083581149 -1.5707965899075091 3.1954471918069713 3493.1640000000184
4.750087576314998 -1.3842835055405383 1.6895463070132548 -1.876059141031192 -1.570796587778145 3.179291248176102 3493.2140000000186
4.730223717275382 -1.384248003457487 1.6895028534290257 -1.8760511894021688 -1.5707965851600747 3.1594273891499647 3493.2640000000188
4.706493430450407 -1.3842055910233269 1.6894509417629557 -1.8760416900175292 -1.5707965820324068 3.135697102341093 3493.314000000019
4.6787955546681035 -1.3841560874357106 1.689390350717889 -1.8760306023818132 -1.5707965783818079 3.1079992265775855 3493.364000000019
4.647083093793463 -1.3840994086998475 1.689320977486485 -1.8760179076821688 -1.5707965742020837 3.076286765724465 3493.4140000000193
4.611360030549791 -1.3840355619339404 1.689242830781231 -1.8760036075129058 -1.5707965694937598 3.0405637025050343 3493.4640000000195
4.571678140340064 -1.383964639674623 1.6891560238644503 -1.875987722600047 -1.5707965642636594 3.000881812322235 3493.5140000000197
4.5281338050682844 -1.383886814182399 1.689060767578315 -1.8759702915258811 -1.5707965585244865 2.9573374770800043 3493.56400000002
4.480864826960836 -1.3838023317470793 1.688957363374856 -1.8759513694535155 -1.570796552294403 2.910068499004633 3493.61400000002
4.43004724238784 -1.3837115069932202 1.6888461963459744 -1.8759310268514275 -1.5707965455966106 2.859250914466121 3493.66400000002
4.3758921356845075 -1.3836147171855606 1.6887277282534516 -1.8759093482180182 -1.5707965384589306 2.805095807799538 3493.7140000000204
4.318642452972498 -1.3835123965344605 1.688602490558961 -1.8758864308061645 -1.5707965309133833 2.7478461251263777 3493.7640000000206
4.258569815981273 -1.3834050305013394 1.6884710774540777 -1.8758623833477708 -1.5707965229957688 2.6877734881759183 3493.8140000000208
4.195971335869454 -1.3832931501041128 1.6883341388902908 -1.8758373247783222 -1.5707965147452465 2.6251750081065772 3493.864000000021
4.13116642704617 -1.3831773262226317 1.6881923736090134 -1.8758113829614371 -1.5707965062039153 2.56037009932727 3493.914000000021
4.064493620992424 -1.3830581639041188 1.6880465221715932 -1.8757846934134188 -1.570796497416394 2.493697293318768 3493.9640000000213
3.996307380082441 -1.3829362966686083 1.6878973599893237 -1.8757573980278084 -1.570796488429401 2.4255110524550547 3494.0140000000215
3.926974911405021 -1.382812380814382 1.6877456903534551 -1.8757296437999376 -1.5707964792913343 2.3561785838246845 3494.0640000000217
3.8568729805849036 -1.3826870897234085 1.6875923374652055 -1.8757015815514806 -1.570796470051852 2.2860766530521373 3494.114000000022
3.7863847256041145 -1.3825611081667801 1.6874381394657707 -1.8756733646550066 -1.570796460761452 2.2155883981191815 3494.164000000022
3.7158964706233264 -1.3824351266101518 1.6872839414663359 -1.8756451477585327 -1.570796451471052 2.1451001431862258 3494.214000000022
3.645794539803209 -1.3823098355191783 1.6871305885780863 -1.8756170855100758 -1.5707964422315697 2.074998212413679 3494.2640000000224
3.576462071125788 -1.382185919664952 1.6869789189422177 -1.875589331282205 -1.570796433093503 2.0056657437833074 3494.3140000000226
3.508275830215805 -1.3820640524294414 1.6868297567599482 -1.8755620358965945 -1.57079642410651 1.9374795029195948 3494.3640000000228
3.4416030241620597 -1.3819448901109286 1.686683905322528 -1.8755353463485762 -1.5707964153189886 1.870806696911093 3494.414000000023
3.3767981153387763 -1.3818290662294475 1.6865421400412506 -1.8755094045316911 -1.5707964067776574 1.806001788131786 3494.464000000023
3.314199635226956 -1.3817171858322208 1.6864052014774638 -1.8754843459622426 -1.5707963985271352 1.7434033080624447 3494.5140000000233
3.254126998235731 -1.3816098197990998 1.6862737883725805 -1.8754602985038489 -1.5707963906095206 1.683330671111985 3494.5640000000235
3.196877315523723 -1.3815074991479996 1.6861485506780898 -1.875437381091995 -1.5707963830639733 1.6260809884388259 3494.6140000000237
3.1427222088203894 -1.38141070934034 1.686030082585567 -1.8754157024585858 -1.5707963759262933 1.5719258817722421 3494.664000000024
3.091904624247393 -1.381319884586481 1.6859189155566854 -1.8753953598564979 -1.570796369228501 1.5211082972337298 3494.714000000024
3.0446356461399438 -1.3812354021511613 1.6858155113532265 -1.8753764377841322 -1.5707963629984174 1.4738393191583563 3494.764000000024
3.001091310868164 -1.3811575766589372 1.6857202550670911 -1.8753590067099664 -1.5707963572592445 1.4302949839161272 3494.8140000000244
2.9614094206584394 -1.3810866543996199 1.6856334481503104 -1.8753431217971075 -1.5707963520291441 1.39061309373333 3494.8640000000246
2.925686357414766 -1.3810228076337128 1.6855553014450564 -1.8753288216278445 -1.5707963473208202 1.3548900305138978 3494.9140000000248
2.8939738965401256 -1.3809661288978496 1.6854859282136525 -1.8753161269282002 -1.570796343141096 1.323177569660778 3494.964000000025
2.866276020757823 -1.3809166253102334 1.6854253371685857 -1.8753050392924842 -1.5707963394904971 1.2954796938972692 3495.014000000025
2.8425457339328464 -1.3808742128760731 1.6853734255025157 -1.8752955399078446 -1.5707963363628292 1.2717494070883972 3495.0640000000253
2.8226818748932283 -1.380838710793022 1.6853299719182866 -1.8752875882788214 -1.570796333744759 1.2518855480622577 3495.1140000000255
2.8065259312513966 -1.3808098357566156 1.6852946296589382 -1.8752811209518985 -1.5707963316153948 1.2357296044313903 3495.1640000000257
2.7938588532255273 -1.3807871962657094 1.6852669195377157 -1.875276050240056 -1.5707963299458652 1.223062526414116 3495.214000000026
2.7843978674608927 -1.380770286927917 1.6852462229680818 -1.875272262947323 -1.5707963286989008 1.213601540655902 3495.264000000026
2.7777932908512466 -1.3807584827650479 1.6852317749937262 -1.8752696190933291 -1.5707963278284132 1.206996964050738 3495.314000000026
2.7736253443601444 -1.3807510335185453 1.685222657318578 -1.8752679506378584 -1.5707963272790748 1.2028290175624634 3495.3640000000264
2.7714009668423145 -1.3807470579549241 1.6852177913368152 -1.8752670602054005 -1.5707963269859004 1.2006046400461425 3495.4140000000266
2.7705506288650183 -1.3807455381712088 1.6852159311628758 -1.8752667198097035 -1.5707963268738252 1.1997543020694224 3495.4640000000268
2.7704251465293916 -1.3807453139003714 1.6852156566614696 -1.875266669578327 -1.5707963268572867 1.199628819733885 3495.514000000027
2.770425146529396 -1.3807453139003714 1.6852156566614696 -1.875266669578327 -1.5707963268572867 1.1996288197338867 3495.564000000027
2.7704251465977157 -1.3805168806108037 1.6856099205870532 -1.875889366793515 -1.5707963268612652 1.1996288198022016 3495.6140000000273
2.770425147020249 -1.37910410338271 1.6880483002863422 -1.8797405237211244 -1.5707963268858711 1.1996288202247054 3495.6640000000275
2.770425148008917 -1.3757984003725279 1.693753771008562 -1.888751697454057 -1.5707963269434453 1.1996288212133055 3495.7140000000277
2.7704251496424352 -1.3703365840383621 1.7031805807034248 -1.903640323483962 -1.5707963270385719 1.1996288228467105 3495.764000000028
2.770425151890528 -1.3628198803578648 1.7161540186210413 -1.9241304650832824 -1.5707963271694878 1.1996288250946479 3495.814000000028
2.770425154638152 -1.3536329480461127 1.732010183911832 -1.9491735626872997 -1.5707963273294936 1.199628827842082 3495.864000000028
2.770425157709715 -1.3433628977734864 1.749735754226439 -1.977169183276181 -1.5707963275083634 1.1996288309134322 3495.9140000000284
2.7704251608932937 -1.3327183113835483 1.7681077543156363 -2.0061857697570247 -1.5707963276937567 1.199628834096791 3495.9640000000286
2.7704251639648567 -1.322448261110922 1.7858333246302431 -2.034181390345906 -1.5707963278726265 1.1996288371681414 3496.014000000029
2.7704251667124806 -1.3132613287991701 1.8016894899210338 -2.0592244879499235 -1.5707963280326322 1.1996288399155755 3496.064000000029
2.7704251689605734 -1.3057446251186726 1.8146629278386504 -2.0797146295492435 -1.5707963281635482 1.1996288421635128 3496.114000000029
2.7704251705940917 -1.3002828087845069 1.8240897375335132 -2.094603255579149 -1.5707963282586748 1.1996288437969178 3496.1640000000293
2.77042517158276 -1.2969771057743245 1.8297952082557332 -2.1036144293120818 -1.570796328316249 1.199628844785518 3496.2140000000295
2.770425172005293 -1.2955643285462308 1.832233587955022 -2.107465586239691 -1.5707963283408548 1.1996288452080217 3496.2640000000297
2.7704251720736126 -1.2953358952566634 1.8326278518806056 -2.1080882834548786 -1.5707963283448334 1.1996288452763366 3496.31400000003
2.7704251720736126 -1.2953358952566634 1.8326278518806056 -2.1080882834548786 -1.5707963283448334 1.1996288452763366 3496.36400000003
2.7704251720736126 -1.2953358952566634 1.8326278518806056 -2.1080882834548786 -1.5707963283448334 1.1996288452763366 3496.4140000000302
2.7704251720736126 -1.2953358952566634 1.8326278518806056 -2.1080882834548786 -1.5707963283448334 1.1996288452763366 3496.4640000000304
2.7704251720736126 -1.2953358952566634 1.8326278518806056 -2.1080882834548786 -1.5707963283448334 1.1996288452763366 3496.5140000000306
2.7704251720736126 -1.2953358952566634 1.8326278518806056 -2.1080882834548786 -1.5707963283448334 1.1996288452763366 3496.564000000031
2.7704251720736126 -1.2953358952566634 1.8326278518806056 -2.1080882834548786 -1.5707963283448334 1.1996288452763366 3496.614000000031
2.770425172005293 -1.295564328546231 1.832233587955022 -2.107465586239691 -1.5707963283408548 1.1996288452080217 3496.664000000031
2.77042517158276 -1.2969771057743247 1.829795208255733 -2.1036144293120813 -1.570796328316249 1.199628844785518 3496.7140000000313
2.7704251705940917 -1.3002828087845069 1.8240897375335132 -2.0946032555791487 -1.5707963282586748 1.1996288437969178 3496.7640000000315
2.7704251689605734 -1.3057446251186726 1.8146629278386504 -2.0797146295492435 -1.5707963281635482 1.1996288421635128 3496.8140000000317
2.7704251667124806 -1.31326132879917 1.8016894899210338 -2.0592244879499235 -1.5707963280326322 1.1996288399155755 3496.864000000032
2.7704251639648567 -1.322448261110922 1.7858333246302431 -2.034181390345906 -1.5707963278726265 1.1996288371681414 3496.914000000032
2.7704251608932937 -1.3327183113835483 1.7681077543156363 -2.0061857697570247 -1.5707963276937567 1.199628834096791 3496.9640000000322
2.770425157709715 -1.3433628977734864 1.749735754226439 -1.977169183276181 -1.5707963275083634 1.1996288309134322 3497.0140000000324
2.770425154638152 -1.3536329480461127 1.732010183911832 -1.9491735626872997 -1.5707963273294936 1.199628827842082 3497.0640000000326
2.770425151890528 -1.3628198803578646 1.7161540186210413 -1.9241304650832824 -1.5707963271694878 1.1996288250946479 3497.114000000033
2.7704251496424352 -1.3703365840383621 1.7031805807034248 -1.9036403234839623 -1.5707963270385719 1.1996288228467105 3497.164000000033
2.770425148008917 -1.3757984003725279 1.693753771008562 -1.8887516974540568 -1.5707963269434453 1.1996288212133055 3497.214000000033
2.770425147020249 -1.3791041033827103 1.688048300286342 -1.879740523721124 -1.5707963268858711 1.1996288202247054 3497.2640000000333
2.7704251465977157 -1.380516880610804 1.6856099205870532 -1.8758893667935146 -1.5707963268612652 1.1996288198022016 3497.3140000000335
2.770425146529396 -1.3807453139003714 1.6852156566614696 -1.8752666695783269 -1.5707963268572867 1.1996288197338867 3497.3640000000337
2.770425146529396 -1.3807453139003714 1.6852156566614696 -1.8752666695783269 -1.5707963268572867 1.1996288197338867 3497.414000000034
2.770425146529396 -1.3807453139003714 1.6852156566614696 -1.8752666695783269 -1.5707963268572867 1.1996288197338867 3497.464000000034
2.770425146529396 -1.3807453139003714 1.6852156566614696 -1.8752666695783269 -1.5707963268572867 1.1996288197338867 3497.5140000000342
2.770425146529396 -1.3807453139003714 1.6852156566614696 -1.8752666695783269 -1.5707963268572867 1.1996288197338867 3497.5640000000344
2.770425146529396 -1.3807453139003714 1.6852156566614696 -1.8752666695783269 -1.5707963268572867 1.1996288197338867 3497.6140000000346
2.770425146529396 -1.3807453139003714 1.6852156566614696 -1.8752666695783269 -1.5707963268572867 1.1996288197338867 3497.664000000035
2.770425146529396 -1.3807453139003714 1.6852156566614696 -1.8752666695783269 -1.5707963268572867 1.1996288197338867 3497.714000000035
2.770425146529396 -1.3807453139003714 1.6852156566614696 -1.8752666695783269 -1.5707963268572867 1.1996288197338867 3497.764000000035
2.770425146529396 -1.3807453139003714 1.6852156566614696 -1.8752666695783269 -1.5707963268572867 1.1996288197338867 3497.8140000000353
2.770425146529396 -1.3807453139003714 1.6852156566614696 -1.8752666695783269 -1.5707963268572867 1.1996288197338867 3497.8640000000355
2.770425146529396 -1.3807453139003714 1.6852156566614696 -1.8752666695783269 -1.5707963268572867 1.1996288197338867 3497.9140000000357
2.770425146529396 -1.3807453139003714 1.6852156566614696 -1.8752666695783269 -1.5707963268572867 1.1996288197338867 3497.964000000036
2.770425146529396 -1.3807453139003714 1.6852156566614696 -1.8752666695783269 -1.5707963268572867 1.1996288197338867 3498.014000000036
2.770425146529396 -1.3807453139003714 1.6852156566614696 -1.8752666695783269 -1.5707963268572867 1.1996288197338867 3498.0640000000362
2.770425146529396 -1.3807453139003714 1.6852156566614696 -1.8752666695783269 -1.5707963268572867 1.1996288197338867 3498.1140000000364
2.770425146529396 -1.3807453139003714 1.6852156566614696 -1.8752666695783269 -1.5707963268572867 1.1996288197338867 3498.1640000000366
2.770425146529396 -1.3807453139003714 1.6852156566614696 -1.8752666695783269 -1.5707963268572867 1.1996288197338867 3498.214000000037
2.770425146529396 -1.3807453139003714 1.6852156566614696 -1.8752666695783269 -1.5707963268572867 1.1996288197338867 3498.264000000037
2.770425146529396 -1.3807453139003714 1.6852156566614696 -1.8752666695783269 -1.5707963268572867 1.1996288197338867 3498.314000000037
2.770425146529396 -1.3807453139003714 1.6852156566614696 -1.8752666695783269 -1.5707963268572867 1.1996288197338867 3498.3640000000373
2.770425146529396 -1.3807453139003714 1.6852156566614696 -1.8752666695783269 -1.5707963268572867 1.1996288197338867 3498.4140000000375
2.770425146529396 -1.3807453139003714 1.6852156566614696 -1.8752666695783269 -1.5707963268572867 1.1996288197338867 3498.4640000000377
2.770425146529396 -1.3807453139003714 1.6852156566614696 -1.8752666695783269 -1.5707963268572867 1.1996288197338867 3498.514000000038
2.770425146529396 -1.3807453139003714 1.6852156566614696 -1.8752666695783269 -1.5707963268572867 1.1996288197338867 3498.564000000038
2.770425146529396 -1.3807453139003714 1.6852156566614696 -1.8752666695783269 -1.5707963268572867 1.1996288197338867 3498.6140000000382
2.770425146529396 -1.3807453139003714 1.6852156566614696 -1.8752666695783269 -1.5707963268572867 1.1996288197338867 3498.6640000000384
2.770425146529396 -1.3807453139003714 1.6852156566614696 -1.8752666695783269 -1.5707963268572867 1.1996288197338867 3498.7140000000386
2.770425146529396 -1.3807453139003714 1.6852156566614696 -1.8752666695783269 -1.5707963268572867 1.1996288197338867 3498.764000000039
2.770425146529396 -1.3807453139003714 1.6852156566614696 -1.8752666695783269 -1.5707963268572867 1.1996288197338867 3498.814000000039
2.770425146529396 -1.3807453139003714 1.6852156566614696 -1.8752666695783269 -1.5707963268572867 1.1996288197338867 3498.864000000039
2.770425146529396 -1.3807453139003714 1.6852156566614696 -1.8752666695783269 -1.5707963268572867 1.1996288197338867 3498.9140000000393
2.770425146529396 -1.3807453139003714 1.6852156566614696 -1.8752666695783269 -1.5707963268572867 1.1996288197338867 3498.9640000000395
2.770425146529396 -1.3807453139003714 1.6852156566614696 -1.875266669578327 -1.5707963268572867 1.1996288197338867 3499.0140000000397
2.770537238037253 -1.3807370685183584 1.6852048508817548 -1.8752641091806446 -1.570796326857252 1.199740911241748 3499.06400000004
2.771297731512527 -1.3806811270885226 1.6851315382363499 -1.875246737965207 -1.5707963268570169 1.200501404717052 3499.11400000004
2.7732898141817746 -1.3805345907190572 1.6849394986527162 -1.8752012347513833 -1.570796326856401 1.2024934873863773 3499.1640000000402
2.777027933409561 -1.3802596169799022 1.6845791386781233 -1.8751158485165917 -1.5707963268552452 1.2062316066143102 3499.2140000000404
2.78296044053931 -1.3798232254234464 1.684007236609656 -1.874980338005606 -1.5707963268534109 1.2121641137442918 3499.2640000000406
2.791472234734147 -1.3791971031052297 1.6831866876242219 -1.8747859113398606 -1.5707963268507792 1.2206759079394625 3499.314000000041
2.8028874068177454 -1.3783574101046445 1.6820862489085593 -1.874525165626757 -1.57079632684725 1.2320910800235079 3499.364000000041
2.8174718831151724 -1.3772845850456386 1.6806802847892437 -1.874192026568969 -1.5707963268427407 1.2466755563215062 3499.414000000041
2.835436069293734 -1.3759631506174164 1.678948511862696 -1.8737816880737495 -1.5707963268371865 1.2646397425007718 3499.4640000000413
2.856937494203823 -1.3743815190951418 1.6768757441251887 -1.873290551862235 -1.5707963268305387 1.286141167411703 3499.5140000000415
2.8820834537197615 -1.3725317978606393 1.6744516381028551 -1.8727161670787518 -1.570796326822764 1.3112871269286268 3499.5640000000417
2.9109336545806497 -1.370409594923097 1.6716704379816953 -1.872057169900123 -1.570796326813844 1.3401373277906452 3499.614000000042
2.9435028582312093 -1.368013824439768 1.6685307207375837 -1.8713132231449718 -1.5707963268037741 1.3727065314424807 3499.664000000042
2.9797635246626304 -1.3653465122366724 1.6650351412662765 -1.87048495588303 -1.570796326792563 1.4089671978753227 3499.7140000000422
3.0196484562534174 -1.3624126013293 1.66119017751342 -1.8695739030444425 -1.5707963267802314 1.4488521294676724 3499.7640000000424
3.063053441610234 -1.3592197574433118 1.657005875604556 -1.868582445029072 -1.5707963267668115 1.4922571148261896 3499.8140000000426
3.1098398994087497 -1.3557781745352422 1.6524955949751314 -1.867513747315807 -1.570796326752346 1.5390435726265383 3499.864000000043
3.1598375222344846 -1.3521003803132008 1.647675753500504 -1.866371700071866 -1.5707963267368876 1.589041195454232 3499.914000000043
3.2128469204236563 -1.3482010417575752 1.6425655726259505 -1.8651608577621044 -1.570796326720498 1.6420505936454803 3499.964000000043
3.268642265904024 -1.3440967706417317 1.637186822496674 -1.863886378758319 -1.5707963267032472 1.6978459391280343 3500.0140000000433
3.3269739360357367 -1.339805929052719 1.6315635670878108 -1.8625539649485547 -1.570796326685212 1.7561776092620323 3500.0640000000435
3.387571157452176 -1.3353484349119689 1.6257219093344386 -1.8611698013464106 -1.5707963266664766 1.816774830680846 3500.1140000000437
3.450144649900805 -1.3307455674959991 1.6196897362615832 -1.8597404957003445 -1.57079632664713 1.8793483231319263 3500.164000000044
3.5143892700840107 -1.3260197729571153 1.6134964641142258 -1.8582730181029798 -1.5707963266272666 1.9435929433176486 3500.214000000044
3.579986655499952 -1.3211944698441123 1.6071727834873115 -1.8567746406004109 -1.5707963266069853 2.0091903287361603 3500.2640000000442
3.6466078682834056 -1.3162938546229772 1.600750404455755 -1.8552528768015093 -1.5707963265863871 2.075811541522224 3500.3140000000444
3.71391603904661 -1.3113427071975905 1.5942618017044496 -1.853715421487229 -1.5707963265655767 2.1431197122880654 3500.3640000000446
3.781569010720113 -1.3063661964304292 1.5877399596582733 -1.8521700902199119 -1.5707963265446598 2.210772683964219 3500.414000000045
3.8492219823936153 -1.301389685663268 1.5812181176120972 -1.8506247589525948 -1.5707963265237428 2.2784256556403717 3500.464000000045
3.916530153156821 -1.2964385382378814 1.5747295148607916 -1.8490873036383144 -1.5707963265029323 2.345733826406214 3500.514000000045
3.983151365940274 -1.2915379230167463 1.5683071358292353 -1.8475655398394129 -1.5707963264823341 2.4123550391922777 3500.5640000000453
4.048748751356215 -1.286712619903743 1.5619834552023208 -1.8460671623368439 -1.5707963264620528 2.477952424610789 3500.6140000000455
4.112993371539421 -1.2819868253648592 1.5557901830549634 -1.8445996847394792 -1.5707963264421894 2.542197044796512 3500.6640000000457
4.17556686398805 -1.2773839579488897 1.549758009982108 -1.843170379093413 -1.5707963264228428 2.604770537247592 3500.714000000046
4.236164085404489 -1.2729264638081397 1.5439163522287358 -1.841786215491269 -1.5707963264041074 2.6653677586664055 3500.764000000046
4.294495755536202 -1.2686356222191268 1.5382930968198727 -1.8404538016815046 -1.5707963263860723 2.723699428800403 3500.8140000000462
4.350291101016569 -1.2645313511032834 1.5329143466905961 -1.8391793226777193 -1.5707963263688214 2.7794947742829565 3500.8640000000464
4.403300499205742 -1.2606320125476576 1.5278041658160426 -1.8379684803679577 -1.5707963263524318 2.8325041724742066 3500.9140000000466
4.453298122031476 -1.2569542183256164 1.5229843243414152 -1.8368264331240167 -1.5707963263369735 2.8825017953018994 3500.964000000047
4.500084579829992 -1.2535126354175465 1.5184740437119906 -1.8357577354107517 -1.570796326322508 2.929288253102249 3501.014000000047
4.543489565186809 -1.2503197915315585 1.5142897418031267 -1.8347662773953812 -1.570796326309088 2.9726932384607645 3501.064000000047
4.583374496777596 -1.247385880624186 1.51044477805027 -1.8338552245567934 -1.5707963262967564 3.012578170053115 3501.1140000000473
4.619635163209018 -1.2447185684210906 1.5069491985789631 -1.8330269572948519 -1.5707963262855453 3.048838836485957 3501.1640000000475
4.652204366859578 -1.2423227979377613 1.5038094813348513 -1.8322830105397008 -1.5707963262754754 3.0814080401377932 3501.2140000000477
4.681054567720465 -1.2402005950002193 1.5010282812136915 -1.831624013361072 -1.5707963262665554 3.1102582409998103 3501.264000000048
4.706200527236406 -1.2383508737657167 1.4986041751913577 -1.8310496285775888 -1.5707963262587807 3.135404200516736 3501.314000000048
4.727701952146492 -1.236769242243442 1.4965314074538507 -1.8305584923660743 -1.570796326252133 3.156905625427666 3501.3640000000482
4.7456661383250545 -1.23544780781522 1.494799634527303 -1.8301481538708546 -1.5707963262465787 3.1748698116069316 3501.4140000000484
4.760250614622481 -1.234374982756214 1.4933936704079873 -1.8298150148130667 -1.5707963262420694 3.1894542879049297 3501.4640000000486
4.771665786706082 -1.2335352897556286 1.4922932316923245 -1.829554269099963 -1.5707963262385403 3.2008694599889784 3501.514000000049
4.780177580900919 -1.232909167437412 1.4914726827068907 -1.8293598424342177 -1.5707963262359086 3.209381254184147 3501.564000000049
4.786110088030668 -1.2324727758809564 1.4909007806384234 -1.829224331923232 -1.5707963262340743 3.215313761314127 3501.614000000049
4.789848207258452 -1.2321978021418014 1.4905404206638304 -1.8291389456884404 -1.5707963262329185 3.2190518805420605 3501.6640000000493
4.791840289927702 -1.2320512657723357 1.4903483810801967 -1.8290934424746168 -1.5707963262323026 3.221043963211389 3501.7140000000495
4.792600783402977 -1.2319953243424997 1.4902750684347918 -1.8290760712591791 -1.5707963262320674 3.2218044566866895 3501.7640000000497
4.792712874910832 -1.231987078960487 1.490264262655077 -1.8290735108614966 -1.5707963262320328 3.2219165481945513 3501.81400000005
4.79271287491083 -1.2319870789604872 1.490264262655077 -1.8290735108614966 -1.5707963262320328 3.2219165481945513 3501.86400000005
4.7927128719062475 -1.2317461406862398 1.4907370861393292 -1.8297872726497604 -1.5707963264051383 3.221916545187215 3501.9140000000502
4.792712853502325 -1.2302703251521823 1.493633264611206 -1.83415926683801 -1.5707963274654595 3.221916526766426 3501.9640000000504
4.792712810972769 -1.2268598685777556 1.500326032563695 -1.8442624917862367 -1.5707963299157517 3.2219164841978922 3502.0140000000506
4.792712741751023 -1.2213089580863246 1.5112192824947333 -1.8607066528944387 -1.570796333903884 3.221916414912706 3502.064000000051
4.79271264819832 -1.2138069415243935 1.525941433306219 -1.8829308211946179 -1.5707963392938167 3.2219163212742634 3502.114000000051
4.792712536371734 -1.2048395372808212 1.543539298703019 -1.90949609194278 -1.5707963457365788 3.2219162093451894 3502.164000000051
4.792712414792231 -1.1950900441060357 1.5626719555919815 -1.9383782432109329 -1.5707963527412439 3.2219160876542614 3502.2140000000513
4.792712293212728 -1.1853405509312505 1.581804612480944 -1.9672603944790856 -1.5707963597459087 3.2219159659633334 3502.2640000000515
4.7927121813861415 -1.1763731466876781 1.599402477877744 -1.9938256652272477 -1.5707963661886708 3.2219158540342594 3502.3140000000517
4.792712087833438 -1.168871130125747 1.6141246286892297 -2.016049833527427 -1.5707963715786035 3.2219157603958166 3502.364000000052
4.7927120186116925 -1.163320219634316 1.625017878620268 -2.0324939946356286 -1.5707963755667358 3.2219156911106306 3502.414000000052
4.792711976082137 -1.1599097630598894 1.6317106465727569 -2.0425972195838558 -1.570796378017028 3.221915648542097 3502.4640000000522
4.792711957678214 -1.1584339475258318 1.6346068250446337 -2.0469692137721047 -1.5707963790773491 3.2219156301213077 3502.5140000000524
4.792711954673631 -1.1581930092515844 1.6350796485288859 -2.0476829755603685 -1.5707963792504547 3.2219156271139715 3502.5640000000526
4.792711954673631 -1.1581930092515844 1.6350796485288859 -2.0476829755603685 -1.5707963792504547 3.2219156271139715 3502.614000000053
4.792711954673631 -1.1581930092515844 1.6350796485288859 -2.0476829755603685 -1.5707963792504547 3.2219156271139715 3502.664000000053
4.792711954673631 -1.1581930092515844 1.6350796485288859 -2.0476829755603685 -1.5707963792504547 3.2219156271139715 3502.714000000053
4.792711954673631 -1.1581930092515844 1.6350796485288859 -2.0476829755603685 -1.5707963792504547 3.2219156271139715 3502.7640000000533
4.792711954673631 -1.1581930092515844 1.6350796485288859 -2.0476829755603685 -1.5707963792504547 3.2219156271139715 3502.8140000000535
4.792711954673631 -1.1581930092515844 1.6350796485288859 -2.0476829755603685 -1.5707963792504547 3.2219156271139715 3502.8640000000537
4.792711954673631 -1.1581930092515844 1.6350796485288859 -2.0476829755603685 -1.5707963792504547 3.2219156271139715 3502.914000000054
4.792711954673631 -1.1581930092515844 1.6350796485288859 -2.0476829755603685 -1.5707963792504547 3.2219156271139715 3502.964000000054
4.792711954673631 -1.1581930092515844 1.6350796485288859 -2.0476829755603685 -1.5707963792504547 3.2219156271139715 3503.0140000000542
4.792711954673631 -1.1581930092515844 1.6350796485288859 -2.0476829755603685 -1.5707963792504547 3.2219156271139715 3503.0640000000544
4.792711954673631 -1.1581930092515844 1.6350796485288859 -2.0476829755603685 -1.5707963792504547 3.2219156271139715 3503.1140000000546
4.792711954673631 -1.1581930092515844 1.6350796485288859 -2.0476829755603685 -1.5707963792504547 3.2219156271139715 3503.164000000055
4.792711954673631 -1.1581930092515844 1.6350796485288859 -2.0476829755603685 -1.5707963792504547 3.2219156271139715 3503.214000000055
4.792711954673631 -1.1581930092515844 1.6350796485288859 -2.047682975560369 -1.5707963792504547 3.2219156271139715 3503.264000000055
4.792711957678214 -1.1584339475258318 1.6346068250446337 -2.046969213772105 -1.5707963790773491 3.2219156301213077 3503.3140000000553
4.792711976082137 -1.1599097630598894 1.6317106465727569 -2.0425972195838558 -1.570796378017028 3.221915648542097 3503.3640000000555
4.7927120186116925 -1.1633202196343162 1.625017878620268 -2.0324939946356286 -1.5707963755667358 3.2219156911106306 3503.4140000000557
4.792712087833438 -1.168871130125747 1.6141246286892297 -2.016049833527427 -1.5707963715786035 3.2219157603958166 3503.464000000056
4.7927121813861415 -1.1763731466876781 1.599402477877744 -1.9938256652272477 -1.5707963661886708 3.2219158540342594 3503.514000000056
4.792712293212728 -1.1853405509312505 1.581804612480944 -1.9672603944790856 -1.5707963597459087 3.2219159659633334 3503.5640000000562
4.792712414792231 -1.1950900441060357 1.5626719555919815 -1.9383782432109329 -1.5707963527412439 3.2219160876542614 3503.6140000000564
4.792712536371734 -1.2048395372808212 1.543539298703019 -1.90949609194278 -1.5707963457365788 3.2219162093451894 3503.6640000000566
4.79271264819832 -1.2138069415243935 1.525941433306219 -1.8829308211946179 -1.5707963392938167 3.2219163212742634 3503.714000000057
4.792712741751023 -1.2213089580863246 1.5112192824947333 -1.8607066528944387 -1.570796333903884 3.221916414912706 3503.764000000057
4.792712810972769 -1.2268598685777556 1.500326032563695 -1.8442624917862367 -1.5707963299157517 3.2219164841978922 3503.814000000057
4.792712853502325 -1.2302703251521823 1.493633264611206 -1.83415926683801 -1.5707963274654595 3.221916526766426 3503.8640000000573
4.7927128719062475 -1.2317461406862398 1.4907370861393292 -1.8297872726497606 -1.5707963264051383 3.221916545187215 3503.9140000000575
4.79271287491083 -1.2319870789604872 1.490264262655077 -1.8290735108614968 -1.5707963262320328 3.2219165481945513 3503.9640000000577
4.79271287491083 -1.2319870789604872 1.490264262655077 -1.8290735108614966 -1.5707963262320328 3.2219165481945513 3504.014000000058
4.792580992446904 -1.2319966844521877 1.4902769043163377 -1.8290765470370545 -1.5707963262268931 3.2217846657310107 3504.064000000058
4.791688423419183 -1.232061693583294 1.4903624619785507 -1.8290970956087524 -1.5707963261921085 3.220892096705893 3504.1140000000582
4.789357027053365 -1.23223149787551 1.4905859391736536 -1.8291507686176642 -1.570796326101251 3.218560700346878 3504.1640000000584
4.784995426032725 -1.232549169544342 1.4910040226778318 -1.8292511806513634 -1.5707963259312734 3.2141990993389644 3504.2140000000586
4.778095391354046 -1.2330517248035235 1.4916654290430091 -1.8294100320711524 -1.5707963256623698 3.2072990646804183 3504.264000000059
4.768228227183552 -1.2337703871694408 1.4926112511283358 -1.8296371922392913 -1.570796325277833 3.1974319005387146 3504.314000000059
4.755041155712844 -1.2347308507655563 1.493875304631679 -1.8299407827462277 -1.5707963247639152 3.1842448291064844 3504.364000000059
4.738253702014836 -1.2359535436268356 1.4954844746211127 -1.8303272606378256 -1.5707963241096854 3.1674573754574595 3504.4140000000593
4.717654078899686 -1.2374538910041706 1.4974590620664068 -1.8308015016425945 -1.5707963233068902 3.1468577524024166 3504.4640000000595
4.693095571770735 -1.239242578668805 1.4998131303705171 -1.8313668833989185 -1.570796322349812 3.1222992453451224 3504.5140000000597
4.664492923480435 -1.2413258162167593 1.5025548519010752 -1.832025368682286 -1.5707963212351284 3.0936965971382797 3504.56400000006
4.631818719186289 -1.2437056003732558 1.5056868545218778 -1.8327775886325184 -1.5707963199617705 3.061022392939471 3504.61400000006
4.595099771206783 -1.246379978297143 1.5092065681243765 -1.8336229259809989 -1.5707963185307834 3.0243034450671047 3504.6640000000602
4.554413503877322 -1.249343310885321 1.5131065711591674 -1.8345595982779026 -1.5707963169451846 2.9836171778563587 3504.7140000000604
4.509884338406162 -1.2525865360771662 1.5173749371674807 -1.8355847411194255 -1.570796315209823 2.939088012515127 3504.7640000000606
4.461680077730347 -1.2560974321589562 1.5219955813126713 -1.836694491375013 -1.570796313331238 2.8908837519799637 3504.814000000061
4.410008291371641 -1.259860881068295 1.5269486069117066 -1.8378840704145893 -1.5707963113175187 2.839211965772027 3504.864000000061
4.355112700292466 -1.263859131698537 1.532210651966658 -1.8391478673357877 -1.5707963091781634 2.784316374853027 3504.914000000061
4.29726956175183 -1.268072063203213 1.5377552356961899 -1.8404795221911778 -1.5707963069239383 2.726473236481167 3504.9640000000613
4.236784054161269 -1.2724774483004546 1.5435531050670486 -1.8418720092154968 -1.5707963045667364 2.665987729067093 3505.0140000000615
4.173986661940779 -1.2770512165774188 1.5495725813255534 -1.8433177200528768 -1.5707963021194373 2.6031903370298335 3505.0640000000617
4.109229560374744 -1.2817677177947135 1.5557799065290852 -1.844808546984075 -1.5707962995957656 2.538433235652749 3505.114000000062
4.0428830004678815 -1.286599985190822 1.5621395900775765 -1.8463359661537029 -1.5707962970101506 2.4720866759394737 3505.164000000062
3.975331693801169 -1.291519998786528 1.5686147552450016 -1.8478911207974553 -1.570796294377585 2.4045353694698637 3505.2140000000622
3.9069711973877794 -1.2964989486893403 1.575167485710865 -1.8494649044693392 -1.5707962917134843 2.3361748732559384 3505.2640000000624
3.8382042985290195 -1.3015074983979185 1.5817591720916928 -1.8510480442689037 -1.5707962890335454 2.2674079745978277 3505.3140000000626
3.7694373996702595 -1.3065160481064966 1.5883508584725206 -1.8526311840684682 -1.5707962863536065 2.1986410759397175 3505.364000000063
3.7010769032568698 -1.311494998009309 1.594903588938384 -1.854204967740352 -1.5707962836895057 2.1302805797257918 3505.414000000063
3.6335255965901574 -1.3164150116050148 1.601378754105809 -1.8557601223841045 -1.5707962810569402 2.0627292732561817 3505.464000000063
3.5671790366832945 -1.3212472790011234 1.6077384376543005 -1.8572875415537324 -1.5707962784713252 1.9963827135429069 3505.5140000000633
3.502421935117261 -1.325963780218418 1.6139457628578322 -1.8587783684849306 -1.5707962759476535 1.9316256121658228 3505.5640000000635
3.4396245428967696 -1.3305375484953823 1.619965239116337 -1.8602240793223106 -1.5707962735003544 1.8688282201285629 3505.6140000000637
3.379139035306209 -1.334942933592624 1.6257631084871957 -1.8616165663466295 -1.5707962711431525 1.8083427127144893 3505.664000000064
3.321295896765573 -1.3391558650973001 1.6313076922167276 -1.8629482212020196 -1.5707962688889274 1.7504995743426286 3505.714000000064
3.266400305686397 -1.343154115727542 1.636569737271679 -1.864212018123218 -1.570796266749572 1.6956039834236283 3505.7640000000642
3.2147285193276915 -1.3469175646368807 1.6415227628707143 -1.8654015971627944 -1.5707962647358529 1.6439321972156917 3505.8140000000644
3.1665242586518776 -1.3504284607186707 1.646143407015905 -1.8665113474183819 -1.5707962628572678 1.5957279366805288 3505.8640000000646
3.1219950931807157 -1.353671685910516 1.6504117730242185 -1.8675364902599048 -1.5707962611219062 1.5511987713392967 3505.914000000065
3.0813088258512558 -1.356635018498694 1.6543117760590094 -1.8684731625568085 -1.5707962595363074 1.510512504128551 3505.964000000065
3.0445898778717515 -1.359309396422581 1.6578314896615078 -1.869318499905289 -1.5707962581053203 1.4737935562561864 3506.014000000065
3.011915673577605 -1.3616891805790774 1.6609634922823104 -1.870070719855521 -1.5707962568319624 1.4411193520573773 3506.0640000000653
2.983313025287304 -1.3637724181270319 1.6637052138128685 -1.8707292051388886 -1.5707962557172788 1.4125167038505337 3506.1140000000655
2.9587545181583517 -1.3655611057916661 1.666059282116979 -1.8712945868952129 -1.5707962547602006 1.3879581967932393 3506.1640000000657
2.9381548950432035 -1.367061453169001 1.6680338695622727 -1.8717688278999818 -1.5707962539574054 1.3673585737381972 3506.214000000066
2.921367441345197 -1.3682841460302804 1.6696430395517063 -1.8721553057915796 -1.5707962533031756 1.350571120089174 3506.264000000066
2.908180369874487 -1.3692446096263962 1.6709070930550498 -1.872458896298516 -1.5707962527892578 1.3373840486569422 3506.3140000000662
2.8983132057039915 -1.3699632719923134 1.6718529151403765 -1.872686056466655 -1.570796252404721 1.3275168845152374 3506.3640000000664
2.891413171025315 -1.370465827251495 1.6725143215055536 -1.8728449078864438 -1.5707962521358174 1.3206168498566946 3506.4140000000666
2.8870515700046724 -1.3707834989203271 1.6729324050097323 -1.8729453199201431 -1.5707962519658398 1.3162552488487769 3506.464000000067
2.884720173638856 -1.370953303212543 1.673155882204835 -1.872998992929055 -1.5707962518749823 1.3139238524897627 3506.514000000067
2.883827604611133 -1.371018312343649 1.6732414398670479 -1.873019541500753 -1.5707962518401977 1.313031283464647 3506.564000000067
2.883695722147209 -1.3710279178353497 1.6732540815283086 -1.8730225776763108 -1.570796251835058 1.312899401001106 3506.6140000000673
2.883695722147209 -1.3710279178353497 1.6732540815283086 -1.8730225776763108 -1.570796251835058 1.3128994010011041 3506.6640000000675
2.883695727867589 -1.3708014081473126 1.6736474373732717 -1.8736424429761573 -1.5707962520356238 1.312899406706375 3506.7140000000677
2.883695763246072 -1.3694005276985515 1.676080200922549 -1.8774760855322241 -1.5707962532760502 1.3128994419914117 3506.764000000068
2.88369584602682 -1.3661226615040178 1.6817725306317133 -1.8864462780619082 -1.5707962561784765 1.3128995245535093 3506.814000000068
2.8836959828005235 -1.3607068382835505 1.6911776282128341 -1.9012671932888139 -1.5707962609739827 1.3128996609659496 3506.8640000000682
2.8836961710323017 -1.3532534316064424 1.7041211853151157 -1.9216641493961704 -1.570796267573692 1.3128998487005468 3506.9140000000684
2.8836964010896087 -1.3441438610360055 1.7199408302055326 -1.946593355480248 -1.5707962756398712 1.312900078150198 3506.9640000000686
2.883696658270137 -1.3339602932741372 1.7376255744494675 -1.974461657003775 -1.5707962846570347 1.3129003346514299 3507.014000000069
2.883696924829723 -1.3234053433058863 1.7559552595913481 -2.0033462812493545 -1.5707962940030427 1.3129006005069466 3507.064000000069
2.8836971820102515 -1.313221775544018 1.773640003835283 -2.0312145827728814 -1.5707963030202061 1.3129008570081784 3507.114000000069
2.8836974120675585 -1.3041122049735812 1.7894596487257 -2.056143788856959 -1.5707963110863854 1.3129010864578297 3507.1640000000693
2.8836976002993366 -1.296658798296473 1.8024032058279813 -2.0765407449643156 -1.5707963176860946 1.3129012741924269 3507.2140000000695
2.88369773707304 -1.2912429750760057 1.8118083034091024 -2.0913616601912213 -1.5707963224816008 1.312901410604867 3507.2640000000697
2.883697819853788 -1.2879651088814719 1.8175006331182666 -2.1003318527209056 -1.5707963253840271 1.3129014931669647 3507.31400000007
2.883697855232271 -1.2865642284327108 1.819933396667544 -2.1041654952769724 -1.5707963266244536 1.3129015284520014 3507.36400000007
2.883697860952651 -1.2863377187446738 1.820326752512507 -2.1047853605768188 -1.5707963268250194 1.3129015341572723 3507.4140000000702
2.883697860952651 -1.2863377187446738 1.820326752512507 -2.1047853605768188 -1.5707963268250194 1.3129015341572723 3507.4640000000704
2.883697860952651 -1.2863377187446738 1.820326752512507 -2.1047853605768188 -1.5707963268250194 1.3129015341572723 3507.5140000000706
2.883697860952651 -1.2863377187446738 1.820326752512507 -2.1047853605768188 -1.5707963268250194 1.3129015341572723 3507.564000000071
2.883697860952651 -1.2863377187446738 1.820326752512507 -2.1047853605768188 -1.5707963268250194 1.3129015341572723 3507.614000000071
2.883697860952651 -1.2863377187446738 1.820326752512507 -2.1047853605768188 -1.5707963268250194 1.3129015341572723 3507.664000000071
2.883697860952651 -1.2863377187446738 1.820326752512507 -2.1047853605768188 -1.5707963268250194 1.3129015341572723 3507.7140000000713
2.883697855232271 -1.286564228432711 1.819933396667544 -2.1041654952769724 -1.5707963266244536 1.3129015284520014 3507.7640000000715
2.883697819853788 -1.287965108881472 1.8175006331182666 -2.100331852720905 -1.5707963253840271 1.3129014931669647 3507.8140000000717
2.88369773707304 -1.2912429750760057 1.8118083034091024 -2.0913616601912213 -1.5707963224816008 1.312901410604867 3507.864000000072
2.8836976002993366 -1.296658798296473 1.8024032058279815 -2.0765407449643156 -1.5707963176860946 1.3129012741924269 3507.914000000072
2.8836974120675585 -1.3041122049735812 1.7894596487257 -2.056143788856959 -1.5707963110863854 1.3129010864578297 3507.9640000000722
2.8836971820102515 -1.313221775544018 1.773640003835283 -2.0312145827728814 -1.5707963030202061 1.3129008570081784 3508.0140000000724
2.883696924829723 -1.3234053433058863 1.7559552595913481 -2.0033462812493545 -1.5707962940030427 1.3129006005069466 3508.0640000000726
2.883696658270137 -1.3339602932741372 1.7376255744494675 -1.974461657003775 -1.5707962846570347 1.3129003346514299 3508.114000000073
2.8836964010896087 -1.3441438610360055 1.7199408302055326 -1.9465933554802481 -1.5707962756398712 1.312900078150198 3508.164000000073
2.8836961710323017 -1.3532534316064424 1.7041211853151157 -1.9216641493961706 -1.570796267573692 1.3128998487005468 3508.214000000073
2.8836959828005235 -1.3607068382835505 1.6911776282128343 -1.901267193288814 -1.5707962609739827 1.3128996609659496 3508.2640000000733
2.88369584602682 -1.3661226615040178 1.6817725306317133 -1.886446278061908 -1.5707962561784765 1.3128995245535093 3508.3140000000735
2.883695763246072 -1.3694005276985517 1.676080200922549 -1.8774760855322241 -1.5707962532760502 1.3128994419914117 3508.3640000000737
2.883695727867589 -1.3708014081473126 1.6736474373732717 -1.8736424429761573 -1.5707962520356238 1.312899406706375 3508.414000000074
2.883695722147209 -1.3710279178353497 1.6732540815283086 -1.873022577676311 -1.570796251835058 1.3128994010011041 3508.464000000074
2.883695722147209 -1.3710279178353497 1.6732540815283086 -1.873022577676311 -1.570796251835058 1.3128994010011041 3508.5140000000742
2.883695722147209 -1.3710279178353497 1.6732540815283086 -1.873022577676311 -1.570796251835058 1.3128994010011041 3508.5640000000744
2.883695722147209 -1.3710279178353497 1.6732540815283086 -1.873022577676311 -1.570796251835058 1.3128994010011041 3508.6140000000746
2.883695722147209 -1.3710279178353497 1.6732540815283086 -1.873022577676311 -1.570796251835058 1.3128994010011041 3508.664000000075
2.883695722147209 -1.3710279178353497 1.6732540815283086 -1.873022577676311 -1.570796251835058 1.3128994010011041 3508.714000000075
2.883695722147209 -1.3710279178353497 1.6732540815283086 -1.873022577676311 -1.570796251835058 1.3128994010011041 3508.764000000075
2.883695722147209 -1.3710279178353497 1.6732540815283086 -1.873022577676311 -1.570796251835058 1.3128994010011041 3508.8140000000753
2.883695722147209 -1.3710279178353497 1.6732540815283086 -1.873022577676311 -1.570796251835058 1.3128994010011041 3508.8640000000755
2.883695722147209 -1.3710279178353497 1.6732540815283086 -1.873022577676311 -1.570796251835058 1.3128994010011041 3508.9140000000757
2.883695722147209 -1.3710279178353497 1.6732540815283086 -1.873022577676311 -1.570796251835058 1.3128994010011041 3508.964000000076
2.883695722147209 -1.3710279178353497 1.6732540815283086 -1.873022577676311 -1.570796251835058 1.3128994010011041 3509.014000000076
2.883695722147209 -1.3710279178353497 1.6732540815283086 -1.873022577676311 -1.570796251835058 1.3128994010011041 3509.0640000000762
2.883695722147209 -1.3710279178353497 1.6732540815283086 -1.873022577676311 -1.570796251835058 1.3128994010011041 3509.1140000000764
2.883695722147209 -1.3710279178353497 1.6732540815283086 -1.873022577676311 -1.570796251835058 1.3128994010011041 3509.1640000000766
2.883695722147209 -1.3710279178353497 1.6732540815283086 -1.873022577676311 -1.570796251835058 1.3128994010011041 3509.214000000077
2.883695722147209 -1.3710279178353497 1.6732540815283086 -1.873022577676311 -1.570796251835058 1.3128994010011041 3509.264000000077
2.883695722147209 -1.3710279178353497 1.6732540815283086 -1.873022577676311 -1.570796251835058 1.3128994010011041 3509.314000000077
2.883695722147209 -1.3710279178353497 1.6732540815283086 -1.873022577676311 -1.570796251835058 1.3128994010011041 3509.3640000000773
2.883695722147209 -1.3710279178353497 1.6732540815283086 -1.873022577676311 -1.570796251835058 1.3128994010011041 3509.4140000000775
2.883695722147209 -1.3710279178353497 1.6732540815283086 -1.873022577676311 -1.570796251835058 1.3128994010011041 3509.4640000000777
2.883695722147209 -1.3710279178353497 1.6732540815283086 -1.873022577676311 -1.570796251835058 1.3128994010011041 3509.514000000078
2.883695722147209 -1.3710279178353497 1.6732540815283086 -1.873022577676311 -1.570796251835058 1.3128994010011041 3509.564000000078
2.883695722147209 -1.3710279178353497 1.6732540815283086 -1.873022577676311 -1.570796251835058 1.3128994010011041 3509.6140000000782
2.883695722147209 -1.3710279178353497 1.6732540815283086 -1.873022577676311 -1.570796251835058 1.3128994010011041 3509.6640000000784
2.883695722147209 -1.3710279178353497 1.6732540815283086 -1.873022577676311 -1.570796251835058 1.3128994010011041 3509.7140000000786
2.883695722147209 -1.3710279178353497 1.6732540815283086 -1.873022577676311 -1.570796251835058 1.3128994010011041 3509.764000000079
2.883695722147209 -1.3710279178353497 1.6732540815283086 -1.873022577676311 -1.570796251835058 1.3128994010011041 3509.814000000079
2.883695722147209 -1.3710279178353497 1.6732540815283086 -1.873022577676311 -1.570796251835058 1.3128994010011041 3509.864000000079
2.883695722147209 -1.3710279178353497 1.6732540815283086 -1.873022577676311 -1.570796251835058 1.3128994010011041 3509.9140000000793
2.883695722147209 -1.3710279178353497 1.6732540815283086 -1.873022577676311 -1.570796251835058 1.3128994010011041 3509.9640000000795
2.883695722147209 -1.3710279178353497 1.6732540815283086 -1.873022577676311 -1.570796251835058 1.3128994010011041 3510.0140000000797
2.883695722147209 -1.3710279178353497 1.6732540815283086 -1.873022577676311 -1.570796251835058 1.3128994010011041 3510.06400000008
2.883695722147209 -1.3710279178353497 1.6732540815283086 -1.8730225776763108 -1.570796251835058 1.3128994010011041 3510.11400000008
2.8838588108762226 -1.371045567504979 1.6732741936208189 -1.8730250400899466 -1.5707962518430025 1.313062489729519 3510.1640000000803
2.8849566551364756 -1.3711643776067872 1.6734095797106958 -1.8730416160157808 -1.5707962518964815 1.3141603339857413 3510.2140000000804
2.887806322713895 -1.3714727722555096 1.6737610005494463 -1.8730846420442673 -1.5707962520352965 1.3170100015526982 3510.2640000000806
2.893101946424782 -1.3720458713871506 1.6744140565553234 -1.8731645986183054 -1.5707962522932604 1.3223056252441423 3510.314000000081
2.901420720943598 -1.3729461397433125 1.675439927341777 -1.8732902005770231 -1.5707962526984902 1.3306243997324168 3510.364000000081
2.913228899630754 -1.374224035855523 1.6768961112459062 -1.8734684876995606 -1.5707962532736983 1.3424325783762194 3510.414000000081
2.9288877913603932 -1.3759186610295642 1.678827164856909 -1.8737049152488523 -1.570796254036485 1.3580914700483677 3510.4640000000813
2.94865975734818 -1.3780584083298006 1.6812654425445357 -1.874003444515411 -1.5707962549996306 1.3778634359635629 3510.5140000000815
2.9727142079790867 -1.3806616115635078 1.6842318359875392 -1.8743666333611106 -1.5707962561713875 1.401917886506155 3510.5640000000817
3.001133599635179 -1.3837371942652001 1.6877365137021265 -1.8747957267629696 -1.5707962575557723 1.4303372780579071 3510.614000000082
3.033919431523404 -1.3872853186809597 1.6917796605704107 -1.8752907473569334 -1.5707962591528584 1.4631231098257607 3510.664000000082
3.070998242503376 -1.3912980347527646 1.6963522173688617 -1.8758505859816588 -1.5707962609590669 1.5002019206695991 3510.7140000000823
3.1122276079151616 -1.3957599291028169 1.7014366202967577 -1.8764730922222959 -1.5707962629674599 1.5414312859300134 3510.7640000000824
3.15740213640707 -1.400648774017871 1.7070075405046379 -1.8771551649542717 -1.5707962651680325 1.5866058142560655 3510.8140000000826
3.2062594667634357 -1.4059361764335625 1.7130326236227515 -1.8778928428870736 -1.5707962675480043 1.6354631444330545 3510.864000000083
3.258486264732409 -1.411588226918736 1.719473229289512 -1.8786813951080323 -1.5707962700921119 1.6876899422102793 3510.914000000083
3.313724219853738 -1.4175661486597735 1.7262851706799465 -1.8795154116261044 -1.570796272782901 1.7429278971288054 3510.964000000083
3.3715760422865606 -1.4238269464449234 1.7334194540341474 -1.8803888939156561 -1.5707962756010188 1.8007797193492279 3511.0140000000833
3.431611459637186 -1.430324055648627 1.740823018185725 -1.881295345460247 -1.5707962785255052 1.8608151364794359 3511.0640000000835
3.4933732137868843 -1.4370079912158498 1.7484394740902576 -1.8822278622964117 -1.5707962815340861 1.9225768904023794 3511.1140000000837
3.556383057719673 -1.4438269966464066 1.756209844353744 -1.8831792235574443 -1.5707962846034649 1.9855867341038307 3511.164000000084
3.6201477523501024 -1.4507276929792923 1.7640733027610538 -1.8841419820171805 -1.5707962877096144 2.049351428500151 3511.214000000084
3.684165063351043 -1.4576557277770092 1.7719679138043802 -1.885108554633782 -1.5707962908280695 2.1133687392660554 3511.2640000000843
3.7479297579814723 -1.464556424109895 1.77983137221169 -1.8860713130935183 -1.570796293934219 2.1771334336623758 3511.3140000000844
3.8109396019142614 -1.4713754295404518 1.7876017424751764 -1.8870226743545508 -1.5707962970035978 2.2401432773638277 3511.3640000000846
3.87270135606396 -1.4780593651076745 1.795218198379709 -1.8879551911907155 -1.5707963000121787 2.3019050312867706 3511.414000000085
3.932736773414584 -1.4845564743113782 1.8026217625312866 -1.8888616427353064 -1.5707963029366652 2.361940448416978 3511.464000000085
3.9905885958474068 -1.4908172720965278 1.8097560458854876 -1.8897351250248584 -1.570796305754783 2.419792270637401 3511.514000000085
4.045826550968736 -1.4967951938375654 1.816567987275922 -1.8905691415429302 -1.570796308445572 2.475030225555927 3511.5640000000853
4.098053348937709 -1.502447244322739 1.8230085929426825 -1.891357693763889 -1.5707963109896796 2.527257023333152 3511.6140000000855
4.146910679294075 -1.5077346467384305 1.8290336760607961 -1.8920953716966908 -1.5707963133696514 2.5761143535101407 3511.6640000000857
4.1920852077859845 -1.5126234916534846 1.8346045962686763 -1.8927774444286667 -1.570796315570224 2.6212888818361932 3511.714000000086
4.23331457319777 -1.517085386003537 1.8396889991965726 -1.8933999506693038 -1.570796317578617 2.662518247096607 3511.764000000086
4.270393384177741 -1.5210981020753418 1.8442615559950233 -1.8939597892940292 -1.5707963193848256 2.699597057940446 3511.8140000000863
4.303179216065967 -1.5246462264911014 1.8483047028633075 -1.894454809887993 -1.5707963209819116 2.7323828897083002 3511.8640000000864
4.33159860772206 -1.5277218091927938 1.8518093805778948 -1.894883903289852 -1.5707963223662964 2.7608022812600526 3511.9140000000866
4.355653058352965 -1.5303250124265009 1.8547757740208983 -1.8952470921355515 -1.5707963235380533 2.7848567318026434 3511.964000000087
4.375425024340752 -1.5324647597267373 1.857214051708525 -1.8955456214021102 -1.5707963245011989 2.8046286977178383 3512.014000000087
4.391083916070393 -1.5341593849007786 1.859145105319528 -1.895782048951402 -1.5707963252639856 2.8202875893899875 3512.064000000087
4.402892094757549 -1.5354372810129893 1.8606012892236572 -1.8959603360739394 -1.5707963258391937 2.832095768033791 3512.1140000000873
4.4112108692763625 -1.536337549369151 1.8616271600101109 -1.8960859380326571 -1.5707963262444236 2.8404145425220637 3512.1640000000875
4.41650649298725 -1.536910648500792 1.862280216015988 -1.8961658946066953 -1.5707963265023874 2.8457101662135083 3512.2140000000877
4.4193561605646705 -1.537219043149514 1.8626316368547382 -1.8962089206351818 -1.5707963266412024 2.8485598337804645 3512.264000000088
4.420454004824922 -1.5373378532513222 1.862767022944615 -1.896225496561016 -1.5707963266946814 2.849657678036687 3512.314000000088
4.420617093553936 -1.5373555029209518 1.8627871350371255 -1.8962279589746518 -1.570796326702626 2.8498207667651023 3512.3640000000883
4.420617093553936 -1.5373555029209518 1.8627871350371255 -1.8962279589746518 -1.570796326702626 2.8498207667651023 3512.4140000000884
4.420617093508544 -1.5370986896781664 1.8632025402836998 -1.8969001774701757 -1.5707963266981555 2.849820766720002 3512.4640000000886
4.420617093227808 -1.5355103927098617 1.8657716714024684 -1.9010576055953725 -1.5707963266705074 2.8498207664410713 3512.514000000089
4.420617092570923 -1.5317939978212822 1.8717830823340607 -1.910785411504748 -1.5707963266058145 2.849820765788412 3512.564000000089
4.4206170914855925 -1.5256536197400903 1.881715378827853 -1.926858086227118 -1.5707963264989264 2.849820764710062 3512.614000000089
4.42061708999193 -1.5172030604941085 1.8953844817494696 -1.9489777485975532 -1.5707963263518239 2.8498207632260075 3512.6640000000893
4.420617088166373 -1.5068747677890606 1.9120908903882836 -1.9760124501893226 -1.570796326172035 2.849820761412192 3512.7140000000895
4.420617086125587 -1.4953287933863155 1.9307669457649166 -2.0062344802458356 -1.5707963259710493 2.849820759384532 3512.7640000000897
4.420617084010376 -1.4833617514806283 1.950124093938739 -2.037558670612587 -1.570796325762734 2.849820757282926 3512.81400000009
4.420617081969589 -1.4718157770778832 1.968800149315372 -2.0677807006691 -1.5707963255617483 2.8498207552552657 3512.86400000009
4.420617080144032 -1.4614874843728354 1.985506557954186 -2.094815402260869 -1.5707963253819595 2.8498207534414504 3512.9140000000903
4.42061707865037 -1.4530369251268536 1.9991756608758027 -2.1169350646313045 -1.570796325234857 2.8498207519573957 3512.9640000000904
4.420617077565039 -1.4468965470456616 2.0091079573695954 -2.133007739353675 -1.5707963251279689 2.849820750879046 3513.0140000000906
4.4206170769081545 -1.4431801521570822 2.015119368301187 -2.1427355452630503 -1.570796325063276 2.8498207502263866 3513.064000000091
4.420617076627418 -1.4415918551887774 2.0176884994199558 -2.146892973388247 -1.5707963250356278 2.849820749947456 3513.114000000091
4.420617076582026 -1.441335041945992 2.01810390466653 -2.147565191883771 -1.5707963250311574 2.8498207499023556 3513.164000000091
4.420617076582026 -1.441335041945992 2.01810390466653 -2.147565191883771 -1.5707963250311574 2.8498207499023556 3513.2140000000913
4.420617076582026 -1.441335041945992 2.01810390466653 -2.147565191883771 -1.5707963250311574 2.8498207499023556 3513.2640000000915
4.420617076582026 -1.441335041945992 2.01810390466653 -2.147565191883771 -1.5707963250311574 2.8498207499023556 3513.3140000000917
4.420617076582026 -1.441335041945992 2.01810390466653 -2.147565191883771 -1.5707963250311574 2.8498207499023556 3513.364000000092
4.420617076582026 -1.441335041945992 2.01810390466653 -2.147565191883771 -1.5707963250311574 2.8498207499023556 3513.414000000092
4.420617076582026 -1.441335041945992 2.01810390466653 -2.147565191883771 -1.5707963250311574 2.8498207499023556 3513.4640000000923
4.420617076582026 -1.441335041945992 2.01810390466653 -2.147565191883771 -1.5707963250311574 2.8498207499023556 3513.5140000000924
4.420617076582026 -1.441335041945992 2.01810390466653 -2.147565191883771 -1.5707963250311574 2.8498207499023556 3513.5640000000926
4.420617076582026 -1.441335041945992 2.01810390466653 -2.147565191883771 -1.5707963250311574 2.8498207499023556 3513.614000000093
4.420617076582026 -1.441335041945992 2.01810390466653 -2.147565191883771 -1.5707963250311574 2.8498207499023556 3513.664000000093
4.420617076582026 -1.441335041945992 2.01810390466653 -2.147565191883771 -1.5707963250311574 2.8498207499023556 3513.714000000093
4.420617076582026 -1.441335041945992 2.01810390466653 -2.147565191883771 -1.5707963250311574 2.8498207499023556 3513.7640000000933
4.420617076582026 -1.441335041945992 2.01810390466653 -2.147565191883771 -1.5707963250311574 2.8498207499023556 3513.8140000000935
4.420617076582026 -1.441335041945992 2.01810390466653 -2.147565191883771 -1.5707963250311574 2.8498207499023556 3513.8640000000937
4.420617076627418 -1.4415918551887774 2.0176884994199558 -2.146892973388247 -1.5707963250356278 2.849820749947456 3513.914000000094
4.4206170769081545 -1.4431801521570822 2.015119368301187 -2.14273554526305 -1.570796325063276 2.8498207502263866 3513.964000000094
4.420617077565039 -1.4468965470456616 2.009107957369595 -2.133007739353675 -1.5707963251279689 2.849820750879046 3514.0140000000943
4.42061707865037 -1.4530369251268536 1.9991756608758027 -2.1169350646313045 -1.570796325234857 2.8498207519573957 3514.0640000000944
4.420617080144032 -1.4614874843728354 1.985506557954186 -2.094815402260869 -1.5707963253819595 2.8498207534414504 3514.1140000000946
4.420617081969589 -1.4718157770778832 1.968800149315372 -2.0677807006691 -1.5707963255617483 2.8498207552552657 3514.164000000095
4.420617084010376 -1.4833617514806283 1.950124093938739 -2.037558670612587 -1.570796325762734 2.849820757282926 3514.214000000095
4.420617086125587 -1.4953287933863155 1.9307669457649166 -2.0062344802458356 -1.5707963259710493 2.849820759384532 3514.264000000095
4.420617088166373 -1.5068747677890606 1.9120908903882836 -1.9760124501893226 -1.570796326172035 2.849820761412192 3514.3140000000953
4.42061708999193 -1.5172030604941085 1.8953844817494696 -1.9489777485975535 -1.5707963263518239 2.8498207632260075 3514.3640000000955
4.4206170914855925 -1.5256536197400903 1.881715378827853 -1.926858086227118 -1.5707963264989264 2.849820764710062 3514.4140000000957
4.420617092570923 -1.5317939978212822 1.8717830823340604 -1.9107854115047478 -1.5707963266058145 2.849820765788412 3514.464000000096
4.420617093227808 -1.5355103927098617 1.8657716714024681 -1.9010576055953723 -1.5707963266705074 2.8498207664410713 3514.514000000096
4.420617093508544 -1.5370986896781664 1.8632025402836996 -1.8969001774701757 -1.5707963266981555 2.849820766720002 3514.5640000000963
4.420617093553936 -1.5373555029209518 1.8627871350371255 -1.8962279589746518 -1.570796326702626 2.8498207667651023 3514.6140000000964
4.420617093553936 -1.5373555029209518 1.8627871350371255 -1.8962279589746518 -1.570796326702626 2.8498207667651023 3514.6640000000966
4.42043197175839 -1.5373301928070717 1.862757875774113 -1.896224009825388 -1.5707963267028424 2.849635644969585 3514.714000000097
4.41918938413497 -1.5371603044686302 1.8625614796772492 -1.8961975020660833 -1.570796326704296 2.848393057346361 3514.764000000097
4.415974818569572 -1.5367208045151266 1.8620534043365184 -1.896128926676573 -1.570796326708056 2.845178491781468 3514.814000000097
4.410022591472013 -1.5359070076024806 1.861112630303706 -1.8960019495521798 -1.5707963267150187 2.839226264684845 3514.8640000000973
4.4007080146958275 -1.5346335054832194 1.8596404230417778 -1.895803244402898 -1.5707963267259142 2.8299116879101236 3514.9140000000975
4.387539562458059 -1.5328330960566672 1.8575590948742582 -1.895522325652579 -1.5707963267413176 2.816743235674425 3514.9640000000977
4.370151038259055 -1.5304557124191336 1.85481076693461 -1.895151381338116 -1.5707963267616574 2.799354711478155 3515.014000000098
4.348293741802261 -1.5274673519141009 1.8513561311156126 -1.8946851060086292 -1.5707963267872245 2.777497415024797 3515.064000000098
4.321828635914012 -1.523849005182414 1.847173212018741 -1.8941205336246503 -1.5707963268181815 2.751032309140708 3515.1140000000983
4.290718513463327 -1.519595585212468 1.842256128903545 -1.8934568704573076 -1.5707963268545717 2.7199221866949133 3515.1640000000984
4.255020164281702 -1.5147148563903967 1.836613857637028 -1.8926953279875105 -1.570796326896329 2.6842238375189003 3515.2140000000986
4.214876542082906 -1.5092263635502612 1.830268992643025 -1.8918389558051347 -1.570796326943286 2.644080215326415 3515.264000000099
4.170508931382772 -1.5031603610242383 1.8232565088515826 -1.8908924745082079 -1.5707963269951841 2.5997126046332557 3515.314000000099
4.1222091144189905 -1.496556741692809 1.8156225236483379 -1.8898621086020924 -1.5707963270516816 2.551412787677067 3515.364000000099
4.070331538070905 -1.4894639660349462 1.8074230588238964 -1.8887554193986726 -1.5707963271123642 2.499535211337136 3515.4140000000993
4.015285480779301 -1.4819379911783048 1.7987228025232118 -1.8875811379155385 -1.570796327176753 2.4444891540541867 3515.4640000000995
3.9575272194662086 -1.4740411999494083 1.7895938711949642 -1.8863489977751702 -1.5707963272443144 2.3867308927501734 3515.5140000000997
3.897552196454685 -1.4658413299238384 1.7801145715409397 -1.885069568104124 -1.570796327314469 2.3267558697480784 3515.5640000001
3.835887186388616 -1.4574104024764232 1.7703681624654082 -1.8837540864322166 -1.5707963273866001 2.2650908596917034 3515.6140000001
3.7730824631525057 -1.4488236518314246 1.7604416170245036 -1.8824142915917097 -1.5707963274600645 2.2022861364654656 3515.6640000001003
3.7097039667912712 -1.440158454112729 1.7504243843756022 -1.8810622566164956 -1.5707963275341998 2.1389076401141947 3515.7140000001004
3.646325470430037 -1.4314932563940332 1.7404071517267008 -1.8797102216412813 -1.5707963276083354 2.0755291437629237 3515.7640000001006
3.5835207471939263 -1.4229065057490349 1.7304806062857963 -1.8783704268007746 -1.5707963276817998 2.0127244205366863 3515.814000000101
3.5218557371278574 -1.4144755783016194 1.7207341972102648 -1.877054945128867 -1.570796327753931 1.951059410480311 3515.864000000101
3.461880714116334 -1.4062757082760495 1.7112548975562403 -1.8757755154578208 -1.5707963278240855 1.8910843874782162 3515.914000000101
3.4041224528032408 -1.398378917047153 1.7021259662279926 -1.8745433753174527 -1.5707963278916468 1.8333261261742024 3515.9640000001014
3.3490763955116387 -1.3908529421905116 1.693425709927308 -1.8733690938343184 -1.5707963279560357 1.778280068891253 3516.0140000001015
3.2971988191635524 -1.383760166532649 1.6852262451028666 -1.8722624046308987 -1.5707963280167183 1.7264024925513224 3516.0640000001017
3.2488990021997703 -1.3771565472012197 1.6775922598996218 -1.8712320387247832 -1.5707963280732158 1.6781026755951336 3516.114000000102
3.2045313914996356 -1.3710905446751966 1.6705797761081795 -1.8702855574278563 -1.5707963281251138 1.6337350649019737 3516.164000000102
3.1643877693008395 -1.3656020518350611 1.6642349111141765 -1.8694291852454805 -1.570796328172071 1.5935914427094884 3516.2140000001023
3.1286894201192155 -1.36072132301299 1.6585926398476594 -1.8686676427756834 -1.5707963282138282 1.5578930935334765 3516.2640000001024
3.0975792976685295 -1.356467903043044 1.6536755567324635 -1.8680039796083407 -1.5707963282502184 1.5267829710876808 3516.3140000001026
3.071114191780281 -1.352849556311357 1.649492637635592 -1.8674394072243619 -1.5707963282811754 1.500317865203592 3516.364000000103
3.0492568953234866 -1.3498611958063245 1.6460380018165943 -1.866973131894875 -1.5707963283067425 1.478460568750234 3516.414000000103
3.0318683711244825 -1.3474838121687907 1.6432896738769462 -1.866602187580412 -1.5707963283270823 1.4610720445539631 3516.464000000103
3.018699918886714 -1.3456834027422386 1.6412083457094266 -1.866321268830093 -1.5707963283424857 1.4479035923182657 3516.5140000001034
3.009385342110529 -1.3444099006229777 1.6397361384474989 -1.8661225636808112 -1.5707963283533812 1.4385890155435455 3516.5640000001035
3.0034331150129683 -1.3435961037103312 1.6387953644146862 -1.865995586556418 -1.5707963283603439 1.4326367884469204 3516.6140000001037
3.000218549447572 -1.3431566037568279 1.6382872890739553 -1.8659270111669077 -1.570796328364104 1.4294222228820284 3516.664000000104
2.99897596182415 -1.3429867154183863 1.6380908929770914 -1.865900503407603 -1.5707963283655575 1.4281796352588032 3516.714000000104
2.9987908400286045 -1.3429614053045063 1.638061633714079 -1.8658965542583392 -1.570796328365774 1.427994513463286 3516.7640000001043
2.9987908400286063 -1.342961405304506 1.638061633714079 -1.8658965542583392 -1.570796328365774 1.427994513463287 3516.8140000001044
2.9987908375813794 -1.3427405478580317 1.6384527923103132 -1.8665085704197473 -1.570796328244215 1.427994511023567 3516.8640000001046
2.998790822446168 -1.3413746244778415 1.640871966671366 -1.870293668895103 -1.570796327492416 1.4279944959347812 3516.914000000105
2.998790787031869 -1.338178552981371 1.6465324995625137 -1.8791502750004434 -1.5707963257333106 1.4279944606291126 3516.964000000105
2.998790728518931 -1.3328978742722388 1.6558850611537157 -1.8937835181388678 -1.5707963228268453 1.4279944022956577 3517.014000000105
2.998790647991797 -1.3256304572336688 1.6687563167642183 -1.9139221946937996 -1.570796318826887 1.4279943220155333 3517.0640000001054
2.998790549571351 -1.3167482036219098 1.6844875946071576 -1.9385357309222473 -1.570796313938129 1.427994223896983 3517.1140000001055
2.998790439547363 -1.306818752959659 1.7020735535341616 -1.9660511458480658 -1.5707963084729977 1.4279941142104835 3517.1640000001057
2.9987903255109356 -1.296527187429481 1.7203008507799544 -1.994570014155218 -1.5707963028085596 1.4279940005238523 3517.214000000106
2.9987902154869475 -1.2865977367672303 1.7378868097069584 -2.0220854290810366 -1.5707962973434284 1.4279938908373528 3517.264000000106
2.9987901170665014 -1.2777154831554713 1.7536180875498977 -2.046698965309484 -1.5707962924546703 1.4279937927188024 3517.3140000001063
2.9987900365393676 -1.2704480661169013 1.7664893431604003 -2.066837641864416 -1.570796288454712 1.4279937124386781 3517.3640000001064
2.9987899780264295 -1.2651673874077691 1.7758419047516023 -2.0814708850028403 -1.5707962855482467 1.4279936541052232 3517.4140000001066
2.9987899426121305 -1.2619713159112986 1.78150243764275 -2.090327491108181 -1.5707962837891414 1.4279936187995546 3517.464000000107
2.998789927476919 -1.2606053925311085 1.7839216120038028 -2.094112589583536 -1.5707962830373423 1.4279936037107688 3517.514000000107
2.9987899250296923 -1.260384535084634 1.784312770600037 -2.0947246057449442 -1.5707962829157833 1.4279936012710488 3517.564000000107
2.9987899250296923 -1.260384535084634 1.784312770600037 -2.0947246057449442 -1.5707962829157833 1.4279936012710488 3517.6140000001074
2.9987899250296923 -1.260384535084634 1.784312770600037 -2.0947246057449442 -1.5707962829157833 1.4279936012710488 3517.6640000001075
2.9987899250296923 -1.260384535084634 1.784312770600037 -2.0947246057449442 -1.5707962829157833 1.4279936012710488 3517.7140000001077
2.9987899250296923 -1.260384535084634 1.784312770600037 -2.0947246057449442 -1.5707962829157833 1.4279936012710488 3517.764000000108
2.9987899250296923 -1.260384535084634 1.784312770600037 -2.0947246057449442 -1.5707962829157833 1.4279936012710488 3517.814000000108
2.9987899250296923 -1.260384535084634 1.784312770600037 -2.0947246057449447 -1.5707962829157833 1.4279936012710488 3517.8640000001083
2.998789927476919 -1.2606053925311085 1.7839216120038028 -2.0941125895835366 -1.5707962830373423 1.4279936037107688 3517.9140000001084
2.9987899426121305 -1.2619713159112986 1.78150243764275 -2.0903274911081806 -1.5707962837891414 1.4279936187995546 3517.9640000001086
2.9987899780264295 -1.2651673874077691 1.7758419047516023 -2.0814708850028403 -1.5707962855482467 1.4279936541052232 3518.014000000109
2.9987900365393676 -1.2704480661169013 1.7664893431604003 -2.066837641864416 -1.570796288454712 1.4279937124386781 3518.064000000109
2.9987901170665014 -1.2777154831554713 1.7536180875498977 -2.0466989653094845 -1.5707962924546703 1.4279937927188024 3518.114000000109
2.9987902154869475 -1.2865977367672303 1.7378868097069584 -2.0220854290810366 -1.5707962973434284 1.4279938908373528 3518.1640000001094
2.9987903255109356 -1.296527187429481 1.7203008507799544 -1.994570014155218 -1.5707963028085596 1.4279940005238523 3518.2140000001095
2.998790439547363 -1.306818752959659 1.7020735535341616 -1.9660511458480658 -1.5707963084729977 1.4279941142104835 3518.2640000001097
2.998790549571351 -1.3167482036219098 1.6844875946071576 -1.9385357309222473 -1.570796313938129 1.427994223896983 3518.31400000011
2.998790647991797 -1.3256304572336686 1.6687563167642183 -1.9139221946937996 -1.570796318826887 1.4279943220155333 3518.36400000011
2.998790728518931 -1.3328978742722388 1.6558850611537157 -1.893783518138868 -1.5707963228268453 1.4279944022956577 3518.4140000001103
2.998790787031869 -1.338178552981371 1.6465324995625137 -1.8791502750004434 -1.5707963257333106 1.4279944606291126 3518.4640000001104
2.998790822446168 -1.3413746244778415 1.640871966671366 -1.8702936688951028 -1.570796327492416 1.4279944959347812 3518.5140000001106
2.9987908375813794 -1.3427405478580317 1.6384527923103132 -1.8665085704197475 -1.570796328244215 1.427994511023567 3518.564000000111
2.9987908400286063 -1.342961405304506 1.638061633714079 -1.8658965542583394 -1.570796328365774 1.427994513463287 3518.614000000111
2.9987908400286063 -1.342961405304506 1.638061633714079 -1.8658965542583394 -1.570796328365774 1.427994513463287 3518.664000000111
2.9987908400286063 -1.342961405304506 1.638061633714079 -1.8658965542583394 -1.570796328365774 1.427994513463287 3518.7140000001114
2.9987908400286063 -1.342961405304506 1.638061633714079 -1.8658965542583394 -1.570796328365774 1.427994513463287 3518.7640000001115
2.9987908400286063 -1.342961405304506 1.638061633714079 -1.8658965542583394 -1.570796328365774 1.427994513463287 3518.8140000001117
2.9987908400286063 -1.342961405304506 1.638061633714079 -1.8658965542583394 -1.570796328365774 1.427994513463287 3518.864000000112
2.9987908400286063 -1.342961405304506 1.638061633714079 -1.8658965542583394 -1.570796328365774 1.427994513463287 3518.914000000112
2.9987908400286063 -1.342961405304506 1.638061633714079 -1.8658965542583394 -1.570796328365774 1.427994513463287 3518.9640000001123
2.9987908400286063 -1.342961405304506 1.638061633714079 -1.8658965542583394 -1.570796328365774 1.427994513463287 3519.0140000001124
2.9987908400286063 -1.342961405304506 1.638061633714079 -1.8658965542583394 -1.570796328365774 1.427994513463287 3519.0640000001126
2.9987908400286063 -1.342961405304506 1.638061633714079 -1.8658965542583394 -1.570796328365774 1.427994513463287 3519.114000000113
2.9987908400286063 -1.342961405304506 1.638061633714079 -1.8658965542583394 -1.570796328365774 1.427994513463287 3519.164000000113
2.9987908400286063 -1.342961405304506 1.638061633714079 -1.8658965542583394 -1.570796328365774 1.427994513463287 3519.214000000113
2.9987908400286063 -1.342961405304506 1.638061633714079 -1.8658965542583394 -1.570796328365774 1.427994513463287 3519.2640000001134
2.9987908400286063 -1.342961405304506 1.638061633714079 -1.8658965542583394 -1.570796328365774 1.427994513463287 3519.3140000001135
2.9987908400286063 -1.342961405304506 1.638061633714079 -1.8658965542583394 -1.570796328365774 1.427994513463287 3519.3640000001137
2.9987908400286063 -1.342961405304506 1.638061633714079 -1.8658965542583394 -1.570796328365774 1.427994513463287 3519.414000000114
2.9987908400286063 -1.342961405304506 1.638061633714079 -1.8658965542583394 -1.570796328365774 1.427994513463287 3519.464000000114
2.9987908400286063 -1.342961405304506 1.638061633714079 -1.8658965542583394 -1.570796328365774 1.427994513463287 3519.5140000001143
2.9987908400286063 -1.342961405304506 1.638061633714079 -1.8658965542583394 -1.570796328365774 1.427994513463287 3519.5640000001144
2.9987908400286063 -1.342961405304506 1.638061633714079 -1.8658965542583394 -1.570796328365774 1.427994513463287 3519.6140000001146
2.9987908400286063 -1.342961405304506 1.638061633714079 -1.8658965542583394 -1.570796328365774 1.427994513463287 3519.664000000115
2.9987908400286063 -1.342961405304506 1.638061633714079 -1.8658965542583394 -1.570796328365774 1.427994513463287 3519.714000000115
2.9987908400286063 -1.342961405304506 1.638061633714079 -1.8658965542583394 -1.570796328365774 1.427994513463287 3519.764000000115
2.9987908400286063 -1.342961405304506 1.638061633714079 -1.8658965542583394 -1.570796328365774 1.427994513463287 3519.8140000001154
2.9987908400286063 -1.342961405304506 1.638061633714079 -1.8658965542583394 -1.570796328365774 1.427994513463287 3519.8640000001155
2.9987908400286063 -1.342961405304506 1.638061633714079 -1.8658965542583394 -1.570796328365774 1.427994513463287 3519.9140000001157
2.9987908400286063 -1.342961405304506 1.638061633714079 -1.8658965542583394 -1.570796328365774 1.427994513463287 3519.964000000116
2.9987908400286063 -1.342961405304506 1.638061633714079 -1.8658965542583394 -1.570796328365774 1.427994513463287 3520.014000000116
2.9987908400286063 -1.342961405304506 1.638061633714079 -1.8658965542583394 -1.570796328365774 1.427994513463287 3520.0640000001163
2.9987908400286063 -1.342961405304506 1.638061633714079 -1.8658965542583394 -1.570796328365774 1.427994513463287 3520.1140000001164
2.9987908400286063 -1.342961405304506 1.638061633714079 -1.8658965542583394 -1.570796328365774 1.427994513463287 3520.1640000001166
2.9987908400286063 -1.342961405304506 1.638061633714079 -1.8658965542583394 -1.570796328365774 1.427994513463287 3520.214000000117
2.9987908400286063 -1.342961405304506 1.638061633714079 -1.8658965542583392 -1.570796328365774 1.427994513463287 3520.264000000117
2.9989676459312133 -1.3429642029643736 1.638065148851731 -1.8658972717513087 -1.5707963283666861 1.4281713193658485 3520.314000000117
3.000155606088324 -1.3429830004615542 1.6380887670874102 -1.8659020925918357 -1.5707963283728157 1.429359279522654 3520.3640000001174
3.0032324606315295 -1.343031686576366 1.6381499390680678 -1.865914578721938 -1.5707963283886914 1.4324361340650686 3520.4140000001175
3.008936889983015 -1.3431219497000997 1.6382633507477724 -1.8659377277678355 -1.5707963284181246 1.4381405634150883 3520.4640000001177
3.0178756461227088 -1.3432633906754796 1.638441065166833 -1.865974001979224 -1.5707963284642459 1.4470793195524851 3520.514000000118
3.030530683855432 -1.343463635637129 1.6386926642309214 -1.8660253571685446 -1.570796328529542 1.459734357281956 3520.564000000118
3.0472662920780462 -1.3437284488520318 1.639025390490194 -1.8660932716502567 -1.5707963286158926 1.4764699655002698 3520.6140000001183
3.0683362250466044 -1.3440618455599955 1.6394442889184133 -1.8661787751801098 -1.5707963287246072 1.4975398984634132 3520.6640000001184
3.093890833643498 -1.3444662048141145 1.6399523486920715 -1.8662824778944143 -1.5707963288564613 1.5230945070537396 3520.7140000001186
3.1239841966446065 -1.3449423823212332 1.6405506449695115 -1.8664045992493128 -1.570796329011734 1.553187870047115 3520.764000000119
3.158581251986448 -1.3454898232824084 1.6412384806700495 -1.8665449969600538 -1.5707963291902443 1.5877849253800658 3520.814000000119
3.1975649280333256 -1.346106675233373 1.6420135282530968 -1.866703195940261 -1.5707963293913882 1.6267686014169256 3520.864000000119
3.2407432748444793 -1.3467899008849986 1.6428719714972826 -1.8668784172412058 -1.5707963296141756 1.6699469482169829 3520.9140000001194
3.2878565954412315 -1.3475353909637584 1.643808647279575 -1.8670696069910802 -1.570796329857266 1.717060268801628 3520.9640000001195
3.3385845770741396 -1.3483380770521902 1.6448171873544049 -1.8672754653342656 -1.570796330119007 1.7677882504215001 3521.0140000001197
3.392553422490143 -1.3491920444293597 1.645890160132786 -1.8674944753706075 -1.5707963303974701 1.8217570958236342 3521.06400000012
3.4493429811997114 -1.3500906449113228 1.6470192124614387 -1.867724932094685 -1.570796330690487 1.8785466545186094 3521.11400000012
3.5084938807439974 -1.3510266096915897 1.6481952114019118 -1.8679649713350837 -1.5707963309956878 1.9376975540476944 3521.1640000001203
3.5695146579619803 -1.3519921621815867 1.649408386009704 -1.8682125986936664 -1.5707963313105366 1.9987183312499963 3521.2140000001204
3.63188889025762 -1.3529791308511196 1.6506484691133867 -1.8684657184848452 -1.5707963316323688 2.061092563529607 3521.2640000001206
3.695082326867002 -1.353979062068837 1.6519048390937257 -1.8687221626748536 -1.570796331958428 2.1242860001227495 3521.314000000121
3.75855002012549 -1.3549833329426935 1.6531666616628038 -1.8689797198210167 -1.570796332285902 2.187753693364928 3521.364000000121
3.8217434567348723 -1.3559832641604108 1.6544230316431427 -1.869236164011025 -1.5707963326119612 2.2509471299580706 3521.414000000121
3.884117689030512 -1.3569702328299438 1.6556631147468255 -1.869489283802204 -1.5707963329337933 2.3133213622376814 3521.4640000001214
3.945138466248495 -1.3579357853199407 1.6568762893546176 -1.8697369111607867 -1.570796333248642 2.374342139439983 3521.5140000001215
4.00428936579278 -1.3588717501002077 1.6580522882950905 -1.8699769504011854 -1.5707963335538428 2.4334930389690674 3521.5640000001217
4.06107892450235 -1.3597703505821708 1.6591813406237435 -1.8702074071252628 -1.5707963338468598 2.4902825976640433 3521.614000000122
4.115047769918353 -1.3606243179593402 1.6602543134021246 -1.8704264171616047 -1.5707963341253228 2.5442514430661776 3521.664000000122
4.16577575155126 -1.361427004047772 1.6612628534769545 -1.8706322755047902 -1.570796334387064 2.594979424686049 3521.7140000001223
4.212889072148013 -1.3621724941265319 1.6621995292592469 -1.8708234652546645 -1.5707963346301543 2.642092745270695 3521.7640000001225
4.256067418959167 -1.3628557197781574 1.6630579725034327 -1.8709986865556094 -1.5707963348529417 2.685271092070753 3521.8140000001226
4.295051095006044 -1.363472571729122 1.66383302008648 -1.8711568855358165 -1.5707963350540857 2.7242547681076115 3521.864000000123
4.329648150347886 -1.3640200126902973 1.664520855787018 -1.8712972832465575 -1.570796335232596 2.758851823440563 3521.914000000123
4.359741513348995 -1.364496190197416 1.665119152064458 -1.8714194046014563 -1.5707963353878687 2.7889451864339385 3521.964000000123
4.385296121945887 -1.364900549451535 1.6656272118381161 -1.8715231073157605 -1.5707963355197228 2.814499795024264 3522.0140000001234
4.406366054914446 -1.3652339461594987 1.6660461102663355 -1.8716086108456136 -1.5707963356284373 2.835569727987407 3522.0640000001235
4.423101663137061 -1.3654987593744015 1.666378836525608 -1.8716765253273258 -1.5707963357147878 2.8523053362057222 3522.1140000001237
4.435756700869781 -1.3656990043360508 1.6666304355896964 -1.8717278805166464 -1.570796335780084 2.864960373935191 3522.164000000124
4.444695457009477 -1.3658404453114308 1.666808150008757 -1.8717641547280348 -1.5707963358262054 2.8738991300725902 3522.214000000124
4.450399886360962 -1.3659307084351644 1.6669215616884616 -1.8717873037739323 -1.5707963358556385 2.8796035594226095 3522.2640000001243
4.453476740904168 -1.3659793945499763 1.6669827336691192 -1.8717997899040346 -1.5707963358715142 2.8826804139650246 3522.3140000001245
4.4546647010612785 -1.365998192047157 1.6670063519047984 -1.8718046107445616 -1.5707963358776438 2.8838683741218274 3522.3640000001246
4.454841506963886 -1.3660009897070244 1.6670098670424505 -1.871805328237531 -1.570796335878556 2.8840451800243914 3522.414000000125
4.454841506963886 -1.3660009897070244 1.6670098670424505 -1.871805328237531 -1.570796335878556 2.8840451800243905 3522.464000000125
4.454841496852375 -1.3657755005395669 1.667402839112156 -1.8724237909570693 -1.570796336647581 2.8840451698929104 3522.514000000125
4.45484143431634 -1.3643809316412725 1.6698332291503502 -1.87624875906151 -1.5707963414037223 2.8840451072333737 3522.5640000001254
4.454841287990682 -1.3611178336005298 1.6755200051723673 -1.8851986545760087 -1.5707963525324342 2.884044960618737 3522.6140000001255
4.454841046225505 -1.3557264109215972 1.684915926726761 -1.8999860342527655 -1.5707963709197423 2.884044718376099 3522.6640000001257
4.4548407135015395 -1.348306584948991 1.6978468555256259 -1.920336837802473 -1.5707963962248679 2.8840443849950375 3522.714000000126
4.454840306845552 -1.3392380567918714 1.7136510660749231 -1.9452096361257611 -1.5707964271528496 2.8840439775359465 3522.764000000126
4.45483985224577 -1.329100370248431 1.7313185563048037 -1.9730148795446438 -1.5707964617271686 2.884043522038376 3522.8140000001263
4.454839381067291 -1.3185929747302818 1.7496303581999328 -2.0018341460339655 -1.5707964975623705 2.884043049929369 3522.8640000001265
4.454838926467509 -1.3084552881868414 1.7672978484298134 -2.029639389452848 -1.5707965321366895 2.884042594431799 3522.9140000001266
4.4548385198115215 -1.299386760029722 1.7831020589791107 -2.0545121877761363 -1.5707965630646712 2.884042186972708 3522.964000000127
4.454838187087556 -1.2919669340571156 1.7960329877779755 -2.0748629913258436 -1.5707965883697967 2.8840418535916466 3523.014000000127
4.454837945322379 -1.286575511378183 1.8054289093323692 -2.089650371002601 -1.5707966067571049 2.8840416113490086 3523.064000000127
4.454837798996721 -1.2833124133374403 1.8111156853543866 -2.0986002665170993 -1.5707966178858168 2.8840414647343717 3523.1140000001274
4.454837736460686 -1.281917844439146 1.8135460753925805 -2.10242523462154 -1.570796622641958 2.884041402074835 3523.1640000001275
4.454837726349175 -1.2816923552716883 1.813939047462286 -2.103043697341078 -1.5707966234109831 2.884041391943355 3523.2140000001277
4.454837726349175 -1.2816923552716883 1.813939047462286 -2.103043697341078 -1.5707966234109831 2.884041391943355 3523.264000000128
4.454837726349175 -1.2816923552716883 1.813939047462286 -2.103043697341078 -1.5707966234109831 2.884041391943355 3523.314000000128
4.454837726349175 -1.2816923552716883 1.813939047462286 -2.103043697341078 -1.5707966234109831 2.884041391943355 3523.3640000001283
4.454837726349175 -1.2816923552716883 1.813939047462286 -2.103043697341078 -1.5707966234109831 2.884041391943355 3523.4140000001285
4.454837726349175 -1.2816923552716883 1.813939047462286 -2.103043697341078 -1.5707966234109831 2.884041391943355 3523.4640000001286
4.454837726349175 -1.2816923552716883 1.813939047462286 -2.103043697341078 -1.5707966234109831 2.884041391943355 3523.514000000129
4.454837726349175 -1.2816923552716883 1.813939047462286 -2.103043697341078 -1.5707966234109831 2.884041391943355 3523.564000000129
4.454837726349175 -1.2816923552716883 1.813939047462286 -2.103043697341078 -1.5707966234109831 2.884041391943355 3523.614000000129
4.454837726349175 -1.2816923552716883 1.813939047462286 -2.103043697341078 -1.5707966234109831 2.884041391943355 3523.6640000001294
4.454837726349175 -1.2816923552716883 1.813939047462286 -2.103043697341078 -1.5707966234109831 2.884041391943355 3523.7140000001295
4.454837726349175 -1.2816923552716883 1.813939047462286 -2.103043697341078 -1.5707966234109831 2.884041391943355 3523.7640000001297
4.454837726349175 -1.2816923552716883 1.813939047462286 -2.103043697341078 -1.5707966234109831 2.884041391943355 3523.81400000013
4.454837726349175 -1.2816923552716883 1.813939047462286 -2.103043697341078 -1.5707966234109831 2.884041391943355 3523.86400000013
4.454837726349175 -1.2816923552716883 1.813939047462286 -2.103043697341078 -1.5707966234109831 2.884041391943355 3523.9140000001303
4.454837736460686 -1.281917844439146 1.8135460753925805 -2.10242523462154 -1.570796622641958 2.884041402074835 3523.9640000001305
4.454837798996721 -1.2833124133374403 1.8111156853543864 -2.0986002665170993 -1.5707966178858168 2.8840414647343717 3524.0140000001306
4.454837945322379 -1.286575511378183 1.8054289093323692 -2.089650371002601 -1.5707966067571049 2.8840416113490086 3524.064000000131
4.454838187087556 -1.2919669340571156 1.7960329877779755 -2.0748629913258436 -1.5707965883697967 2.8840418535916466 3524.114000000131
4.4548385198115215 -1.2993867600297218 1.7831020589791107 -2.0545121877761363 -1.5707965630646712 2.884042186972708 3524.164000000131
4.454838926467509 -1.3084552881868414 1.7672978484298134 -2.029639389452848 -1.5707965321366895 2.884042594431799 3524.2140000001314
4.454839381067291 -1.3185929747302818 1.7496303581999328 -2.0018341460339655 -1.5707964975623705 2.884043049929369 3524.2640000001315
4.45483985224577 -1.329100370248431 1.7313185563048037 -1.9730148795446438 -1.5707964617271686 2.884043522038376 3524.3140000001317
4.454840306845552 -1.3392380567918714 1.7136510660749231 -1.9452096361257611 -1.5707964271528496 2.8840439775359465 3524.364000000132
4.4548407135015395 -1.3483065849489908 1.6978468555256259 -1.9203368378024732 -1.5707963962248679 2.8840443849950375 3524.414000000132
4.454841046225505 -1.3557264109215972 1.684915926726761 -1.8999860342527657 -1.5707963709197423 2.884044718376099 3524.4640000001323
4.454841287990682 -1.3611178336005298 1.6755200051723673 -1.8851986545760084 -1.5707963525324342 2.884044960618737 3524.5140000001325
4.45484143431634 -1.3643809316412725 1.66983322915035 -1.8762487590615098 -1.5707963414037223 2.8840451072333737 3524.5640000001326
4.454841496852375 -1.3657755005395669 1.667402839112156 -1.8724237909570691 -1.570796336647581 2.8840451698929104 3524.614000000133
4.454841506963886 -1.3660009897070244 1.6670098670424505 -1.871805328237531 -1.570796335878556 2.8840451800243905 3524.664000000133
4.454841506963886 -1.3660009897070244 1.6670098670424505 -1.871805328237531 -1.570796335878556 2.8840451800243905 3524.714000000133
4.454808023337501 -1.3659966192933004 1.6670039741548495 -1.8718038057607702 -1.5707963358783463 2.8839752034095203 3524.7640000001334
4.454579016614453 -1.365966728441162 1.6669636705490425 -1.8717933929873773 -1.5707963358769133 2.88349660783934 3524.8140000001335
4.453973558237305 -1.365887701648471 1.6668571140451969 -1.8717658632240757 -1.5707963358731245 2.882231275130434 3524.8640000001337
4.452826243428169 -1.3657379496374404 1.6666551945417496 -1.871713695632842 -1.5707963358659447 2.879833529867995 3524.914000000134
4.450986753899145 -1.3654978522778953 1.666331457055456 -1.8716300553476606 -1.5707963358544337 2.8759892255250157 3524.964000000134
4.448319420562752 -1.3651497015105272 1.6658620247614384 -1.8715087735912768 -1.570796335837742 2.870414830581485 3525.0140000001343
4.444702786242366 -1.3646776442701545 1.6652255220332353 -1.8713443277919501 -1.5707963358151096 2.8628565146435827 3525.0640000001345
4.440029168382653 -1.3640676254089785 1.6644029974828494 -1.871131821700207 -1.570796335785863 2.85308923456287 3525.1140000001346
4.434204221760008 -1.3633073306198416 1.663377847000797 -1.8708669655055963 -1.5707963357494117 2.8409158205554874 3525.164000000135
4.427146501192985 -1.3623861293594846 1.6621357367961562 -1.8705460559534397 -1.5707963357052457 2.8261660623213487 3525.214000000135
4.4187870242527385 -1.3612950177718053 1.6606645264366167 -1.8701659564615876 -1.5707963356529335 2.8086957951633327 3525.264000000135
